P3
400 225
255
210 229 255
210 229 255
210 229 255
210 229 255
210 229 255
210 229 255
210 229 255
210 229 255
210 229 255
210 229 255
210 229 255
211 229 255
211 229 255
211 229 255
211 229 255
211 229 255
211 229 255
211 229 255
211 229 255
211 229 255
211 230 255
211 230 255
211 230 255
211 230 255
211 230 255
211 230 255
211 230 255
211 230 255
212 230 255
212 230 255
212 230 255
212 230 255
212 230 255
212 230 255
212 230 255
212 230 255
212 230 255
212 230 255
212 230 255
212 230 255
212 230 255
212 230 255
212 230 255
212 230 255
213 230 255
213 230 255
213 230 255
213 230 255
213 230 255
213 231 255
213 231 255
213 231 255
213 231 255
213 231 255
213 231 255
213 231 255
213 231 255
213 231 255
213 231 255
214 231 255
214 231 255
214 231 255
214 231 255
214 231 255
214 231 255
214 231 255
214 231 255
214 231 255
214 231 255
214 231 255
214 231 255
214 231 255
214 231 255
215 231 255
215 231 255
215 231 255
215 232 255
215 232 255
215 232 255
215 232 255
215 232 255
215 232 255
215 232 255
215 232 255
215 232 255
215 232 255
215 232 255
216 232 255
216 232 255
216 232 255
216 232 255
216 232 255
216 232 255
216 232 255
216 232 255
216 232 255
216 232 255
216 232 255
216 232 255
216 232 255
217 233 255
217 233 255
217 233 255
217 233 255
217 233 255
217 233 255
217 233 255
217 233 255
217 233 255
217 233 255
217 233 255
217 233 255
217 233 255
218 233 255
218 233 255
218 233 255
218 233 255
218 233 255
218 233 255
218 233 255
218 233 255
218 233 255
218 233 255
218 234 255
218 234 255
218 234 255
219 234 255
219 234 255
219 234 255
219 234 255
219 234 255
219 234 255
219 234 255
219 234 255
219 234 255
219 234 255
219 234 255
219 234 255
220 234 255
220 234 255
220 234 255
220 234 255
220 234 255
220 234 255
220 234 255
220 235 255
220 235 255
220 235 255
220 235 255
220 235 255
221 235 255
221 235 255
221 235 255
221 235 255
221 235 255
221 235 255
221 235 255
221 235 255
221 235 255
221 235 255
221 235 255
221 235 255
222 235 255
222 235 255
222 235 255
222 235 255
222 236 255
222 236 255
222 236 255
222 236 255
222 236 255
222 236 255
222 236 255
222 236 255
223 236 255
223 236 255
223 236 255
223 236 255
223 236 255
223 236 255
223 236 255
223 236 255
223 236 255
223 236 255
223 236 255
223 236 255
224 236 255
224 237 255
224 237 255
224 237 255
224 237 255
224 237 255
224 237 255
224 237 255
224 237 255
224 237 255
224 237 255
224 237 255
225 237 255
225 237 255
225 237 255
225 237 255
225 237 255
225 237 255
225 237 255
225 237 255
225 237 255
225 237 255
225 238 255
225 238 255
226 238 255
226 238 255
226 238 255
226 238 255
226 238 255
226 238 255
226 238 255
226 238 255
226 238 255
226 238 255
226 238 255
226 238 255
227 238 255
227 238 255
227 238 255
227 238 255
227 238 255
227 238 255
227 238 255
227 238 255
227 239 255
227 239 255
227 239 255
227 239 255
228 239 255
228 239 255
228 239 255
228 239 255
228 239 255
228 239 255
228 239 255
228 239 255
228 239 255
228 239 255
228 239 255
228 239 255
228 239 255
229 239 255
229 239 255
229 239 255
229 239 255
229 239 255
229 240 255
229 240 255
229 240 255
229 240 255
229 240 255
229 240 255
229 240 255
229 240 255
230 240 255
230 240 255
230 240 255
230 240 255
230 240 255
230 240 255
230 240 255
230 240 255
230 240 255
230 240 255
230 240 255
230 240 255
230 240 255
231 240 255
231 240 255
231 241 255
231 241 255
231 241 255
231 241 255
231 241 255
231 241 255
231 241 255
231 241 255
231 241 255
231 241 255
231 241 255
231 241 255
232 241 255
232 241 255
232 241 255
232 241 255
232 241 255
232 241 255
232 241 255
232 241 255
232 241 255
232 241 255
232 241 255
232 241 255
232 241 255
232 241 255
232 242 255
233 242 255
233 242 255
233 242 255
233 242 255
233 242 255
233 242 255
233 242 255
233 242 255
233 242 255
233 242 255
233 242 255
233 242 255
233 242 255
233 242 255
233 242 255
233 242 255
234 242 255
234 242 255
234 242 255
234 242 255
234 242 255
234 242 255
234 242 255
234 242 255
234 242 255
234 242 255
234 243 255
234 243 255
234 243 255
234 243 255
234 243 255
234 243 255
234 243 255
235 243 255
235 243 255
235 243 255
235 243 255
235 243 255
235 243 255
235 243 255
235 243 255
235 243 255
235 243 255
235 243 255
235 243 255
235 243 255
235 243 255
235 243 255
235 243 255
235 243 255
235 243 255
236 243 255
236 243 255
236 243 255
236 243 255
236 243 255
236 243 255
236 243 255
236 244 255
236 244 255
236 244 255
236 244 255
236 244 255
236 244 255
236 244 255
236 244 255
236 244 255
236 244 255
236 244 255
236 244 255
236 244 255
237 244 255
237 244 255
237 244 255
237 244 255
237 244 255
237 244 255
237 244 255
237 244 255
237 244 255
237 244 255
237 244 255
237 244 255
237 244 255
237 244 255
237 244 255
237 244 255
237 244 255
237 244 255
237 244 255
237 244 255
237 244 255
237 244 255
237 244 255
238 244 255
238 244 255
238 245 255
238 245 255
210 229 255
210 229 255
210 229 255
210 229 255
210 229 255
210 229 255
210 229 255
210 229 255
210 229 255
210 229 255
211 229 255
211 229 255
211 229 255
211 229 255
211 229 255
211 229 255
211 229 255
211 229 255
211 229 255
211 230 255
211 230 255
211 230 255
211 230 255
211 230 255
211 230 255
211 230 255
211 230 255
212 230 255
212 230 255
212 230 255
212 230 255
212 230 255
212 230 255
212 230 255
212 230 255
212 230 255
212 230 255
212 230 255
212 230 255
212 230 255
212 230 255
212 230 255
212 230 255
213 230 255
213 230 255
213 230 255
213 230 255
213 230 255
213 231 255
213 231 255
213 231 255
213 231 255
213 231 255
213 231 255
213 231 255
213 231 255
213 231 255
213 231 255
214 231 255
214 231 255
214 231 255
214 231 255
214 231 255
214 231 255
214 231 255
214 231 255
214 231 255
214 231 255
214 231 255
214 231 255
214 231 255
214 231 255
215 231 255
215 231 255
215 231 255
215 232 255
215 232 255
215 232 255
215 232 255
215 232 255
215 232 255
215 232 255
215 232 255
215 232 255
215 232 255
215 232 255
216 232 255
216 232 255
216 232 255
216 232 255
216 232 255
216 232 255
216 232 255
216 232 255
216 232 255
216 232 255
216 232 255
216 232 255
216 232 255
217 233 255
217 233 255
217 233 255
217 233 255
217 233 255
217 233 255
217 233 255
217 233 255
217 233 255
217 233 255
217 233 255
217 233 255
217 233 255
218 233 255
218 233 255
218 233 255
218 233 255
218 233 255
218 233 255
218 233 255
218 233 255
218 233 255
218 233 255
218 234 255
218 234 255
218 234 255
219 234 255
219 234 255
219 234 255
219 234 255
219 234 255
219 234 255
219 234 255
219 234 255
219 234 255
219 234 255
219 234 255
219 234 255
220 234 255
220 234 255
220 234 255
220 234 255
220 234 255
220 234 255
220 234 255
220 235 255
220 235 255
220 235 255
220 235 255
220 235 255
221 235 255
221 235 255
221 235 255
221 235 255
221 235 255
221 235 255
221 235 255
221 235 255
221 235 255
221 235 255
221 235 255
221 235 255
222 235 255
222 235 255
222 235 255
222 235 255
222 236 255
222 236 255
222 236 255
222 236 255
222 236 255
222 236 255
222 236 255
222 236 255
223 236 255
223 236 255
223 236 255
223 236 255
223 236 255
223 236 255
223 236 255
223 236 255
223 236 255
223 236 255
223 236 255
223 236 255
224 236 255
224 237 255
224 237 255
224 237 255
224 237 255
224 237 255
224 237 255
224 237 255
224 237 255
224 237 255
224 237 255
224 237 255
225 237 255
225 237 255
225 237 255
225 237 255
225 237 255
225 237 255
225 237 255
225 237 255
225 237 255
225 237 255
225 238 255
225 238 255
226 238 255
226 238 255
226 238 255
226 238 255
226 238 255
226 238 255
226 238 255
226 238 255
226 238 255
226 238 255
226 238 255
226 238 255
227 238 255
227 238 255
227 238 255
227 238 255
227 238 255
227 238 255
227 238 255
227 238 255
227 239 255
227 239 255
227 239 255
227 239 255
228 239 255
228 239 255
228 239 255
228 239 255
228 239 255
228 239 255
228 239 255
228 239 255
228 239 255
228 239 255
228 239 255
228 239 255
228 239 255
229 239 255
229 239 255
229 239 255
229 239 255
229 239 255
229 240 255
229 240 255
229 240 255
229 240 255
229 240 255
229 240 255
229 240 255
229 240 255
230 240 255
230 240 255
230 240 255
230 240 255
230 240 255
230 240 255
230 240 255
230 240 255
230 240 255
230 240 255
230 240 255
230 240 255
230 240 255
231 240 255
231 240 255
231 241 255
231 241 255
231 241 255
231 241 255
231 241 255
231 241 255
231 241 255
231 241 255
231 241 255
231 241 255
231 241 255
231 241 255
232 241 255
232 241 255
232 241 255
232 241 255
232 241 255
232 241 255
232 241 255
232 241 255
232 241 255
232 241 255
232 241 255
232 241 255
232 241 255
232 242 255
232 242 255
233 242 255
233 242 255
233 242 255
233 242 255
233 242 255
233 242 255
233 242 255
233 242 255
233 242 255
233 242 255
233 242 255
233 242 255
233 242 255
233 242 255
233 242 255
233 242 255
234 242 255
234 242 255
234 242 255
234 242 255
234 242 255
234 242 255
234 242 255
234 242 255
234 242 255
234 242 255
234 243 255
234 243 255
234 243 255
234 243 255
234 243 255
234 243 255
234 243 255
235 243 255
235 243 255
235 243 255
235 243 255
235 243 255
235 243 255
235 243 255
235 243 255
235 243 255
235 243 255
235 243 255
235 243 255
235 243 255
235 243 255
235 243 255
235 243 255
235 243 255
235 243 255
236 243 255
236 243 255
236 243 255
236 243 255
236 243 255
236 243 255
236 243 255
236 244 255
236 244 255
236 244 255
236 244 255
236 244 255
236 244 255
236 244 255
236 244 255
236 244 255
236 244 255
236 244 255
236 244 255
236 244 255
237 244 255
237 244 255
237 244 255
237 244 255
237 244 255
237 244 255
237 244 255
237 244 255
237 244 255
237 244 255
237 244 255
237 244 255
237 244 255
237 244 255
237 244 255
237 244 255
237 244 255
237 244 255
237 244 255
237 244 255
237 244 255
237 244 255
238 244 255
238 244 255
238 245 255
238 245 255
238 245 255
238 245 255
210 229 255
210 229 255
210 229 255
210 229 255
210 229 255
210 229 255
210 229 255
210 229 255
210 229 255
211 229 255
211 229 255
211 229 255
211 229 255
211 229 255
211 229 255
211 229 255
211 229 255
211 229 255
211 230 255
211 230 255
211 230 255
211 230 255
211 230 255
211 230 255
211 230 255
211 230 255
212 230 255
212 230 255
212 230 255
212 230 255
212 230 255
212 230 255
212 230 255
212 230 255
212 230 255
212 230 255
212 230 255
212 230 255
212 230 255
212 230 255
212 230 255
212 230 255
213 230 255
213 230 255
213 230 255
213 230 255
213 230 255
213 231 255
213 231 255
213 231 255
213 231 255
213 231 255
213 231 255
213 231 255
213 231 255
213 231 255
213 231 255
214 231 255
214 231 255
214 231 255
214 231 255
214 231 255
214 231 255
214 231 255
214 231 255
214 231 255
214 231 255
214 231 255
214 231 255
214 231 255
214 231 255
214 231 255
215 231 255
215 231 255
215 232 255
215 232 255
215 232 255
215 232 255
215 232 255
215 232 255
215 232 255
215 232 255
215 232 255
215 232 255
215 232 255
216 232 255
216 232 255
216 232 255
216 232 255
216 232 255
216 232 255
216 232 255
216 232 255
216 232 255
216 232 255
216 232 255
216 232 255
216 232 255
216 233 255
217 233 255
217 233 255
217 233 255
217 233 255
217 233 255
217 233 255
217 233 255
217 233 255
217 233 255
217 233 255
217 233 255
217 233 255
218 233 255
218 233 255
218 233 255
218 233 255
218 233 255
218 233 255
218 233 255
218 233 255
218 233 255
218 233 255
218 234 255
218 234 255
218 234 255
219 234 255
219 234 255
219 234 255
219 234 255
219 234 255
219 234 255
219 234 255
219 234 255
219 234 255
219 234 255
219 234 255
219 234 255
220 234 255
220 234 255
220 234 255
220 234 255
220 234 255
220 234 255
220 234 255
220 235 255
220 235 255
220 235 255
220 235 255
220 235 255
221 235 255
221 235 255
221 235 255
221 235 255
221 235 255
221 235 255
221 235 255
221 235 255
221 235 255
221 235 255
221 235 255
221 235 255
222 235 255
222 235 255
222 235 255
222 235 255
222 236 255
222 236 255
222 236 255
222 236 255
222 236 255
222 236 255
222 236 255
222 236 255
223 236 255
223 236 255
223 236 255
223 236 255
223 236 255
223 236 255
223 236 255
223 236 255
223 236 255
223 236 255
223 236 255
223 236 255
224 236 255
224 237 255
224 237 255
224 237 255
224 237 255
224 237 255
224 237 255
224 237 255
224 237 255
224 237 255
224 237 255
224 237 255
225 237 255
225 237 255
225 237 255
225 237 255
225 237 255
225 237 255
225 237 255
225 237 255
225 237 255
225 237 255
225 238 255
225 238 255
226 238 255
226 238 255
226 238 255
226 238 255
226 238 255
226 238 255
226 238 255
226 238 255
226 238 255
226 238 255
226 238 255
226 238 255
227 238 255
227 238 255
227 238 255
227 238 255
227 238 255
227 238 255
227 238 255
227 238 255
227 239 255
227 239 255
227 239 255
227 239 255
228 239 255
228 239 255
228 239 255
228 239 255
228 239 255
228 239 255
228 239 255
228 239 255
228 239 255
228 239 255
228 239 255
228 239 255
228 239 255
229 239 255
229 239 255
229 239 255
229 239 255
229 239 255
229 240 255
229 240 255
229 240 255
229 240 255
229 240 255
229 240 255
229 240 255
229 240 255
230 240 255
230 240 255
230 240 255
230 240 255
230 240 255
230 240 255
230 240 255
230 240 255
230 240 255
230 240 255
230 240 255
230 240 255
230 240 255
231 240 255
231 240 255
231 241 255
231 241 255
231 241 255
231 241 255
231 241 255
231 241 255
231 241 255
231 241 255
231 241 255
231 241 255
231 241 255
231 241 255
232 241 255
232 241 255
232 241 255
232 241 255
232 241 255
232 241 255
232 241 255
232 241 255
232 241 255
232 241 255
232 241 255
232 241 255
232 241 255
232 242 255
232 242 255
233 242 255
233 242 255
233 242 255
233 242 255
233 242 255
233 242 255
233 242 255
233 242 255
233 242 255
233 242 255
233 242 255
233 242 255
233 242 255
233 242 255
233 242 255
233 242 255
234 242 255
234 242 255
234 242 255
234 242 255
234 242 255
234 242 255
234 242 255
234 242 255
234 242 255
234 242 255
234 243 255
234 243 255
234 243 255
234 243 255
234 243 255
234 243 255
235 243 255
235 243 255
235 243 255
235 243 255
235 243 255
235 243 255
235 243 255
235 243 255
235 243 255
235 243 255
235 243 255
235 243 255
235 243 255
235 243 255
235 243 255
235 243 255
235 243 255
235 243 255
236 243 255
236 243 255
236 243 255
236 243 255
236 243 255
236 243 255
236 243 255
236 244 255
236 244 255
236 244 255
236 244 255
236 244 255
236 244 255
236 244 255
236 244 255
236 244 255
236 244 255
236 244 255
236 244 255
236 244 255
237 244 255
237 244 255
237 244 255
237 244 255
237 244 255
237 244 255
237 244 255
237 244 255
237 244 255
237 244 255
237 244 255
237 244 255
237 244 255
237 244 255
237 244 255
237 244 255
237 244 255
237 244 255
237 244 255
237 244 255
237 244 255
237 244 255
238 244 255
238 244 255
238 245 255
238 245 255
238 245 255
238 245 255
238 245 255
238 245 255
210 229 255
210 229 255
210 229 255
210 229 255
210 229 255
210 229 255
210 229 255
210 229 255
211 229 255
211 229 255
211 229 255
211 229 255
211 229 255
211 229 255
211 229 255
211 229 255
211 229 255
211 230 255
211 230 255
211 230 255
211 230 255
211 230 255
211 230 255
211 230 255
211 230 255
212 230 255
212 230 255
212 230 255
212 230 255
212 230 255
212 230 255
212 230 255
212 230 255
212 230 255
212 230 255
212 230 255
212 230 255
212 230 255
212 230 255
212 230 255
212 230 255
213 230 255
213 230 255
213 230 255
213 230 255
213 230 255
213 230 255
213 231 255
213 231 255
213 231 255
213 231 255
213 231 255
213 231 255
213 231 255
213 231 255
213 231 255
214 231 255
214 231 255
214 231 255
214 231 255
214 231 255
214 231 255
214 231 255
214 231 255
214 231 255
214 231 255
214 231 255
214 231 255
214 231 255
214 231 255
214 231 255
215 231 255
215 231 255
215 232 255
215 232 255
215 232 255
215 232 255
215 232 255
215 232 255
215 232 255
215 232 255
215 232 255
215 232 255
215 232 255
216 232 255
216 232 255
216 232 255
216 232 255
216 232 255
216 232 255
216 232 255
216 232 255
216 232 255
216 232 255
216 232 255
216 232 255
216 232 255
216 233 255
217 233 255
217 233 255
217 233 255
217 233 255
217 233 255
217 233 255
217 233 255
217 233 255
217 233 255
217 233 255
217 233 255
217 233 255
217 233 255
218 233 255
218 233 255
218 233 255
218 233 255
218 233 255
218 233 255
218 233 255
218 233 255
218 233 255
218 234 255
218 234 255
218 234 255
219 234 255
219 234 255
219 234 255
219 234 255
219 234 255
219 234 255
219 234 255
219 234 255
219 234 255
219 234 255
219 234 255
219 234 255
220 234 255
220 234 255
220 234 255
220 234 255
220 234 255
220 234 255
220 234 255
220 235 255
220 235 255
220 235 255
220 235 255
220 235 255
221 235 255
221 235 255
221 235 255
221 235 255
221 235 255
221 235 255
221 235 255
221 235 255
221 235 255
221 235 255
221 235 255
221 235 255
222 235 255
222 235 255
222 235 255
222 235 255
222 236 255
222 236 255
222 236 255
222 236 255
222 236 255
222 236 255
222 236 255
222 236 255
223 236 255
223 236 255
223 236 255
223 236 255
223 236 255
223 236 255
223 236 255
223 236 255
223 236 255
223 236 255
223 236 255
223 236 255
224 236 255
224 237 255
224 237 255
224 237 255
224 237 255
224 237 255
224 237 255
224 237 255
224 237 255
224 237 255
224 237 255
224 237 255
225 237 255
225 237 255
225 237 255
225 237 255
225 237 255
225 237 255
225 237 255
225 237 255
225 237 255
225 237 255
225 238 255
225 238 255
226 238 255
226 238 255
226 238 255
226 238 255
226 238 255
226 238 255
226 238 255
226 238 255
226 238 255
226 238 255
226 238 255
226 238 255
227 238 255
227 238 255
227 238 255
227 238 255
227 238 255
227 238 255
227 238 255
227 238 255
227 239 255
227 239 255
227 239 255
227 239 255
228 239 255
228 239 255
228 239 255
228 239 255
228 239 255
228 239 255
228 239 255
228 239 255
228 239 255
228 239 255
228 239 255
228 239 255
228 239 255
229 239 255
229 239 255
229 239 255
229 239 255
229 239 255
229 240 255
229 240 255
229 240 255
229 240 255
229 240 255
229 240 255
229 240 255
229 240 255
230 240 255
230 240 255
230 240 255
230 240 255
230 240 255
230 240 255
230 240 255
230 240 255
230 240 255
230 240 255
230 240 255
230 240 255
230 240 255
231 240 255
231 240 255
231 241 255
231 241 255
231 241 255
231 241 255
231 241 255
231 241 255
231 241 255
231 241 255
231 241 255
231 241 255
231 241 255
231 241 255
232 241 255
232 241 255
232 241 255
232 241 255
232 241 255
232 241 255
232 241 255
232 241 255
232 241 255
232 241 255
232 241 255
232 241 255
232 241 255
232 242 255
232 242 255
233 242 255
233 242 255
233 242 255
233 242 255
233 242 255
233 242 255
233 242 255
233 242 255
233 242 255
233 242 255
233 242 255
233 242 255
233 242 255
233 242 255
233 242 255
234 242 255
234 242 255
234 242 255
234 242 255
234 242 255
234 242 255
234 242 255
234 242 255
234 242 255
234 242 255
234 242 255
234 243 255
234 243 255
234 243 255
234 243 255
234 243 255
234 243 255
235 243 255
235 243 255
235 243 255
235 243 255
235 243 255
235 243 255
235 243 255
235 243 255
235 243 255
235 243 255
235 243 255
235 243 255
235 243 255
235 243 255
235 243 255
235 243 255
235 243 255
235 243 255
236 243 255
236 243 255
236 243 255
236 243 255
236 243 255
236 243 255
236 243 255
236 244 255
236 244 255
236 244 255
236 244 255
236 244 255
236 244 255
236 244 255
236 244 255
236 244 255
236 244 255
236 244 255
236 244 255
236 244 255
237 244 255
237 244 255
237 244 255
237 244 255
237 244 255
237 244 255
237 244 255
237 244 255
237 244 255
237 244 255
237 244 255
237 244 255
237 244 255
237 244 255
237 244 255
237 244 255
237 244 255
237 244 255
237 244 255
237 244 255
237 244 255
237 244 255
238 244 255
238 245 255
238 245 255
238 245 255
238 245 255
238 245 255
238 245 255
238 245 255
238 245 255
210 229 255
210 229 255
210 229 255
210 229 255
210 229 255
210 229 255
210 229 255
211 229 255
211 229 255
211 229 255
211 229 255
211 229 255
211 229 255
211 229 255
211 229 255
211 229 255
211 230 255
211 230 255
211 230 255
211 230 255
211 230 255
211 230 255
211 230 255
211 230 255
212 230 255
212 230 255
212 230 255
212 230 255
212 230 255
212 230 255
212 230 255
212 230 255
212 230 255
212 230 255
212 230 255
212 230 255
212 230 255
212 230 255
212 230 255
212 230 255
213 230 255
213 230 255
213 230 255
213 230 255
213 230 255
213 230 255
213 231 255
213 231 255
213 231 255
213 231 255
213 231 255
213 231 255
213 231 255
213 231 255
213 231 255
214 231 255
214 231 255
214 231 255
214 231 255
214 231 255
214 231 255
214 231 255
214 231 255
214 231 255
214 231 255
214 231 255
214 231 255
214 231 255
214 231 255
214 231 255
215 231 255
215 231 255
215 232 255
215 232 255
215 232 255
215 232 255
215 232 255
215 232 255
215 232 255
215 232 255
215 232 255
215 232 255
215 232 255
215 232 255
216 232 255
216 232 255
216 232 255
216 232 255
216 232 255
216 232 255
216 232 255
216 232 255
216 232 255
216 232 255
216 232 255
216 232 255
216 233 255
217 233 255
217 233 255
217 233 255
217 233 255
217 233 255
217 233 255
217 233 255
217 233 255
217 233 255
217 233 255
217 233 255
217 233 255
217 233 255
218 233 255
218 233 255
218 233 255
218 233 255
218 233 255
218 233 255
218 233 255
218 233 255
218 233 255
218 234 255
218 234 255
218 234 255
219 234 255
219 234 255
219 234 255
219 234 255
219 234 255
219 234 255
219 234 255
219 234 255
219 234 255
219 234 255
219 234 255
219 234 255
219 234 255
220 234 255
220 234 255
220 234 255
220 234 255
220 234 255
220 234 255
220 235 255
220 235 255
220 235 255
220 235 255
220 235 255
220 235 255
221 235 255
221 235 255
221 235 255
221 235 255
221 235 255
221 235 255
221 235 255
221 235 255
221 235 255
221 235 255
221 235 255
222 235 255
222 235 255
222 235 255
222 235 255
222 236 255
222 236 255
222 236 255
222 236 255
222 236 255
222 236 255
222 236 255
222 236 255
223 236 255
223 236 255
223 236 255
223 236 255
223 236 255
223 236 255
223 236 255
223 236 255
223 236 255
223 236 255
223 236 255
223 236 255
224 236 255
224 237 255
224 237 255
224 237 255
224 237 255
224 237 255
224 237 255
224 237 255
224 237 255
224 237 255
224 237 255
224 237 255
225 237 255
225 237 255
225 237 255
225 237 255
225 237 255
225 237 255
225 237 255
225 237 255
225 237 255
225 237 255
225 238 255
225 238 255
226 238 255
226 238 255
226 238 255
226 238 255
226 238 255
226 238 255
226 238 255
226 238 255
226 238 255
226 238 255
226 238 255
226 238 255
227 238 255
227 238 255
227 238 255
227 238 255
227 238 255
227 238 255
227 238 255
227 238 255
227 239 255
227 239 255
227 239 255
227 239 255
228 239 255
228 239 255
228 239 255
228 239 255
228 239 255
228 239 255
228 239 255
228 239 255
228 239 255
228 239 255
228 239 255
228 239 255
228 239 255
229 239 255
229 239 255
229 239 255
229 239 255
229 239 255
229 240 255
229 240 255
229 240 255
229 240 255
229 240 255
229 240 255
229 240 255
229 240 255
230 240 255
230 240 255
230 240 255
230 240 255
230 240 255
230 240 255
230 240 255
230 240 255
230 240 255
230 240 255
230 240 255
230 240 255
230 240 255
231 240 255
231 240 255
231 241 255
231 241 255
231 241 255
231 241 255
231 241 255
231 241 255
231 241 255
231 241 255
231 241 255
231 241 255
231 241 255
231 241 255
232 241 255
232 241 255
232 241 255
232 241 255
232 241 255
232 241 255
232 241 255
232 241 255
232 241 255
232 241 255
232 241 255
232 241 255
232 241 255
232 242 255
232 242 255
233 242 255
233 242 255
233 242 255
233 242 255
233 242 255
233 242 255
233 242 255
233 242 255
233 242 255
233 242 255
233 242 255
233 242 255
233 242 255
233 242 255
233 242 255
234 242 255
234 242 255
234 242 255
234 242 255
234 242 255
234 242 255
234 242 255
234 242 255
234 242 255
234 242 255
234 243 255
234 243 255
234 243 255
234 243 255
234 243 255
234 243 255
234 243 255
235 243 255
235 243 255
235 243 255
235 243 255
235 243 255
235 243 255
235 243 255
235 243 255
235 243 255
235 243 255
235 243 255
235 243 255
235 243 255
235 243 255
235 243 255
235 243 255
235 243 255
235 243 255
236 243 255
236 243 255
236 243 255
236 243 255
236 243 255
236 243 255
236 244 255
236 244 255
236 244 255
236 244 255
236 244 255
236 244 255
236 244 255
236 244 255
236 244 255
236 244 255
236 244 255
236 244 255
236 244 255
237 244 255
237 244 255
237 244 255
237 244 255
237 244 255
237 244 255
237 244 255
237 244 255
237 244 255
237 244 255
237 244 255
237 244 255
237 244 255
237 244 255
237 244 255
237 244 255
237 244 255
237 244 255
237 244 255
237 244 255
237 244 255
237 244 255
238 244 255
238 244 255
238 245 255
238 245 255
238 245 255
238 245 255
238 245 255
238 245 255
238 245 255
238 245 255
238 245 255
210 229 255
210 229 255
210 229 255
210 229 255
210 229 255
210 229 255
211 229 255
211 229 255
211 229 255
211 229 255
211 229 255
211 229 255
211 229 255
211 229 255
211 229 255
211 230 255
211 230 255
211 230 255
211 230 255
211 230 255
211 230 255
211 230 255
211 230 255
212 230 255
212 230 255
212 230 255
212 230 255
212 230 255
212 230 255
212 230 255
212 230 255
212 230 255
212 230 255
212 230 255
212 230 255
212 230 255
212 230 255
212 230 255
212 230 255
213 230 255
213 230 255
213 230 255
213 230 255
213 230 255
213 230 255
213 231 255
213 231 255
213 231 255
213 231 255
213 231 255
213 231 255
213 231 255
213 231 255
213 231 255
213 231 255
214 231 255
214 231 255
214 231 255
214 231 255
214 231 255
214 231 255
214 231 255
214 231 255
214 231 255
214 231 255
214 231 255
214 231 255
214 231 255
214 231 255
215 231 255
215 231 255
215 232 255
215 232 255
215 232 255
215 232 255
215 232 255
215 232 255
215 232 255
215 232 255
215 232 255
215 232 255
215 232 255
215 232 255
216 232 255
216 232 255
216 232 255
216 232 255
216 232 255
216 232 255
216 232 255
216 232 255
216 232 255
216 232 255
216 232 255
216 232 255
216 232 255
217 233 255
217 233 255
217 233 255
217 233 255
217 233 255
217 233 255
217 233 255
217 233 255
217 233 255
217 233 255
217 233 255
217 233 255
217 233 255
218 233 255
218 233 255
218 233 255
218 233 255
218 233 255
218 233 255
218 233 255
218 233 255
218 233 255
218 234 255
218 234 255
218 234 255
219 234 255
219 234 255
219 234 255
219 234 255
219 234 255
219 234 255
219 234 255
219 234 255
219 234 255
219 234 255
219 234 255
219 234 255
219 234 255
220 234 255
220 234 255
220 234 255
220 234 255
220 234 255
220 234 255
220 235 255
220 235 255
220 235 255
220 235 255
220 235 255
220 235 255
221 235 255
221 235 255
221 235 255
221 235 255
221 235 255
221 235 255
221 235 255
221 235 255
221 235 255
221 235 255
221 235 255
221 235 255
222 235 255
222 235 255
222 235 255
222 235 255
222 236 255
222 236 255
222 236 255
222 236 255
222 236 255
222 236 255
222 236 255
223 236 255
223 236 255
223 236 255
223 236 255
223 236 255
223 236 255
223 236 255
223 236 255
223 236 255
223 236 255
223 236 255
223 236 255
224 236 255
224 236 255
224 237 255
224 237 255
224 237 255
224 237 255
224 237 255
224 237 255
224 237 255
224 237 255
224 237 255
224 237 255
225 237 255
225 237 255
225 237 255
225 237 255
225 237 255
225 237 255
225 237 255
225 237 255
225 237 255
225 237 255
225 238 255
225 238 255
226 238 255
226 238 255
226 238 255
226 238 255
226 238 255
226 238 255
226 238 255
226 238 255
226 238 255
226 238 255
226 238 255
226 238 255
227 238 255
227 238 255
227 238 255
227 238 255
227 238 255
227 238 255
227 238 255
227 238 255
227 239 255
227 239 255
227 239 255
227 239 255
228 239 255
228 239 255
228 239 255
228 239 255
228 239 255
228 239 255
228 239 255
228 239 255
228 239 255
228 239 255
228 239 255
228 239 255
228 239 255
229 239 255
229 239 255
229 239 255
229 239 255
229 239 255
229 240 255
229 240 255
229 240 255
229 240 255
229 240 255
229 240 255
229 240 255
229 240 255
230 240 255
230 240 255
230 240 255
230 240 255
230 240 255
230 240 255
230 240 255
230 240 255
230 240 255
230 240 255
230 240 255
230 240 255
230 240 255
231 240 255
231 240 255
231 241 255
231 241 255
231 241 255
231 241 255
231 241 255
231 241 255
231 241 255
231 241 255
231 241 255
231 241 255
231 241 255
231 241 255
232 241 255
232 241 255
232 241 255
232 241 255
232 241 255
232 241 255
232 241 255
232 241 255
232 241 255
232 241 255
232 241 255
232 241 255
232 241 255
232 242 255
233 242 255
233 242 255
233 242 255
233 242 255
233 242 255
233 242 255
233 242 255
233 242 255
233 242 255
233 242 255
233 242 255
233 242 255
233 242 255
233 242 255
233 242 255
233 242 255
234 242 255
234 242 255
234 242 255
234 242 255
234 242 255
234 242 255
234 242 255
234 242 255
234 242 255
234 242 255
234 243 255
234 243 255
234 243 255
234 243 255
234 243 255
234 243 255
235 243 255
235 243 255
235 243 255
235 243 255
235 243 255
235 243 255
235 243 255
235 243 255
235 243 255
235 243 255
235 243 255
235 243 255
235 243 255
235 243 255
235 243 255
235 243 255
235 243 255
235 243 255
236 243 255
236 243 255
236 243 255
236 243 255
236 243 255
236 243 255
236 243 255
236 244 255
236 244 255
236 244 255
236 244 255
236 244 255
236 244 255
236 244 255
236 244 255
236 244 255
236 244 255
236 244 255
236 244 255
236 244 255
237 244 255
237 244 255
237 244 255
237 244 255
237 244 255
237 244 255
237 244 255
237 244 255
237 244 255
237 244 255
237 244 255
237 244 255
237 244 255
237 244 255
237 244 255
237 244 255
237 244 255
237 244 255
237 244 255
237 244 255
237 244 255
238 244 255
238 244 255
238 245 255
238 245 255
238 245 255
238 245 255
238 245 255
238 245 255
238 245 255
238 245 255
238 245 255
238 245 255
238 245 255
210 229 255
210 229 255
210 229 255
210 229 255
210 229 255
211 229 255
211 229 255
211 229 255
211 229 255
211 229 255
211 229 255
211 229 255
211 229 255
211 229 255
211 230 255
211 230 255
211 230 255
211 230 255
211 230 255
211 230 255
211 230 255
211 230 255
212 230 255
212 230 255
212 230 255
212 230 255
212 230 255
212 230 255
212 230 255
212 230 255
212 230 255
212 230 255
212 230 255
212 230 255
212 230 255
212 230 255
212 230 255
212 230 255
212 230 255
213 230 255
213 230 255
213 230 255
213 230 255
213 230 255
213 231 255
213 231 255
213 231 255
213 231 255
213 231 255
213 231 255
213 231 255
213 231 255
213 231 255
213 231 255
214 231 255
214 231 255
214 231 255
214 231 255
214 231 255
214 231 255
214 231 255
214 231 255
214 231 255
214 231 255
214 231 255
214 231 255
214 231 255
214 231 255
215 231 255
215 231 255
215 232 255
215 232 255
215 232 255
215 232 255
215 232 255
215 232 255
215 232 255
215 232 255
215 232 255
215 232 255
215 232 255
215 232 255
216 232 255
216 232 255
216 232 255
216 232 255
216 232 255
216 232 255
216 232 255
216 232 255
216 232 255
216 232 255
216 232 255
216 232 255
216 232 255
217 233 255
217 233 255
217 233 255
217 233 255
217 233 255
217 233 255
217 233 255
217 233 255
217 233 255
217 233 255
217 233 255
217 233 255
217 233 255
218 233 255
218 233 255
218 233 255
218 233 255
218 233 255
218 233 255
218 233 255
218 233 255
218 233 255
218 233 255
218 234 255
218 234 255
218 234 255
219 234 255
219 234 255
219 234 255
219 234 255
219 234 255
219 234 255
219 234 255
219 234 255
219 234 255
219 234 255
219 234 255
219 234 255
220 234 255
220 234 255
220 234 255
220 234 255
220 234 255
220 234 255
220 235 255
220 235 255
220 235 255
220 235 255
220 235 255
220 235 255
221 235 255
221 235 255
221 235 255
221 235 255
221 235 255
221 235 255
221 235 255
221 235 255
221 235 255
221 235 255
221 235 255
221 235 255
222 235 255
222 235 255
222 235 255
222 235 255
222 236 255
222 236 255
222 236 255
222 236 255
222 236 255
222 236 255
222 236 255
222 236 255
223 236 255
223 236 255
223 236 255
223 236 255
223 236 255
223 236 255
223 236 255
223 236 255
223 236 255
223 236 255
223 236 255
224 236 255
224 236 255
224 237 255
224 237 255
224 237 255
224 237 255
224 237 255
224 237 255
224 237 255
224 237 255
224 237 255
224 237 255
225 237 255
225 237 255
225 237 255
225 237 255
225 237 255
225 237 255
225 237 255
225 237 255
225 237 255
225 237 255
225 237 255
225 238 255
226 238 255
226 238 255
226 238 255
226 238 255
226 238 255
226 238 255
226 238 255
226 238 255
226 238 255
226 238 255
226 238 255
226 238 255
227 238 255
227 238 255
227 238 255
227 238 255
227 238 255
227 238 255
227 238 255
227 238 255
227 239 255
227 239 255
227 239 255
227 239 255
228 239 255
228 239 255
228 239 255
228 239 255
228 239 255
228 239 255
228 239 255
228 239 255
228 239 255
228 239 255
228 239 255
228 239 255
228 239 255
229 239 255
229 239 255
229 239 255
229 239 255
229 239 255
229 240 255
229 240 255
229 240 255
229 240 255
229 240 255
229 240 255
229 240 255
230 240 255
230 240 255
230 240 255
230 240 255
230 240 255
230 240 255
230 240 255
230 240 255
230 240 255
230 240 255
230 240 255
230 240 255
230 240 255
230 240 255
231 240 255
231 240 255
231 241 255
231 241 255
231 241 255
231 241 255
231 241 255
231 241 255
231 241 255
231 241 255
231 241 255
231 241 255
231 241 255
231 241 255
232 241 255
232 241 255
232 241 255
232 241 255
232 241 255
232 241 255
232 241 255
232 241 255
232 241 255
232 241 255
232 241 255
232 241 255
232 242 255
232 242 255
233 242 255
233 242 255
233 242 255
233 242 255
233 242 255
233 242 255
233 242 255
233 242 255
233 242 255
233 242 255
233 242 255
233 242 255
233 242 255
233 242 255
233 242 255
233 242 255
234 242 255
234 242 255
234 242 255
234 242 255
234 242 255
234 242 255
234 242 255
234 242 255
234 242 255
234 242 255
234 243 255
234 243 255
234 243 255
234 243 255
234 243 255
234 243 255
235 243 255
235 243 255
235 243 255
235 243 255
235 243 255
235 243 255
235 243 255
235 243 255
235 243 255
235 243 255
235 243 255
235 243 255
235 243 255
235 243 255
235 243 255
235 243 255
235 243 255
235 243 255
236 243 255
236 243 255
236 243 255
236 243 255
236 243 255
236 243 255
236 244 255
236 244 255
236 244 255
236 244 255
236 244 255
236 244 255
236 244 255
236 244 255
236 244 255
236 244 255
236 244 255
236 244 255
236 244 255
237 244 255
237 244 255
237 244 255
237 244 255
237 244 255
237 244 255
237 244 255
237 244 255
237 244 255
237 244 255
237 244 255
237 244 255
237 244 255
237 244 255
237 244 255
237 244 255
237 244 255
237 244 255
237 244 255
237 244 255
237 244 255
237 244 255
238 244 255
238 245 255
238 245 255
238 245 255
238 245 255
238 245 255
238 245 255
238 245 255
238 245 255
238 245 255
238 245 255
238 245 255
238 245 255
238 245 255
210 229 255
210 229 255
210 229 255
210 229 255
211 229 255
211 229 255
211 229 255
211 229 255
211 229 255
211 229 255
211 229 255
211 229 255
211 229 255
211 230 255
211 230 255
211 230 255
211 230 255
211 230 255
211 230 255
211 230 255
211 230 255
211 230 255
212 230 255
212 230 255
212 230 255
212 230 255
212 230 255
212 230 255
212 230 255
212 230 255
212 230 255
212 230 255
212 230 255
212 230 255
212 230 255
212 230 255
212 230 255
212 230 255
213 230 255
213 230 255
213 230 255
213 230 255
213 230 255
213 231 255
213 231 255
213 231 255
213 231 255
213 231 255
213 231 255
213 231 255
213 231 255
213 231 255
213 231 255
214 231 255
214 231 255
214 231 255
214 231 255
214 231 255
214 231 255
214 231 255
214 231 255
214 231 255
214 231 255
214 231 255
214 231 255
214 231 255
214 231 255
215 231 255
215 231 255
215 232 255
215 232 255
215 232 255
215 232 255
215 232 255
215 232 255
215 232 255
215 232 255
215 232 255
215 232 255
215 232 255
215 232 255
216 232 255
216 232 255
216 232 255
216 232 255
216 232 255
216 232 255
216 232 255
216 232 255
216 232 255
216 232 255
216 232 255
216 232 255
216 232 255
217 233 255
217 233 255
217 233 255
217 233 255
217 233 255
217 233 255
217 233 255
217 233 255
217 233 255
217 233 255
217 233 255
217 233 255
217 233 255
218 233 255
218 233 255
218 233 255
218 233 255
218 233 255
218 233 255
218 233 255
218 233 255
218 233 255
218 233 255
218 234 255
218 234 255
218 234 255
219 234 255
219 234 255
219 234 255
219 234 255
219 234 255
219 234 255
219 234 255
219 234 255
219 234 255
219 234 255
219 234 255
219 234 255
220 234 255
220 234 255
220 234 255
220 234 255
220 234 255
220 234 255
220 234 255
220 235 255
220 235 255
220 235 255
220 235 255
220 235 255
221 235 255
221 235 255
221 235 255
221 235 255
221 235 255
221 235 255
221 235 255
221 235 255
221 235 255
221 235 255
221 235 255
221 235 255
222 235 255
222 235 255
222 235 255
222 235 255
222 236 255
222 236 255
222 236 255
222 236 255
222 236 255
222 236 255
222 236 255
222 236 255
223 236 255
223 236 255
223 236 255
223 236 255
223 236 255
223 236 255
223 236 255
223 236 255
223 236 255
223 236 255
223 236 255
224 236 255
224 236 255
224 237 255
224 237 255
224 237 255
224 237 255
224 237 255
224 237 255
224 237 255
224 237 255
224 237 255
224 237 255
225 237 255
225 237 255
225 237 255
225 237 255
225 237 255
225 237 255
225 237 255
225 237 255
225 237 255
225 237 255
225 237 255
225 238 255
226 238 255
226 238 255
226 238 255
226 238 255
226 238 255
226 238 255
226 238 255
226 238 255
226 238 255
226 238 255
226 238 255
226 238 255
227 238 255
227 238 255
227 238 255
227 238 255
227 238 255
227 238 255
227 238 255
227 238 255
227 239 255
227 239 255
227 239 255
227 239 255
228 239 255
228 239 255
228 239 255
228 239 255
228 239 255
228 239 255
228 239 255
228 239 255
228 239 255
228 239 255
228 239 255
228 239 255
228 239 255
229 239 255
229 239 255
229 239 255
229 239 255
229 239 255
229 240 255
229 240 255
229 240 255
229 240 255
229 240 255
229 240 255
229 240 255
230 240 255
230 240 255
230 240 255
230 240 255
230 240 255
230 240 255
230 240 255
230 240 255
230 240 255
230 240 255
230 240 255
230 240 255
230 240 255
230 240 255
231 240 255
231 240 255
231 241 255
231 241 255
231 241 255
231 241 255
231 241 255
231 241 255
231 241 255
231 241 255
231 241 255
231 241 255
231 241 255
232 241 255
232 241 255
232 241 255
232 241 255
232 241 255
232 241 255
232 241 255
232 241 255
232 241 255
232 241 255
232 241 255
232 241 255
232 241 255
232 242 255
232 242 255
233 242 255
233 242 255
233 242 255
233 242 255
233 242 255
233 242 255
233 242 255
233 242 255
233 242 255
233 242 255
233 242 255
233 242 255
233 242 255
233 242 255
233 242 255
234 242 255
234 242 255
234 242 255
234 242 255
234 242 255
234 242 255
234 242 255
234 242 255
234 242 255
234 242 255
234 243 255
234 243 255
234 243 255
234 243 255
234 243 255
234 243 255
234 243 255
235 243 255
235 243 255
235 243 255
235 243 255
235 243 255
235 243 255
235 243 255
235 243 255
235 243 255
235 243 255
235 243 255
235 243 255
235 243 255
235 243 255
235 243 255
235 243 255
235 243 255
236 243 255
236 243 255
236 243 255
236 243 255
236 243 255
236 243 255
236 243 255
236 244 255
236 244 255
236 244 255
236 244 255
236 244 255
236 244 255
236 244 255
236 244 255
236 244 255
236 244 255
236 244 255
236 244 255
236 244 255
237 244 255
237 244 255
237 244 255
237 244 255
237 244 255
237 244 255
237 244 255
237 244 255
237 244 255
237 244 255
237 244 255
237 244 255
237 244 255
237 244 255
237 244 255
237 244 255
237 244 255
237 244 255
237 244 255
237 244 255
237 244 255
238 244 255
238 244 255
238 245 255
238 245 255
238 245 255
238 245 255
238 245 255
238 245 255
238 245 255
238 245 255
238 245 255
238 245 255
238 245 255
238 245 255
238 245 255
238 245 255
210 229 255
210 229 255
210 229 255
211 229 255
211 229 255
211 229 255
211 229 255
211 229 255
211 229 255
211 229 255
211 229 255
211 229 255
211 229 255
211 230 255
211 230 255
211 230 255
211 230 255
211 230 255
211 230 255
211 230 255
211 230 255
212 230 255
212 230 255
212 230 255
212 230 255
212 230 255
212 230 255
212 230 255
212 230 255
212 230 255
212 230 255
212 230 255
212 230 255
212 230 255
212 230 255
212 230 255
212 230 255
213 230 255
213 230 255
213 230 255
213 230 255
213 230 255
213 231 255
213 231 255
213 231 255
213 231 255
213 231 255
213 231 255
213 231 255
213 231 255
213 231 255
213 231 255
214 231 255
214 231 255
214 231 255
214 231 255
214 231 255
214 231 255
214 231 255
214 231 255
214 231 255
214 231 255
214 231 255
214 231 255
214 231 255
214 231 255
215 231 255
215 231 255
215 231 255
215 232 255
215 232 255
215 232 255
215 232 255
215 232 255
215 232 255
215 232 255
215 232 255
215 232 255
215 232 255
215 232 255
216 232 255
216 232 255
216 232 255
216 232 255
216 232 255
216 232 255
216 232 255
216 232 255
216 232 255
216 232 255
216 232 255
216 232 255
216 232 255
217 233 255
217 233 255
217 233 255
217 233 255
217 233 255
217 233 255
217 233 255
217 233 255
217 233 255
217 233 255
217 233 255
217 233 255
217 233 255
218 233 255
218 233 255
218 233 255
218 233 255
218 233 255
218 233 255
218 233 255
218 233 255
218 233 255
218 233 255
218 234 255
218 234 255
218 234 255
219 234 255
219 234 255
219 234 255
219 234 255
219 234 255
219 234 255
219 234 255
219 234 255
219 234 255
219 234 255
219 234 255
219 234 255
220 234 255
220 234 255
220 234 255
220 234 255
220 234 255
220 234 255
220 234 255
220 235 255
220 235 255
220 235 255
220 235 255
220 235 255
221 235 255
221 235 255
221 235 255
221 235 255
221 235 255
221 235 255
221 235 255
221 235 255
221 235 255
221 235 255
221 235 255
221 235 255
222 235 255
222 235 255
222 235 255
222 235 255
222 236 255
222 236 255
222 236 255
222 236 255
222 236 255
222 236 255
222 236 255
222 236 255
223 236 255
223 236 255
223 236 255
223 236 255
223 236 255
223 236 255
223 236 255
223 236 255
223 236 255
223 236 255
223 236 255
223 236 255
224 236 255
224 237 255
224 237 255
224 237 255
224 237 255
224 237 255
224 237 255
224 237 255
224 237 255
224 237 255
224 237 255
225 237 255
225 237 255
225 237 255
225 237 255
225 237 255
225 237 255
225 237 255
225 237 255
225 237 255
225 237 255
225 237 255
225 238 255
226 238 255
226 238 255
226 238 255
226 238 255
226 238 255
226 238 255
226 238 255
226 238 255
226 238 255
226 238 255
226 238 255
226 238 255
227 238 255
227 238 255
227 238 255
227 238 255
227 238 255
227 238 255
227 238 255
227 238 255
227 239 255
227 239 255
227 239 255
227 239 255
228 239 255
228 239 255
228 239 255
228 239 255
228 239 255
228 239 255
228 239 255
228 239 255
228 239 255
228 239 255
228 239 255
228 239 255
228 239 255
229 239 255
229 239 255
229 239 255
229 239 255
229 239 255
229 240 255
229 240 255
229 240 255
229 240 255
229 240 255
229 240 255
229 240 255
230 240 255
230 240 255
230 240 255
230 240 255
230 240 255
230 240 255
230 240 255
230 240 255
230 240 255
230 240 255
230 240 255
230 240 255
230 240 255
230 240 255
231 240 255
231 240 255
231 241 255
231 241 255
231 241 255
231 241 255
231 241 255
231 241 255
231 241 255
231 241 255
231 241 255
231 241 255
231 241 255
232 241 255
232 241 255
232 241 255
232 241 255
232 241 255
232 241 255
232 241 255
232 241 255
232 241 255
232 241 255
232 241 255
232 241 255
232 241 255
232 242 255
232 242 255
233 242 255
233 242 255
233 242 255
233 242 255
233 242 255
233 242 255
233 242 255
233 242 255
233 242 255
233 242 255
233 242 255
233 242 255
233 242 255
233 242 255
233 242 255
234 242 255
234 242 255
234 242 255
234 242 255
234 242 255
234 242 255
234 242 255
234 242 255
234 242 255
234 242 255
234 243 255
234 243 255
234 243 255
234 243 255
234 243 255
234 243 255
235 243 255
235 243 255
235 243 255
235 243 255
235 243 255
235 243 255
235 243 255
235 243 255
235 243 255
235 243 255
235 243 255
235 243 255
235 243 255
235 243 255
235 243 255
235 243 255
235 243 255
235 243 255
236 243 255
236 243 255
236 243 255
236 243 255
236 243 255
236 243 255
236 243 255
236 244 255
236 244 255
236 244 255
236 244 255
236 244 255
236 244 255
236 244 255
236 244 255
236 244 255
236 244 255
236 244 255
236 244 255
237 244 255
237 244 255
237 244 255
237 244 255
237 244 255
237 244 255
237 244 255
237 244 255
237 244 255
237 244 255
237 244 255
237 244 255
237 244 255
237 244 255
237 244 255
237 244 255
237 244 255
237 244 255
237 244 255
237 244 255
237 244 255
238 244 255
238 244 255
238 245 255
238 245 255
238 245 255
238 245 255
238 245 255
238 245 255
238 245 255
238 245 255
238 245 255
238 245 255
238 245 255
238 245 255
238 245 255
238 245 255
238 245 255
238 245 255
210 229 255
210 229 255
211 229 255
211 229 255
211 229 255
211 229 255
211 229 255
211 229 255
211 229 255
211 229 255
211 229 255
211 229 255
211 230 255
211 230 255
211 230 255
211 230 255
211 230 255
211 230 255
211 230 255
211 230 255
212 230 255
212 230 255
212 230 255
212 230 255
212 230 255
212 230 255
212 230 255
212 230 255
212 230 255
212 230 255
212 230 255
212 230 255
212 230 255
212 230 255
212 230 255
212 230 255
213 230 255
213 230 255
213 230 255
213 230 255
213 230 255
213 231 255
213 231 255
213 231 255
213 231 255
213 231 255
213 231 255
213 231 255
213 231 255
213 231 255
213 231 255
214 231 255
214 231 255
214 231 255
214 231 255
214 231 255
214 231 255
214 231 255
214 231 255
214 231 255
214 231 255
214 231 255
214 231 255
214 231 255
214 231 255
215 231 255
215 231 255
215 231 255
215 232 255
215 232 255
215 232 255
215 232 255
215 232 255
215 232 255
215 232 255
215 232 255
215 232 255
215 232 255
215 232 255
216 232 255
216 232 255
216 232 255
216 232 255
216 232 255
216 232 255
216 232 255
216 232 255
216 232 255
216 232 255
216 232 255
216 232 255
216 232 255
216 233 255
217 233 255
217 233 255
217 233 255
217 233 255
217 233 255
217 233 255
217 233 255
217 233 255
217 233 255
217 233 255
217 233 255
217 233 255
218 233 255
218 233 255
218 233 255
218 233 255
218 233 255
218 233 255
218 233 255
218 233 255
218 233 255
218 233 255
218 234 255
218 234 255
218 234 255
219 234 255
219 234 255
219 234 255
219 234 255
219 234 255
219 234 255
219 234 255
219 234 255
219 234 255
219 234 255
219 234 255
219 234 255
220 234 255
220 234 255
220 234 255
220 234 255
220 234 255
220 234 255
220 234 255
220 235 255
220 235 255
220 235 255
220 235 255
220 235 255
221 235 255
221 235 255
221 235 255
221 235 255
221 235 255
221 235 255
221 235 255
221 235 255
221 235 255
221 235 255
221 235 255
221 235 255
222 235 255
222 235 255
222 235 255
222 235 255
222 236 255
222 236 255
222 236 255
222 236 255
222 236 255
222 236 255
222 236 255
222 236 255
223 236 255
223 236 255
223 236 255
223 236 255
223 236 255
223 236 255
223 236 255
223 236 255
223 236 255
223 236 255
223 236 255
223 236 255
224 236 255
224 237 255
224 237 255
224 237 255
224 237 255
224 237 255
224 237 255
224 237 255
224 237 255
224 237 255
224 237 255
225 237 255
225 237 255
225 237 255
225 237 255
225 237 255
225 237 255
225 237 255
225 237 255
225 237 255
225 237 255
225 237 255
225 238 255
226 238 255
226 238 255
226 238 255
226 238 255
226 238 255
226 238 255
226 238 255
226 238 255
226 238 255
226 238 255
226 238 255
226 238 255
227 238 255
227 238 255
227 238 255
227 238 255
227 238 255
227 238 255
227 238 255
227 238 255
227 239 255
227 239 255
227 239 255
227 239 255
228 239 255
228 239 255
228 239 255
228 239 255
228 239 255
228 239 255
228 239 255
228 239 255
228 239 255
228 239 255
228 239 255
228 239 255
228 239 255
229 239 255
229 239 255
229 239 255
229 239 255
229 239 255
229 240 255
229 240 255
229 240 255
229 240 255
229 240 255
229 240 255
229 240 255
230 240 255
230 240 255
230 240 255
230 240 255
230 240 255
230 240 255
230 240 255
230 240 255
230 240 255
230 240 255
230 240 255
230 240 255
230 240 255
230 240 255
231 240 255
231 240 255
231 241 255
231 241 255
231 241 255
231 241 255
231 241 255
231 241 255
231 241 255
231 241 255
231 241 255
231 241 255
231 241 255
232 241 255
232 241 255
232 241 255
232 241 255
232 241 255
232 241 255
232 241 255
232 241 255
232 241 255
232 241 255
232 241 255
232 241 255
232 241 255
232 242 255
232 242 255
233 242 255
233 242 255
233 242 255
233 242 255
233 242 255
233 242 255
233 242 255
233 242 255
233 242 255
233 242 255
233 242 255
233 242 255
233 242 255
233 242 255
233 242 255
234 242 255
234 242 255
234 242 255
234 242 255
234 242 255
234 242 255
234 242 255
234 242 255
234 242 255
234 242 255
234 243 255
234 243 255
234 243 255
234 243 255
234 243 255
234 243 255
235 243 255
235 243 255
235 243 255
235 243 255
235 243 255
235 243 255
235 243 255
235 243 255
235 243 255
235 243 255
235 243 255
235 243 255
235 243 255
235 243 255
235 243 255
235 243 255
235 243 255
235 243 255
236 243 255
236 243 255
236 243 255
236 243 255
236 243 255
236 243 255
236 244 255
236 244 255
236 244 255
236 244 255
236 244 255
236 244 255
236 244 255
236 244 255
236 244 255
236 244 255
236 244 255
236 244 255
236 244 255
237 244 255
237 244 255
237 244 255
237 244 255
237 244 255
237 244 255
237 244 255
237 244 255
237 244 255
237 244 255
237 244 255
237 244 255
237 244 255
237 244 255
237 244 255
237 244 255
237 244 255
237 244 255
237 244 255
237 244 255
237 244 255
238 244 255
238 244 255
238 245 255
238 245 255
238 245 255
238 245 255
238 245 255
238 245 255
238 245 255
238 245 255
238 245 255
238 245 255
238 245 255
238 245 255
238 245 255
238 245 255
238 245 255
238 245 255
238 245 255
210 229 255
211 229 255
211 229 255
211 229 255
211 229 255
211 229 255
211 229 255
211 229 255
211 229 255
211 229 255
211 229 255
211 230 255
211 230 255
211 230 255
211 230 255
211 230 255
211 230 255
211 230 255
211 230 255
212 230 255
212 230 255
212 230 255
212 230 255
212 230 255
212 230 255
212 230 255
212 230 255
212 230 255
212 230 255
212 230 255
212 230 255
212 230 255
212 230 255
212 230 255
212 230 255
213 230 255
213 230 255
213 230 255
213 230 255
213 230 255
213 231 255
213 231 255
213 231 255
213 231 255
213 231 255
213 231 255
213 231 255
213 231 255
213 231 255
213 231 255
214 231 255
214 231 255
214 231 255
214 231 255
214 231 255
214 231 255
214 231 255
214 231 255
214 231 255
214 231 255
214 231 255
214 231 255
214 231 255
214 231 255
214 231 255
215 231 255
215 231 255
215 232 255
215 232 255
215 232 255
215 232 255
215 232 255
215 232 255
215 232 255
215 232 255
215 232 255
215 232 255
215 232 255
216 232 255
216 232 255
216 232 255
216 232 255
216 232 255
216 232 255
216 232 255
216 232 255
216 232 255
216 232 255
216 232 255
216 232 255
216 232 255
216 233 255
217 233 255
217 233 255
217 233 255
217 233 255
217 233 255
217 233 255
217 233 255
217 233 255
217 233 255
217 233 255
217 233 255
217 233 255
217 233 255
218 233 255
218 233 255
218 233 255
218 233 255
218 233 255
218 233 255
218 233 255
218 233 255
218 233 255
218 234 255
218 234 255
218 234 255
219 234 255
219 234 255
219 234 255
219 234 255
219 234 255
219 234 255
219 234 255
219 234 255
219 234 255
219 234 255
219 234 255
219 234 255
220 234 255
220 234 255
220 234 255
220 234 255
220 234 255
220 234 255
220 234 255
220 235 255
220 235 255
220 235 255
220 235 255
220 235 255
221 235 255
221 235 255
221 235 255
221 235 255
221 235 255
221 235 255
221 235 255
221 235 255
221 235 255
221 235 255
221 235 255
221 235 255
222 235 255
222 235 255
222 235 255
222 235 255
222 236 255
222 236 255
222 236 255
222 236 255
222 236 255
222 236 255
222 236 255
222 236 255
223 236 255
223 236 255
223 236 255
223 236 255
223 236 255
223 236 255
223 236 255
223 236 255
223 236 255
223 236 255
223 236 255
223 236 255
224 236 255
224 237 255
224 237 255
224 237 255
224 237 255
224 237 255
224 237 255
224 237 255
224 237 255
224 237 255
224 237 255
225 237 255
225 237 255
225 237 255
225 237 255
225 237 255
225 237 255
225 237 255
225 237 255
225 237 255
225 237 255
225 237 255
225 238 255
226 238 255
226 238 255
226 238 255
226 238 255
226 238 255
226 238 255
226 238 255
226 238 255
226 238 255
226 238 255
226 238 255
226 238 255
227 238 255
227 238 255
227 238 255
227 238 255
227 238 255
227 238 255
227 238 255
227 238 255
227 239 255
227 239 255
227 239 255
227 239 255
228 239 255
228 239 255
228 239 255
228 239 255
228 239 255
228 239 255
228 239 255
228 239 255
228 239 255
228 239 255
228 239 255
228 239 255
228 239 255
229 239 255
229 239 255
229 239 255
229 239 255
229 239 255
229 240 255
229 240 255
229 240 255
229 240 255
229 240 255
229 240 255
229 240 255
230 240 255
230 240 255
230 240 255
230 240 255
230 240 255
230 240 255
230 240 255
230 240 255
230 240 255
230 240 255
230 240 255
230 240 255
230 240 255
231 240 255
231 240 255
231 241 255
231 241 255
231 241 255
231 241 255
231 241 255
231 241 255
231 241 255
231 241 255
231 241 255
231 241 255
231 241 255
231 241 255
232 241 255
232 241 255
232 241 255
232 241 255
232 241 255
232 241 255
232 241 255
232 241 255
232 241 255
232 241 255
232 241 255
232 241 255
232 241 255
232 242 255
233 242 255
233 242 255
233 242 255
233 242 255
233 242 255
233 242 255
233 242 255
233 242 255
233 242 255
233 242 255
233 242 255
233 242 255
233 242 255
233 242 255
233 242 255
233 242 255
234 242 255
234 242 255
234 242 255
234 242 255
234 242 255
234 242 255
234 242 255
234 242 255
234 242 255
234 242 255
234 243 255
234 243 255
234 243 255
234 243 255
234 243 255
234 243 255
235 243 255
235 243 255
235 243 255
235 243 255
235 243 255
235 243 255
235 243 255
235 243 255
235 243 255
235 243 255
235 243 255
235 243 255
235 243 255
235 243 255
235 243 255
235 243 255
235 243 255
236 243 255
236 243 255
236 243 255
236 243 255
236 243 255
236 243 255
236 243 255
236 244 255
236 244 255
236 244 255
236 244 255
236 244 255
236 244 255
236 244 255
236 244 255
236 244 255
236 244 255
236 244 255
236 244 255
237 244 255
237 244 255
237 244 255
237 244 255
237 244 255
237 244 255
237 244 255
237 244 255
237 244 255
237 244 255
237 244 255
237 244 255
237 244 255
237 244 255
237 244 255
237 244 255
237 244 255
237 244 255
237 244 255
237 244 255
237 244 255
238 244 255
238 244 255
238 245 255
238 245 255
238 245 255
238 245 255
238 245 255
238 245 255
238 245 255
238 245 255
238 245 255
238 245 255
238 245 255
238 245 255
238 245 255
238 245 255
238 245 255
238 245 255
238 245 255
238 245 255
238 245 255
210 229 255
211 229 255
211 229 255
211 229 255
211 229 255
211 229 255
211 229 255
211 229 255
211 229 255
211 229 255
211 230 255
211 230 255
211 230 255
211 230 255
211 230 255
211 230 255
211 230 255
211 230 255
212 230 255
212 230 255
212 230 255
212 230 255
212 230 255
212 230 255
212 230 255
212 230 255
212 230 255
212 230 255
212 230 255
212 230 255
212 230 255
212 230 255
212 230 255
212 230 255
213 230 255
213 230 255
213 230 255
213 230 255
213 230 255
213 231 255
213 231 255
213 231 255
213 231 255
213 231 255
213 231 255
213 231 255
213 231 255
213 231 255
213 231 255
214 231 255
214 231 255
214 231 255
214 231 255
214 231 255
214 231 255
214 231 255
214 231 255
214 231 255
214 231 255
214 231 255
214 231 255
214 231 255
214 231 255
214 231 255
215 231 255
215 231 255
215 232 255
215 232 255
215 232 255
215 232 255
215 232 255
215 232 255
215 232 255
215 232 255
215 232 255
215 232 255
215 232 255
215 232 255
216 232 255
216 232 255
216 232 255
216 232 255
216 232 255
216 232 255
216 232 255
216 232 255
216 232 255
216 232 255
216 232 255
216 232 255
216 233 255
217 233 255
217 233 255
217 233 255
217 233 255
217 233 255
217 233 255
217 233 255
217 233 255
217 233 255
217 233 255
217 233 255
217 233 255
217 233 255
218 233 255
218 233 255
218 233 255
218 233 255
218 233 255
218 233 255
218 233 255
218 233 255
218 233 255
218 234 255
218 234 255
218 234 255
219 234 255
219 234 255
219 234 255
219 234 255
219 234 255
219 234 255
219 234 255
219 234 255
219 234 255
219 234 255
219 234 255
219 234 255
219 234 255
220 234 255
220 234 255
220 234 255
220 234 255
220 234 255
220 234 255
220 235 255
220 235 255
220 235 255
220 235 255
220 235 255
220 235 255
221 235 255
221 235 255
221 235 255
221 235 255
221 235 255
221 235 255
221 235 255
221 235 255
221 235 255
221 235 255
221 235 255
222 235 255
222 235 255
222 235 255
222 235 255
222 236 255
222 236 255
222 236 255
222 236 255
222 236 255
222 236 255
222 236 255
222 236 255
223 236 255
223 236 255
223 236 255
223 236 255
223 236 255
223 236 255
223 236 255
223 236 255
223 236 255
223 236 255
223 236 255
223 236 255
224 236 255
224 237 255
224 237 255
224 237 255
224 237 255
224 237 255
224 237 255
224 237 255
224 237 255
224 237 255
224 237 255
224 237 255
225 237 255
225 237 255
225 237 255
225 237 255
225 237 255
225 237 255
225 237 255
225 237 255
225 237 255
225 237 255
225 238 255
226 238 255
226 238 255
226 238 255
226 238 255
226 238 255
226 238 255
226 238 255
226 238 255
226 238 255
226 238 255
226 238 255
226 238 255
227 238 255
227 238 255
227 238 255
227 238 255
227 238 255
227 238 255
227 238 255
227 238 255
227 239 255
227 239 255
227 239 255
227 239 255
228 239 255
228 239 255
228 239 255
228 239 255
228 239 255
228 239 255
228 239 255
228 239 255
228 239 255
228 239 255
228 239 255
228 239 255
228 239 255
229 239 255
229 239 255
229 239 255
229 239 255
229 239 255
229 240 255
229 240 255
229 240 255
229 240 255
229 240 255
229 240 255
229 240 255
230 240 255
230 240 255
230 240 255
230 240 255
230 240 255
230 240 255
230 240 255
230 240 255
230 240 255
230 240 255
230 240 255
230 240 255
230 240 255
231 240 255
231 240 255
231 241 255
231 241 255
231 241 255
231 241 255
231 241 255
231 241 255
231 241 255
231 241 255
231 241 255
231 241 255
231 241 255
231 241 255
232 241 255
232 241 255
232 241 255
232 241 255
232 241 255
232 241 255
232 241 255
232 241 255
232 241 255
232 241 255
232 241 255
232 241 255
232 241 255
232 242 255
233 242 255
233 242 255
233 242 255
233 242 255
233 242 255
233 242 255
233 242 255
233 242 255
233 242 255
233 242 255
233 242 255
233 242 255
233 242 255
233 242 255
233 242 255
234 242 255
234 242 255
234 242 255
234 242 255
234 242 255
234 242 255
234 242 255
234 242 255
234 242 255
234 242 255
234 243 255
234 243 255
234 243 255
234 243 255
234 243 255
234 243 255
235 243 255
235 243 255
235 243 255
235 243 255
235 243 255
235 243 255
235 243 255
235 243 255
235 243 255
235 243 255
235 243 255
235 243 255
235 243 255
235 243 255
235 243 255
235 243 255
235 243 255
235 243 255
236 243 255
236 243 255
236 243 255
236 243 255
236 243 255
236 243 255
236 244 255
236 244 255
236 244 255
236 244 255
236 244 255
236 244 255
236 244 255
236 244 255
236 244 255
236 244 255
236 244 255
236 244 255
236 244 255
237 244 255
237 244 255
237 244 255
237 244 255
237 244 255
237 244 255
237 244 255
237 244 255
237 244 255
237 244 255
237 244 255
237 244 255
237 244 255
237 244 255
237 244 255
237 244 255
237 244 255
237 244 255
237 244 255
237 244 255
237 244 255
238 244 255
238 245 255
238 245 255
238 245 255
238 245 255
238 245 255
238 245 255
238 245 255
238 245 255
238 245 255
238 245 255
238 245 255
238 245 255
238 245 255
238 245 255
238 245 255
238 245 255
238 245 255
238 245 255
238 245 255
238 245 255
238 245 255
211 229 255
211 229 255
211 229 255
211 229 255
211 229 255
211 229 255
211 229 255
211 229 255
211 229 255
211 230 255
211 230 255
211 230 255
211 230 255
211 230 255
211 230 255
211 230 255
211 230 255
212 230 255
212 230 255
212 230 255
212 230 255
212 230 255
212 230 255
212 230 255
212 230 255
212 230 255
212 230 255
212 230 255
212 230 255
212 230 255
212 230 255
212 230 255
212 230 255
213 230 255
213 230 255
213 230 255
213 230 255
213 230 255
213 231 255
213 231 255
213 231 255
213 231 255
213 231 255
213 231 255
213 231 255
213 231 255
213 231 255
213 231 255
214 231 255
214 231 255
214 231 255
214 231 255
214 231 255
214 231 255
214 231 255
214 231 255
214 231 255
214 231 255
214 231 255
214 231 255
214 231 255
214 231 255
214 231 255
215 231 255
215 231 255
215 232 255
215 232 255
215 232 255
215 232 255
215 232 255
215 232 255
215 232 255
215 232 255
215 232 255
215 232 255
215 232 255
215 232 255
216 232 255
216 232 255
216 232 255
216 232 255
216 232 255
216 232 255
216 232 255
216 232 255
216 232 255
216 232 255
216 232 255
216 232 255
216 232 255
217 233 255
217 233 255
217 233 255
217 233 255
217 233 255
217 233 255
217 233 255
217 233 255
217 233 255
217 233 255
217 233 255
217 233 255
217 233 255
218 233 255
218 233 255
218 233 255
218 233 255
218 233 255
218 233 255
218 233 255
218 233 255
218 233 255
218 234 255
218 234 255
218 234 255
219 234 255
219 234 255
219 234 255
219 234 255
219 234 255
219 234 255
219 234 255
219 234 255
219 234 255
219 234 255
219 234 255
219 234 255
219 234 255
220 234 255
220 234 255
220 234 255
220 234 255
220 234 255
220 234 255
220 235 255
220 235 255
220 235 255
220 235 255
220 235 255
220 235 255
221 235 255
221 235 255
221 235 255
221 235 255
221 235 255
221 235 255
221 235 255
221 235 255
221 235 255
221 235 255
221 235 255
221 235 255
222 235 255
222 235 255
222 235 255
222 235 255
222 236 255
222 236 255
222 236 255
222 236 255
222 236 255
222 236 255
222 236 255
223 236 255
223 236 255
223 236 255
223 236 255
223 236 255
223 236 255
223 236 255
223 236 255
223 236 255
223 236 255
223 236 255
223 236 255
221 235 253
209 230 247
191 223 238
185 221 235
173 216 229
171 215 229
174 217 231
181 219 233
189 222 237
210 231 247
224 237 254
224 237 255
225 237 255
225 237 255
225 237 255
225 237 255
225 237 255
225 237 255
225 237 255
225 237 255
225 237 255
225 237 255
225 238 255
226 238 255
226 238 255
226 238 255
226 238 255
226 238 255
226 238 255
226 238 255
226 238 255
226 238 255
226 238 255
226 238 255
226 238 255
227 238 255
227 238 255
227 238 255
227 238 255
227 238 255
227 238 255
227 238 255
227 238 255
227 239 255
227 239 255
227 239 255
227 239 255
228 239 255
228 239 255
228 239 255
228 239 255
228 239 255
228 239 255
228 239 255
228 239 255
228 239 255
228 239 255
228 239 255
228 239 255
228 239 255
229 239 255
229 239 255
229 239 255
229 239 255
229 239 255
229 240 255
229 240 255
229 240 255
229 240 255
229 240 255
229 240 255
229 240 255
230 240 255
230 240 255
230 240 255
230 240 255
230 240 255
230 240 255
230 240 255
230 240 255
230 240 255
230 240 255
230 240 255
230 240 255
230 240 255
231 240 255
231 240 255
231 241 255
231 241 255
231 241 255
231 241 255
231 241 255
231 241 255
231 241 255
231 241 255
231 241 255
231 241 255
231 241 255
231 241 255
232 241 255
232 241 255
232 241 255
232 241 255
232 241 255
232 241 255
232 241 255
232 241 255
232 241 255
232 241 255
232 241 255
232 241 255
232 241 255
232 242 255
233 242 255
233 242 255
233 242 255
233 242 255
233 242 255
233 242 255
233 242 255
233 242 255
233 242 255
233 242 255
233 242 255
233 242 255
233 242 255
233 242 255
233 242 255
234 242 255
234 242 255
234 242 255
234 242 255
234 242 255
234 242 255
234 242 255
234 242 255
234 242 255
234 242 255
234 243 255
234 243 255
234 243 255
234 243 255
234 243 255
234 243 255
235 243 255
235 243 255
235 243 255
235 243 255
235 243 255
235 243 255
235 243 255
235 243 255
235 243 255
235 243 255
235 243 255
235 243 255
235 243 255
235 243 255
235 243 255
235 243 255
235 243 255
236 243 255
236 243 255
236 243 255
236 243 255
236 243 255
236 243 255
236 243 255
236 244 255
236 244 255
236 244 255
236 244 255
236 244 255
236 244 255
236 244 255
236 244 255
236 244 255
236 244 255
236 244 255
236 244 255
237 244 255
237 244 255
237 244 255
237 244 255
237 244 255
237 244 255
237 244 255
237 244 255
237 244 255
237 244 255
237 244 255
237 244 255
237 244 255
237 244 255
237 244 255
237 244 255
237 244 255
237 244 255
237 244 255
237 244 255
237 244 255
238 244 255
238 244 255
238 245 255
238 245 255
238 245 255
238 245 255
238 245 255
238 245 255
238 245 255
238 245 255
238 245 255
238 245 255
238 245 255
238 245 255
238 245 255
238 245 255
238 245 255
238 245 255
238 245 255
238 245 255
238 245 255
238 245 255
238 245 255
239 245 255
211 229 255
211 229 255
211 229 255
211 229 255
211 229 255
211 229 255
211 229 255
211 229 255
211 230 255
211 230 255
211 230 255
211 230 255
211 230 255
211 230 255
211 230 255
211 230 255
212 230 255
212 230 255
212 230 255
212 230 255
212 230 255
212 230 255
212 230 255
212 230 255
212 230 255
212 230 255
212 230 255
212 230 255
212 230 255
212 230 255
212 230 255
212 230 255
213 230 255
213 230 255
213 230 255
213 230 255
213 230 255
213 231 255
213 231 255
213 231 255
213 231 255
213 231 255
213 231 255
213 231 255
213 231 255
213 231 255
213 231 255
214 231 255
214 231 255
214 231 255
214 231 255
214 231 255
214 231 255
214 231 255
214 231 255
214 231 255
214 231 255
214 231 255
214 231 255
214 231 255
214 231 255
214 231 255
215 231 255
215 231 255
215 232 255
215 232 255
215 232 255
215 232 255
215 232 255
215 232 255
215 232 255
215 232 255
215 232 255
215 232 255
215 232 255
215 232 255
216 232 255
216 232 255
216 232 255
216 232 255
216 232 255
216 232 255
216 232 255
216 232 255
216 232 255
216 232 255
216 232 255
216 232 255
216 232 255
217 233 255
217 233 255
217 233 255
217 233 255
217 233 255
217 233 255
217 233 255
217 233 255
217 233 255
217 233 255
217 233 255
217 233 255
217 233 255
218 233 255
218 233 255
218 233 255
218 233 255
218 233 255
218 233 255
218 233 255
218 233 255
218 233 255
218 233 255
218 234 255
218 234 255
218 234 255
219 234 255
219 234 255
219 234 255
219 234 255
219 234 255
219 234 255
219 234 255
219 234 255
219 234 255
219 234 255
219 234 255
219 234 255
220 234 255
220 234 255
220 234 255
220 234 255
220 234 255
220 234 255
220 235 255
220 235 255
220 235 255
220 235 255
220 235 255
220 235 255
221 235 255
221 235 255
221 235 255
221 235 255
221 235 255
221 235 255
221 235 255
221 235 255
221 235 255
221 235 255
221 235 255
221 235 255
222 235 255
222 235 255
222 235 255
222 235 255
222 236 255
222 236 255
222 236 255
222 236 255
222 236 255
222 236 255
222 236 255
223 236 255
223 236 255
223 236 255
223 236 255
223 236 255
223 236 255
223 236 255
223 236 255
223 236 255
223 236 255
223 236 255
211 231 248
179 219 232
161 212 224
152 209 221
150 209 220
152 209 220
152 209 220
158 211 223
146 207 217
144 207 218
139 205 216
136 204 215
141 206 217
188 222 237
221 235 253
225 237 255
225 237 255
225 237 255
225 237 255
225 237 255
225 237 255
225 237 255
225 237 255
225 238 255
225 238 255
226 238 255
226 238 255
226 238 255
226 238 255
226 238 255
226 238 255
226 238 255
226 238 255
226 238 255
226 238 255
226 238 255
227 238 255
227 238 255
227 238 255
227 238 255
227 238 255
227 238 255
227 238 255
227 238 255
227 239 255
227 239 255
227 239 255
227 239 255
228 239 255
228 239 255
228 239 255
228 239 255
228 239 255
228 239 255
228 239 255
228 239 255
228 239 255
228 239 255
228 239 255
228 239 255
228 239 255
229 239 255
229 239 255
229 239 255
229 239 255
229 239 255
229 240 255
229 240 255
229 240 255
229 240 255
229 240 255
229 240 255
229 240 255
230 240 255
230 240 255
230 240 255
230 240 255
230 240 255
230 240 255
230 240 255
230 240 255
230 240 255
230 240 255
230 240 255
230 240 255
230 240 255
231 240 255
231 240 255
231 241 255
231 241 255
231 241 255
231 241 255
231 241 255
231 241 255
231 241 255
231 241 255
231 241 255
231 241 255
231 241 255
231 241 255
232 241 255
232 241 255
232 241 255
232 241 255
232 241 255
232 241 255
232 241 255
232 241 255
232 241 255
232 241 255
232 241 255
232 241 255
232 242 255
232 242 255
233 242 255
233 242 255
233 242 255
233 242 255
233 242 255
233 242 255
233 242 255
233 242 255
233 242 255
233 242 255
233 242 255
233 242 255
233 242 255
233 242 255
233 242 255
234 242 255
234 242 255
234 242 255
234 242 255
234 242 255
234 242 255
234 242 255
234 242 255
234 242 255
234 242 255
234 243 255
234 243 255
234 243 255
234 243 255
234 243 255
234 243 255
235 243 255
235 243 255
235 243 255
235 243 255
235 243 255
235 243 255
235 243 255
235 243 255
235 243 255
235 243 255
235 243 255
235 243 255
235 243 255
235 243 255
235 243 255
235 243 255
235 243 255
236 243 255
236 243 255
236 243 255
236 243 255
236 243 255
236 243 255
236 244 255
236 244 255
236 244 255
236 244 255
236 244 255
236 244 255
236 244 255
236 244 255
236 244 255
236 244 255
236 244 255
236 244 255
236 244 255
237 244 255
237 244 255
237 244 255
237 244 255
237 244 255
237 244 255
237 244 255
237 244 255
237 244 255
237 244 255
237 244 255
237 244 255
237 244 255
237 244 255
237 244 255
237 244 255
237 244 255
237 244 255
237 244 255
237 244 255
238 244 255
238 244 255
238 245 255
238 245 255
238 245 255
238 245 255
238 245 255
238 245 255
238 245 255
238 245 255
238 245 255
238 245 255
238 245 255
238 245 255
238 245 255
238 245 255
238 245 255
238 245 255
238 245 255
238 245 255
238 245 255
238 245 255
238 245 255
238 245 255
239 245 255
239 245 255
211 229 255
211 229 255
211 229 255
211 229 255
211 229 255
211 229 255
211 229 255
211 230 255
211 230 255
211 230 255
211 230 255
211 230 255
211 230 255
211 230 255
211 230 255
212 230 255
212 230 255
212 230 255
212 230 255
212 230 255
212 230 255
212 230 255
212 230 255
212 230 255
212 230 255
212 230 255
212 230 255
212 230 255
212 230 255
212 230 255
212 230 255
213 230 255
213 230 255
213 230 255
213 230 255
213 230 255
213 231 255
213 231 255
213 231 255
213 231 255
213 231 255
213 231 255
213 231 255
213 231 255
213 231 255
213 231 255
214 231 255
214 231 255
214 231 255
214 231 255
214 231 255
214 231 255
214 231 255
214 231 255
214 231 255
214 231 255
214 231 255
214 231 255
214 231 255
214 231 255
214 231 255
215 231 255
215 231 255
215 232 255
215 232 255
215 232 255
215 232 255
215 232 255
215 232 255
215 232 255
215 232 255
215 232 255
215 232 255
215 232 255
215 232 255
216 232 255
216 232 255
216 232 255
216 232 255
216 232 255
216 232 255
216 232 255
216 232 255
216 232 255
216 232 255
216 232 255
216 232 255
216 232 255
217 233 255
217 233 255
217 233 255
217 233 255
217 233 255
217 233 255
217 233 255
217 233 255
217 233 255
217 233 255
217 233 255
217 233 255
217 233 255
218 233 255
218 233 255
218 233 255
218 233 255
218 233 255
218 233 255
218 233 255
218 233 255
218 233 255
218 233 255
218 234 255
218 234 255
218 234 255
219 234 255
219 234 255
219 234 255
219 234 255
219 234 255
219 234 255
219 234 255
219 234 255
219 234 255
219 234 255
219 234 255
219 234 255
220 234 255
220 234 255
220 234 255
220 234 255
220 234 255
220 234 255
220 234 255
220 235 255
220 235 255
220 235 255
220 235 255
220 235 255
221 235 255
221 235 255
221 235 255
221 235 255
221 235 255
221 235 255
221 235 255
221 235 255
221 235 255
221 235 255
221 235 255
221 235 255
222 235 255
222 235 255
222 235 255
222 235 255
222 236 255
222 236 255
222 236 255
222 236 255
222 236 255
222 236 255
222 236 255
222 236 255
223 236 255
223 236 255
223 236 255
223 236 255
223 236 255
223 236 255
223 236 255
223 236 255
223 236 255
215 233 250
179 219 232
160 212 224
156 211 222
153 210 220
150 208 219
146 207 218
149 208 219
141 206 216
153 209 221
151 209 220
149 208 219
149 208 220
141 206 216
137 204 216
123 200 210
143 206 218
195 225 240
225 237 255
225 237 255
225 237 255
225 237 255
225 237 255
225 237 255
225 238 255
225 238 255
226 238 255
226 238 255
226 238 255
226 238 255
226 238 255
226 238 255
226 238 255
226 238 255
226 238 255
226 238 255
226 238 255
227 238 255
227 238 255
227 238 255
227 238 255
227 238 255
227 238 255
227 238 255
227 238 255
227 239 255
227 239 255
227 239 255
227 239 255
228 239 255
228 239 255
228 239 255
228 239 255
228 239 255
228 239 255
228 239 255
228 239 255
228 239 255
228 239 255
228 239 255
228 239 255
228 239 255
229 239 255
229 239 255
229 239 255
229 239 255
229 239 255
229 240 255
229 240 255
229 240 255
229 240 255
229 240 255
229 240 255
229 240 255
230 240 255
230 240 255
230 240 255
230 240 255
230 240 255
230 240 255
230 240 255
230 240 255
230 240 255
230 240 255
230 240 255
230 240 255
230 240 255
231 240 255
231 240 255
231 241 255
231 241 255
231 241 255
231 241 255
231 241 255
231 241 255
231 241 255
231 241 255
231 241 255
231 241 255
231 241 255
231 241 255
232 241 255
232 241 255
232 241 255
232 241 255
232 241 255
232 241 255
232 241 255
232 241 255
232 241 255
232 241 255
232 241 255
232 241 255
232 242 255
232 242 255
233 242 255
233 242 255
233 242 255
233 242 255
233 242 255
233 242 255
233 242 255
233 242 255
233 242 255
233 242 255
233 242 255
233 242 255
233 242 255
233 242 255
233 242 255
234 242 255
234 242 255
234 242 255
234 242 255
234 242 255
234 242 255
234 242 255
234 242 255
234 242 255
234 243 255
234 243 255
234 243 255
234 243 255
234 243 255
234 243 255
234 243 255
235 243 255
235 243 255
235 243 255
235 243 255
235 243 255
235 243 255
235 243 255
235 243 255
235 243 255
235 243 255
235 243 255
235 243 255
235 243 255
235 243 255
235 243 255
235 243 255
235 243 255
236 243 255
236 243 255
236 243 255
236 243 255
236 243 255
236 243 255
236 244 255
236 244 255
236 244 255
236 244 255
236 244 255
236 244 255
236 244 255
236 244 255
236 244 255
236 244 255
236 244 255
236 244 255
237 244 255
237 244 255
237 244 255
237 244 255
237 244 255
237 244 255
237 244 255
237 244 255
237 244 255
237 244 255
237 244 255
237 244 255
237 244 255
237 244 255
237 244 255
237 244 255
237 244 255
237 244 255
237 244 255
237 244 255
237 244 255
238 244 255
238 245 255
238 245 255
238 245 255
238 245 255
238 245 255
238 245 255
238 245 255
238 245 255
238 245 255
238 245 255
238 245 255
238 245 255
238 245 255
238 245 255
238 245 255
238 245 255
238 245 255
238 245 255
238 245 255
238 245 255
238 245 255
238 245 255
239 245 255
239 245 255
239 245 255
239 245 255
211 229 255
211 229 255
211 229 255
211 229 255
211 229 255
211 229 255
211 230 255
211 230 255
211 230 255
211 230 255
211 230 255
211 230 255
211 230 255
211 230 255
212 230 255
212 230 255
212 230 255
212 230 255
212 230 255
212 230 255
212 230 255
212 230 255
212 230 255
212 230 255
212 230 255
212 230 255
212 230 255
212 230 255
212 230 255
212 230 255
213 230 255
213 230 255
213 230 255
213 230 255
213 230 255
213 230 255
213 231 255
213 231 255
213 231 255
213 231 255
213 231 255
213 231 255
213 231 255
213 231 255
213 231 255
213 231 255
214 231 255
214 231 255
214 231 255
214 231 255
214 231 255
214 231 255
214 231 255
214 231 255
214 231 255
214 231 255
214 231 255
214 231 255
214 231 255
214 231 255
215 231 255
215 231 255
215 232 255
215 232 255
215 232 255
215 232 255
215 232 255
215 232 255
215 232 255
215 232 255
215 232 255
215 232 255
215 232 255
215 232 255
216 232 255
216 232 255
216 232 255
216 232 255
216 232 255
216 232 255
216 232 255
216 232 255
216 232 255
216 232 255
216 232 255
216 232 255
216 232 255
217 233 255
217 233 255
217 233 255
217 233 255
217 233 255
217 233 255
217 233 255
217 233 255
217 233 255
217 233 255
217 233 255
217 233 255
217 233 255
218 233 255
218 233 255
218 233 255
218 233 255
218 233 255
218 233 255
218 233 255
218 233 255
218 233 255
218 233 255
218 234 255
218 234 255
218 234 255
219 234 255
219 234 255
219 234 255
219 234 255
219 234 255
219 234 255
219 234 255
219 234 255
219 234 255
219 234 255
219 234 255
219 234 255
220 234 255
220 234 255
220 234 255
220 234 255
220 234 255
220 234 255
220 234 255
220 235 255
220 235 255
220 235 255
220 235 255
220 235 255
221 235 255
221 235 255
221 235 255
221 235 255
221 235 255
221 235 255
221 235 255
221 235 255
221 235 255
221 235 255
221 235 255
221 235 255
222 235 255
222 235 255
222 235 255
222 235 255
222 236 255
222 236 255
222 236 255
222 236 255
222 236 255
222 236 255
222 236 255
222 236 255
223 236 255
223 236 255
223 236 255
223 236 255
223 236 255
223 236 255
223 236 255
223 236 255
222 236 254
192 224 237
153 210 221
151 209 219
161 213 223
153 210 220
151 209 220
155 210 222
142 206 216
141 206 216
153 210 220
150 208 220
146 207 218
156 211 222
150 209 220
146 207 218
143 206 218
139 205 216
132 203 214
119 200 209
175 217 231
222 236 253
225 237 255
225 237 255
225 237 255
225 238 255
225 238 255
226 238 255
226 238 255
226 238 255
226 238 255
226 238 255
226 238 255
226 238 255
226 238 255
226 238 255
226 238 255
226 238 255
227 238 255
227 238 255
227 238 255
227 238 255
227 238 255
227 238 255
227 238 255
227 238 255
227 239 255
227 239 255
227 239 255
227 239 255
228 239 255
228 239 255
228 239 255
228 239 255
228 239 255
228 239 255
228 239 255
228 239 255
228 239 255
228 239 255
228 239 255
228 239 255
228 239 255
229 239 255
229 239 255
229 239 255
229 239 255
229 239 255
229 240 255
229 240 255
229 240 255
229 240 255
229 240 255
229 240 255
229 240 255
230 240 255
230 240 255
230 240 255
230 240 255
230 240 255
230 240 255
230 240 255
230 240 255
230 240 255
230 240 255
230 240 255
230 240 255
230 240 255
231 240 255
231 240 255
231 241 255
231 241 255
231 241 255
231 241 255
231 241 255
231 241 255
231 241 255
231 241 255
231 241 255
231 241 255
231 241 255
231 241 255
232 241 255
232 241 255
232 241 255
232 241 255
232 241 255
232 241 255
232 241 255
232 241 255
232 241 255
232 241 255
232 241 255
232 241 255
232 242 255
232 242 255
233 242 255
233 242 255
233 242 255
233 242 255
233 242 255
233 242 255
233 242 255
233 242 255
233 242 255
233 242 255
233 242 255
233 242 255
233 242 255
233 242 255
234 242 255
234 242 255
234 242 255
234 242 255
234 242 255
234 242 255
234 242 255
234 242 255
234 242 255
234 242 255
234 243 255
234 243 255
234 243 255
234 243 255
234 243 255
234 243 255
235 243 255
235 243 255
235 243 255
235 243 255
235 243 255
235 243 255
235 243 255
235 243 255
235 243 255
235 243 255
235 243 255
235 243 255
235 243 255
235 243 255
235 243 255
235 243 255
235 243 255
236 243 255
236 243 255
236 243 255
236 243 255
236 243 255
236 243 255
236 243 255
236 244 255
236 244 255
236 244 255
236 244 255
236 244 255
236 244 255
236 244 255
236 244 255
236 244 255
236 244 255
236 244 255
236 244 255
237 244 255
237 244 255
237 244 255
237 244 255
237 244 255
237 244 255
237 244 255
237 244 255
237 244 255
237 244 255
237 244 255
237 244 255
237 244 255
237 244 255
237 244 255
237 244 255
237 244 255
237 244 255
237 244 255
237 244 255
238 244 255
238 244 255
238 245 255
238 245 255
238 245 255
238 245 255
238 245 255
238 245 255
238 245 255
238 245 255
238 245 255
238 245 255
238 245 255
238 245 255
238 245 255
238 245 255
238 245 255
238 245 255
238 245 255
238 245 255
238 245 255
238 245 255
238 245 255
239 245 255
239 245 255
239 245 255
239 245 255
239 245 255
239 245 255
211 229 255
211 229 255
211 229 255
211 229 255
211 229 255
211 230 255
211 230 255
211 230 255
211 230 255
211 230 255
211 230 255
211 230 255
211 230 255
212 230 255
212 230 255
212 230 255
212 230 255
212 230 255
212 230 255
212 230 255
212 230 255
212 230 255
212 230 255
212 230 255
212 230 255
212 230 255
212 230 255
212 230 255
212 230 255
213 230 255
213 230 255
213 230 255
213 230 255
213 230 255
213 230 255
213 231 255
213 231 255
213 231 255
213 231 255
213 231 255
213 231 255
213 231 255
213 231 255
213 231 255
213 231 255
214 231 255
214 231 255
214 231 255
214 231 255
214 231 255
214 231 255
214 231 255
214 231 255
214 231 255
214 231 255
214 231 255
214 231 255
214 231 255
214 231 255
215 231 255
215 231 255
215 232 255
215 232 255
215 232 255
215 232 255
215 232 255
215 232 255
215 232 255
215 232 255
215 232 255
215 232 255
215 232 255
215 232 255
216 232 255
216 232 255
216 232 255
216 232 255
216 232 255
216 232 255
216 232 255
216 232 255
216 232 255
216 232 255
216 232 255
216 232 255
216 232 255
217 233 255
217 233 255
217 233 255
217 233 255
217 233 255
217 233 255
217 233 255
217 233 255
217 233 255
217 233 255
217 233 255
217 233 255
217 233 255
218 233 255
218 233 255
218 233 255
218 233 255
218 233 255
218 233 255
218 233 255
218 233 255
218 233 255
218 233 255
218 234 255
218 234 255
218 234 255
219 234 255
219 234 255
219 234 255
219 234 255
219 234 255
219 234 255
219 234 255
219 234 255
219 234 255
219 234 255
219 234 255
219 234 255
220 234 255
220 234 255
220 234 255
220 234 255
220 234 255
220 234 255
220 234 255
220 235 255
220 235 255
220 235 255
220 235 255
220 235 255
221 235 255
221 235 255
221 235 255
221 235 255
221 235 255
221 235 255
221 235 255
221 235 255
221 235 255
221 235 255
221 235 255
221 235 255
222 235 255
222 235 255
222 235 255
222 235 255
222 236 255
222 236 255
222 236 255
222 236 255
222 236 255
222 236 255
222 236 255
222 236 255
223 236 255
223 236 255
223 236 255
223 236 255
223 236 255
223 236 255
223 236 255
223 236 255
217 234 251
166 214 227
154 210 221
154 210 221
147 207 219
152 209 220
154 210 221
155 210 222
161 212 223
160 212 223
145 207 217
144 207 217
148 208 219
154 210 221
148 208 217
151 209 220
154 210 221
154 210 222
150 209 219
138 205 216
129 202 213
134 203 215
141 206 217
212 232 248
225 237 255
225 238 255
225 238 255
226 238 255
226 238 255
226 238 255
226 238 255
226 238 255
226 238 255
226 238 255
226 238 255
226 238 255
226 238 255
226 238 255
226 238 255
227 238 255
227 238 255
227 238 255
227 238 255
227 238 255
227 238 255
227 238 255
227 239 255
227 239 255
227 239 255
227 239 255
227 239 255
228 239 255
228 239 255
228 239 255
228 239 255
228 239 255
228 239 255
228 239 255
228 239 255
228 239 255
228 239 255
228 239 255
228 239 255
229 239 255
229 239 255
229 239 255
229 239 255
229 239 255
229 240 255
229 240 255
229 240 255
229 240 255
229 240 255
229 240 255
229 240 255
230 240 255
230 240 255
230 240 255
230 240 255
230 240 255
230 240 255
230 240 255
230 240 255
230 240 255
230 240 255
230 240 255
230 240 255
230 240 255
231 240 255
231 240 255
231 241 255
231 241 255
231 241 255
231 241 255
231 241 255
231 241 255
231 241 255
231 241 255
231 241 255
231 241 255
231 241 255
232 241 255
232 241 255
232 241 255
232 241 255
232 241 255
232 241 255
232 241 255
232 241 255
232 241 255
232 241 255
232 241 255
232 241 255
232 241 255
232 242 255
232 242 255
233 242 255
233 242 255
233 242 255
233 242 255
233 242 255
233 242 255
233 242 255
233 242 255
233 242 255
233 242 255
233 242 255
233 242 255
233 242 255
233 242 255
234 242 255
234 242 255
234 242 255
234 242 255
234 242 255
234 242 255
234 242 255
234 242 255
234 242 255
234 242 255
234 243 255
234 243 255
234 243 255
234 243 255
234 243 255
234 243 255
235 243 255
235 243 255
235 243 255
235 243 255
235 243 255
235 243 255
235 243 255
235 243 255
235 243 255
235 243 255
235 243 255
235 243 255
235 243 255
235 243 255
235 243 255
235 243 255
235 243 255
236 243 255
236 243 255
236 243 255
236 243 255
236 243 255
236 243 255
236 244 255
236 244 255
236 244 255
236 244 255
236 244 255
236 244 255
236 244 255
236 244 255
236 244 255
236 244 255
236 244 255
236 244 255
237 244 255
237 244 255
237 244 255
237 244 255
237 244 255
237 244 255
237 244 255
237 244 255
237 244 255
237 244 255
237 244 255
237 244 255
237 244 255
237 244 255
237 244 255
237 244 255
237 244 255
237 244 255
237 244 255
237 244 255
237 244 255
238 244 255
238 245 255
238 245 255
238 245 255
238 245 255
238 245 255
238 245 255
238 245 255
238 245 255
238 245 255
238 245 255
238 245 255
238 245 255
238 245 255
238 245 255
238 245 255
238 245 255
238 245 255
238 245 255
238 245 255
238 245 255
238 245 255
239 245 255
239 245 255
239 245 255
239 245 255
239 245 255
239 245 255
239 245 255
239 245 255
211 229 255
211 229 255
211 229 255
211 229 255
211 230 255
211 230 255
211 230 255
211 230 255
211 230 255
211 230 255
211 230 255
211 230 255
212 230 255
212 230 255
212 230 255
212 230 255
212 230 255
212 230 255
212 230 255
212 230 255
212 230 255
212 230 255
212 230 255
212 230 255
212 230 255
212 230 255
212 230 255
212 230 255
213 230 255
213 230 255
213 230 255
213 230 255
213 230 255
213 230 255
213 231 255
213 231 255
213 231 255
213 231 255
213 231 255
213 231 255
213 231 255
213 231 255
213 231 255
213 231 255
214 231 255
214 231 255
214 231 255
214 231 255
214 231 255
214 231 255
214 231 255
214 231 255
214 231 255
214 231 255
214 231 255
214 231 255
214 231 255
214 231 255
215 231 255
215 231 255
215 231 255
215 232 255
215 232 255
215 232 255
215 232 255
215 232 255
215 232 255
215 232 255
215 232 255
215 232 255
215 232 255
215 232 255
216 232 255
216 232 255
216 232 255
216 232 255
216 232 255
216 232 255
216 232 255
216 232 255
216 232 255
216 232 255
216 232 255
216 232 255
216 232 255
216 233 255
217 233 255
217 233 255
217 233 255
217 233 255
217 233 255
217 233 255
217 233 255
217 233 255
217 233 255
217 233 255
217 233 255
217 233 255
217 233 255
218 233 255
218 233 255
218 233 255
218 233 255
218 233 255
218 233 255
218 233 255
218 233 255
218 233 255
218 234 255
218 234 255
218 234 255
219 234 255
219 234 255
219 234 255
219 234 255
219 234 255
219 234 255
219 234 255
219 234 255
219 234 255
219 234 255
219 234 255
219 234 255
220 234 255
220 234 255
220 234 255
220 234 255
220 234 255
220 234 255
220 234 255
220 235 255
220 235 255
220 235 255
220 235 255
220 235 255
221 235 255
221 235 255
221 235 255
221 235 255
221 235 255
221 235 255
221 235 255
221 235 255
221 235 255
221 235 255
221 235 255
221 235 255
222 235 255
222 235 255
222 235 255
222 235 255
222 236 255
222 236 255
222 236 255
222 236 255
222 236 255
222 236 255
222 236 255
222 236 255
223 236 255
223 236 255
223 236 255
223 236 255
223 236 255
223 236 255
223 236 255
223 236 255
214 232 250
151 209 221
140 206 216
152 209 221
153 210 221
150 208 221
154 210 221
153 210 221
159 212 222
154 210 221
153 210 220
154 210 220
158 211 222
145 207 217
152 209 220
161 212 224
154 210 222
150 209 219
143 207 216
153 209 221
150 209 220
139 205 216
129 202 213
133 203 214
138 205 216
185 221 235
225 237 254
226 238 255
226 238 255
226 238 255
226 238 255
226 238 255
226 238 255
226 238 255
226 238 255
226 238 255
226 238 255
226 238 255
226 238 255
227 238 255
227 238 255
227 238 255
227 238 255
227 238 255
227 238 255
227 238 255
227 239 255
227 239 255
227 239 255
227 239 255
227 239 255
228 239 255
228 239 255
228 239 255
228 239 255
228 239 255
228 239 255
228 239 255
228 239 255
228 239 255
228 239 255
228 239 255
228 239 255
229 239 255
229 239 255
229 239 255
229 239 255
229 239 255
229 240 255
229 240 255
229 240 255
229 240 255
229 240 255
229 240 255
229 240 255
230 240 255
230 240 255
230 240 255
230 240 255
230 240 255
230 240 255
230 240 255
230 240 255
230 240 255
230 240 255
230 240 255
230 240 255
230 240 255
231 240 255
231 240 255
231 241 255
231 241 255
231 241 255
231 241 255
231 241 255
231 241 255
231 241 255
231 241 255
231 241 255
231 241 255
231 241 255
232 241 255
232 241 255
232 241 255
232 241 255
232 241 255
232 241 255
232 241 255
232 241 255
232 241 255
232 241 255
232 241 255
232 241 255
232 241 255
232 242 255
233 242 255
233 242 255
233 242 255
233 242 255
233 242 255
233 242 255
233 242 255
233 242 255
233 242 255
233 242 255
233 242 255
233 242 255
233 242 255
233 242 255
233 242 255
234 242 255
234 242 255
234 242 255
234 242 255
234 242 255
234 242 255
234 242 255
234 242 255
234 242 255
234 242 255
234 243 255
234 243 255
234 243 255
234 243 255
234 243 255
234 243 255
235 243 255
235 243 255
235 243 255
235 243 255
235 243 255
235 243 255
235 243 255
235 243 255
235 243 255
235 243 255
235 243 255
235 243 255
235 243 255
235 243 255
235 243 255
235 243 255
235 243 255
236 243 255
236 243 255
236 243 255
236 243 255
236 243 255
236 243 255
236 244 255
236 244 255
236 244 255
236 244 255
236 244 255
236 244 255
236 244 255
236 244 255
236 244 255
236 244 255
236 244 255
236 244 255
237 244 255
237 244 255
237 244 255
237 244 255
237 244 255
237 244 255
237 244 255
237 244 255
237 244 255
237 244 255
237 244 255
237 244 255
237 244 255
237 244 255
237 244 255
237 244 255
237 244 255
237 244 255
237 244 255
237 244 255
238 244 255
238 244 255
238 245 255
238 245 255
238 245 255
238 245 255
238 245 255
238 245 255
238 245 255
238 245 255
238 245 255
238 245 255
238 245 255
238 245 255
238 245 255
238 245 255
238 245 255
238 245 255
238 245 255
238 245 255
238 245 255
238 245 255
238 245 255
239 245 255
239 245 255
239 245 255
239 245 255
239 245 255
239 245 255
239 245 255
239 245 255
239 245 255
211 229 255
211 229 255
211 229 255
211 230 255
211 230 255
211 230 255
211 230 255
211 230 255
211 230 255
211 230 255
211 230 255
212 230 255
212 230 255
212 230 255
212 230 255
212 230 255
212 230 255
212 230 255
212 230 255
212 230 255
212 230 255
212 230 255
212 230 255
212 230 255
212 230 255
212 230 255
212 230 255
213 230 255
213 230 255
213 230 255
213 230 255
213 230 255
213 230 255
213 231 255
213 231 255
213 231 255
213 231 255
213 231 255
213 231 255
213 231 255
213 231 255
213 231 255
213 231 255
214 231 255
214 231 255
214 231 255
214 231 255
214 231 255
214 231 255
214 231 255
214 231 255
214 231 255
214 231 255
214 231 255
214 231 255
214 231 255
214 231 255
215 231 255
215 231 255
215 231 255
215 232 255
215 232 255
215 232 255
215 232 255
215 232 255
215 232 255
215 232 255
215 232 255
215 232 255
215 232 255
215 232 255
216 232 255
216 232 255
216 232 255
216 232 255
216 232 255
216 232 255
216 232 255
216 232 255
216 232 255
216 232 255
216 232 255
216 232 255
216 232 255
216 233 255
217 233 255
217 233 255
217 233 255
217 233 255
217 233 255
217 233 255
217 233 255
217 233 255
217 233 255
217 233 255
217 233 255
217 233 255
217 233 255
218 233 255
218 233 255
218 233 255
218 233 255
218 233 255
218 233 255
218 233 255
218 233 255
218 233 255
218 234 255
218 234 255
218 234 255
219 234 255
219 234 255
219 234 255
219 234 255
219 234 255
219 234 255
219 234 255
219 234 255
219 234 255
219 234 255
219 234 255
219 234 255
219 234 255
220 234 255
220 234 255
220 234 255
220 234 255
220 234 255
220 234 255
220 235 255
220 235 255
220 235 255
220 235 255
220 235 255
220 235 255
221 235 255
221 235 255
221 235 255
221 235 255
221 235 255
221 235 255
221 235 255
221 235 255
221 235 255
221 235 255
221 235 255
222 235 255
222 235 255
222 235 255
222 235 255
222 236 255
222 236 255
222 236 255
222 236 255
222 236 255
222 236 255
222 236 255
222 236 255
223 236 255
223 236 255
223 236 255
223 236 255
223 236 255
223 236 255
223 236 255
223 236 255
215 233 250
150 208 220
141 205 217
149 209 219
143 206 216
151 209 220
145 207 217
155 210 222
157 211 222
153 210 220
154 210 220
156 211 221
153 210 220
154 210 221
146 208 218
140 206 215
141 206 216
157 211 222
145 207 217
154 210 221
153 210 221
147 208 219
145 207 218
149 208 220
130 202 213
124 201 211
126 201 211
164 213 226
221 236 252
226 238 255
226 238 255
226 238 255
226 238 255
226 238 255
226 238 255
226 238 255
226 238 255
226 238 255
226 238 255
227 238 255
227 238 255
227 238 255
227 238 255
227 238 255
227 238 255
227 238 255
227 239 255
227 239 255
227 239 255
227 239 255
227 239 255
228 239 255
228 239 255
228 239 255
228 239 255
228 239 255
228 239 255
228 239 255
228 239 255
228 239 255
228 239 255
228 239 255
228 239 255
229 239 255
229 239 255
229 239 255
229 239 255
229 239 255
229 240 255
229 240 255
229 240 255
229 240 255
229 240 255
229 240 255
229 240 255
230 240 255
230 240 255
230 240 255
230 240 255
230 240 255
230 240 255
230 240 255
230 240 255
230 240 255
230 240 255
230 240 255
230 240 255
230 240 255
231 240 255
231 240 255
231 241 255
231 241 255
231 241 255
231 241 255
231 241 255
231 241 255
231 241 255
231 241 255
231 241 255
231 241 255
231 241 255
232 241 255
232 241 255
232 241 255
232 241 255
232 241 255
232 241 255
232 241 255
232 241 255
232 241 255
232 241 255
232 241 255
232 241 255
232 241 255
232 242 255
233 242 255
233 242 255
233 242 255
233 242 255
233 242 255
233 242 255
233 242 255
233 242 255
233 242 255
233 242 255
233 242 255
233 242 255
233 242 255
233 242 255
233 242 255
234 242 255
234 242 255
234 242 255
234 242 255
234 242 255
234 242 255
234 242 255
234 242 255
234 242 255
234 243 255
234 243 255
234 243 255
234 243 255
234 243 255
234 243 255
235 243 255
235 243 255
235 243 255
235 243 255
235 243 255
235 243 255
235 243 255
235 243 255
235 243 255
235 243 255
235 243 255
235 243 255
235 243 255
235 243 255
235 243 255
235 243 255
235 243 255
236 243 255
236 243 255
236 243 255
236 243 255
236 243 255
236 243 255
236 244 255
236 244 255
236 244 255
236 244 255
236 244 255
236 244 255
236 244 255
236 244 255
236 244 255
236 244 255
236 244 255
236 244 255
237 244 255
237 244 255
237 244 255
237 244 255
237 244 255
237 244 255
237 244 255
237 244 255
237 244 255
237 244 255
237 244 255
237 244 255
237 244 255
237 244 255
237 244 255
237 244 255
237 244 255
237 244 255
237 244 255
237 244 255
238 244 255
238 244 255
238 245 255
238 245 255
238 245 255
238 245 255
238 245 255
238 245 255
238 245 255
238 245 255
238 245 255
238 245 255
238 245 255
238 245 255
238 245 255
238 245 255
238 245 255
238 245 255
238 245 255
238 245 255
238 245 255
238 245 255
238 245 255
239 245 255
239 245 255
239 245 255
239 245 255
239 245 255
239 245 255
239 245 255
239 245 255
239 245 255
239 245 255
239 245 255
211 229 255
211 229 255
211 230 255
211 230 255
211 230 255
211 230 255
211 230 255
211 230 255
211 230 255
211 230 255
212 230 255
212 230 255
212 230 255
212 230 255
212 230 255
212 230 255
212 230 255
212 230 255
212 230 255
212 230 255
212 230 255
212 230 255
212 230 255
212 230 255
212 230 255
212 230 255
213 230 255
213 230 255
213 230 255
213 230 255
213 230 255
213 230 255
213 231 255
213 231 255
213 231 255
213 231 255
213 231 255
213 231 255
213 231 255
213 231 255
213 231 255
213 231 255
214 231 255
214 231 255
214 231 255
214 231 255
214 231 255
214 231 255
214 231 255
214 231 255
214 231 255
214 231 255
214 231 255
214 231 255
214 231 255
214 231 255
215 231 255
215 231 255
215 231 255
215 232 255
215 232 255
215 232 255
215 232 255
215 232 255
215 232 255
215 232 255
215 232 255
215 232 255
215 232 255
215 232 255
216 232 255
216 232 255
216 232 255
216 232 255
216 232 255
216 232 255
216 232 255
216 232 255
216 232 255
216 232 255
216 232 255
216 232 255
216 232 255
216 233 255
217 233 255
217 233 255
217 233 255
217 233 255
217 233 255
217 233 255
217 233 255
217 233 255
217 233 255
217 233 255
217 233 255
217 233 255
217 233 255
218 233 255
218 233 255
218 233 255
218 233 255
218 233 255
218 233 255
218 233 255
218 233 255
218 233 255
218 234 255
218 234 255
218 234 255
219 234 255
219 234 255
219 234 255
219 234 255
219 234 255
219 234 255
219 234 255
219 234 255
219 234 255
219 234 255
219 234 255
219 234 255
219 234 255
220 234 255
220 234 255
220 234 255
220 234 255
220 234 255
220 234 255
220 235 255
220 235 255
220 235 255
220 235 255
220 235 255
220 235 255
221 235 255
221 235 255
221 235 255
221 235 255
221 235 255
221 235 255
221 235 255
221 235 255
221 235 255
221 235 255
221 235 255
222 235 255
222 235 255
222 235 255
222 235 255
222 236 255
222 236 255
222 236 255
222 236 255
222 236 255
222 236 255
222 236 255
222 236 255
223 236 255
223 236 255
223 236 255
223 236 255
223 236 255
223 236 255
223 236 255
223 236 255
218 234 252
166 214 227
137 204 215
125 201 210
129 202 211
144 206 219
135 204 215
131 203 213
146 208 218
154 210 221
153 210 220
149 208 220
151 209 220
156 211 222
154 210 221
155 210 221
153 210 219
147 208 217
134 204 213
151 209 220
153 210 220
145 207 217
151 209 219
148 208 218
151 209 220
144 207 217
144 207 217
123 201 210
130 202 213
132 203 213
205 229 244
226 238 255
226 238 255
226 238 255
226 238 255
226 238 255
226 238 255
226 238 255
226 238 255
227 238 255
227 238 255
227 238 255
227 238 255
227 238 255
227 238 255
227 238 255
227 239 255
227 239 255
227 239 255
227 239 255
227 239 255
228 239 255
228 239 255
228 239 255
228 239 255
228 239 255
228 239 255
228 239 255
228 239 255
228 239 255
228 239 255
228 239 255
228 239 255
229 239 255
229 239 255
229 239 255
229 239 255
229 239 255
229 240 255
229 240 255
229 240 255
229 240 255
229 240 255
229 240 255
229 240 255
230 240 255
230 240 255
230 240 255
230 240 255
230 240 255
230 240 255
230 240 255
230 240 255
230 240 255
230 240 255
230 240 255
230 240 255
230 240 255
231 240 255
231 240 255
231 241 255
231 241 255
231 241 255
231 241 255
231 241 255
231 241 255
231 241 255
231 241 255
231 241 255
231 241 255
231 241 255
232 241 255
232 241 255
232 241 255
232 241 255
232 241 255
232 241 255
232 241 255
232 241 255
232 241 255
232 241 255
232 241 255
232 241 255
232 242 255
232 242 255
233 242 255
233 242 255
233 242 255
233 242 255
233 242 255
233 242 255
233 242 255
233 242 255
233 242 255
233 242 255
233 242 255
233 242 255
233 242 255
233 242 255
233 242 255
234 242 255
234 242 255
234 242 255
234 242 255
234 242 255
234 242 255
234 242 255
234 242 255
234 242 255
234 243 255
234 243 255
234 243 255
234 243 255
234 243 255
234 243 255
235 243 255
235 243 255
235 243 255
235 243 255
235 243 255
235 243 255
235 243 255
235 243 255
235 243 255
235 243 255
235 243 255
235 243 255
235 243 255
235 243 255
235 243 255
235 243 255
235 243 255
236 243 255
236 243 255
236 243 255
236 243 255
236 243 255
236 243 255
236 244 255
236 244 255
236 244 255
236 244 255
236 244 255
236 244 255
236 244 255
236 244 255
236 244 255
236 244 255
236 244 255
236 244 255
237 244 255
237 244 255
237 244 255
237 244 255
237 244 255
237 244 255
237 244 255
237 244 255
237 244 255
237 244 255
237 244 255
237 244 255
237 244 255
237 244 255
237 244 255
237 244 255
237 244 255
237 244 255
237 244 255
237 244 255
238 244 255
238 244 255
238 245 255
238 245 255
238 245 255
238 245 255
238 245 255
238 245 255
238 245 255
238 245 255
238 245 255
238 245 255
238 245 255
238 245 255
238 245 255
238 245 255
238 245 255
238 245 255
238 245 255
238 245 255
238 245 255
238 245 255
239 245 255
239 245 255
239 245 255
239 245 255
239 245 255
239 245 255
239 245 255
239 245 255
239 245 255
239 245 255
239 245 255
239 245 255
239 245 255
211 229 255
211 230 255
211 230 255
211 230 255
211 230 255
211 230 255
211 230 255
211 230 255
211 230 255
212 230 255
212 230 255
212 230 255
212 230 255
212 230 255
212 230 255
212 230 255
212 230 255
212 230 255
212 230 255
212 230 255
212 230 255
212 230 255
212 230 255
212 230 255
212 230 255
213 230 255
213 230 255
213 230 255
213 230 255
213 230 255
213 230 255
213 231 255
213 231 255
213 231 255
213 231 255
213 231 255
213 231 255
213 231 255
213 231 255
213 231 255
213 231 255
214 231 255
214 231 255
214 231 255
214 231 255
214 231 255
214 231 255
214 231 255
214 231 255
214 231 255
214 231 255
214 231 255
214 231 255
214 231 255
214 231 255
214 231 255
215 231 255
215 231 255
215 232 255
215 232 255
215 232 255
215 232 255
215 232 255
215 232 255
215 232 255
215 232 255
215 232 255
215 232 255
215 232 255
215 232 255
216 232 255
216 232 255
216 232 255
216 232 255
216 232 255
216 232 255
216 232 255
216 232 255
216 232 255
216 232 255
216 232 255
216 232 255
216 232 255
217 233 255
217 233 255
217 233 255
217 233 255
217 233 255
217 233 255
217 233 255
217 233 255
217 233 255
217 233 255
217 233 255
217 233 255
217 233 255
218 233 255
218 233 255
218 233 255
218 233 255
218 233 255
218 233 255
218 233 255
218 233 255
218 233 255
218 233 255
218 234 255
218 234 255
218 234 255
219 234 255
219 234 255
219 234 255
219 234 255
219 234 255
219 234 255
219 234 255
219 234 255
219 234 255
219 234 255
219 234 255
219 234 255
220 234 255
220 234 255
220 234 255
220 234 255
220 234 255
220 234 255
220 235 255
220 235 255
220 235 255
220 235 255
220 235 255
220 235 255
221 235 255
221 235 255
221 235 255
221 235 255
221 235 255
221 235 255
221 235 255
221 235 255
221 235 255
221 235 255
221 235 255
221 235 255
222 235 255
222 235 255
222 235 255
222 235 255
222 236 255
222 236 255
222 236 255
222 236 255
222 236 255
222 236 255
222 236 255
223 236 255
223 236 255
223 236 255
223 236 255
223 236 255
223 236 255
223 236 255
223 236 255
223 236 255
180 219 233
146 207 218
147 208 218
134 203 215
140 205 217
139 205 216
134 204 214
146 207 218
151 209 220
149 208 220
150 209 219
143 207 215
148 208 219
152 209 220
148 208 218
154 210 221
154 210 221
151 209 219
146 208 217
143 207 216
159 212 222
159 212 223
151 209 220
146 207 217
148 208 219
145 207 218
143 206 217
140 206 216
134 204 214
127 202 212
128 202 212
179 219 232
225 238 254
226 238 255
226 238 255
226 238 255
226 238 255
226 238 255
227 238 255
227 238 255
227 238 255
227 238 255
227 238 255
227 238 255
227 238 255
227 239 255
227 239 255
227 239 255
227 239 255
227 239 255
228 239 255
228 239 255
228 239 255
228 239 255
228 239 255
228 239 255
228 239 255
228 239 255
228 239 255
228 239 255
228 239 255
228 239 255
229 239 255
229 239 255
229 239 255
229 239 255
229 239 255
229 240 255
229 240 255
229 240 255
229 240 255
229 240 255
229 240 255
229 240 255
230 240 255
230 240 255
230 240 255
230 240 255
230 240 255
230 240 255
230 240 255
230 240 255
230 240 255
230 240 255
230 240 255
230 240 255
230 240 255
231 240 255
231 240 255
231 241 255
231 241 255
231 241 255
231 241 255
231 241 255
231 241 255
231 241 255
231 241 255
231 241 255
231 241 255
231 241 255
232 241 255
232 241 255
232 241 255
232 241 255
232 241 255
232 241 255
232 241 255
232 241 255
232 241 255
232 241 255
232 241 255
232 241 255
232 242 255
232 242 255
233 242 255
233 242 255
233 242 255
233 242 255
233 242 255
233 242 255
233 242 255
233 242 255
233 242 255
233 242 255
233 242 255
233 242 255
233 242 255
233 242 255
234 242 255
234 242 255
234 242 255
234 242 255
234 242 255
234 242 255
234 242 255
234 242 255
234 242 255
234 242 255
234 243 255
234 243 255
234 243 255
234 243 255
234 243 255
234 243 255
235 243 255
235 243 255
235 243 255
235 243 255
235 243 255
235 243 255
235 243 255
235 243 255
235 243 255
235 243 255
235 243 255
235 243 255
235 243 255
235 243 255
235 243 255
235 243 255
235 243 255
236 243 255
236 243 255
236 243 255
236 243 255
236 243 255
236 243 255
236 244 255
236 244 255
236 244 255
236 244 255
236 244 255
236 244 255
236 244 255
236 244 255
236 244 255
236 244 255
236 244 255
236 244 255
237 244 255
237 244 255
237 244 255
237 244 255
237 244 255
237 244 255
237 244 255
237 244 255
237 244 255
237 244 255
237 244 255
237 244 255
237 244 255
237 244 255
237 244 255
237 244 255
237 244 255
237 244 255
237 244 255
238 244 255
238 244 255
238 245 255
238 245 255
238 245 255
238 245 255
238 245 255
238 245 255
238 245 255
238 245 255
238 245 255
238 245 255
238 245 255
238 245 255
238 245 255
238 245 255
238 245 255
238 245 255
238 245 255
238 245 255
238 245 255
238 245 255
238 245 255
239 245 255
239 245 255
239 245 255
239 245 255
239 245 255
239 245 255
239 245 255
239 245 255
239 245 255
239 245 255
239 245 255
239 245 255
239 245 255
239 245 255
211 230 255
211 230 255
211 230 255
211 230 255
211 230 255
211 230 255
211 230 255
211 230 255
212 230 255
212 230 255
212 230 255
212 230 255
212 230 255
212 230 255
212 230 255
212 230 255
212 230 255
212 230 255
212 230 255
212 230 255
212 230 255
212 230 255
212 230 255
212 230 255
213 230 255
213 230 255
213 230 255
213 230 255
213 230 255
213 230 255
213 231 255
213 231 255
213 231 255
213 231 255
213 231 255
213 231 255
213 231 255
213 231 255
213 231 255
213 231 255
214 231 255
214 231 255
214 231 255
214 231 255
214 231 255
214 231 255
214 231 255
214 231 255
214 231 255
214 231 255
214 231 255
214 231 255
214 231 255
214 231 255
214 231 255
215 231 255
215 231 255
215 232 255
215 232 255
215 232 255
215 232 255
215 232 255
215 232 255
215 232 255
215 232 255
215 232 255
215 232 255
215 232 255
215 232 255
216 232 255
216 232 255
216 232 255
216 232 255
216 232 255
216 232 255
216 232 255
216 232 255
216 232 255
216 232 255
216 232 255
216 232 255
216 232 255
217 233 255
217 233 255
217 233 255
217 233 255
217 233 255
217 233 255
217 233 255
217 233 255
217 233 255
217 233 255
217 233 255
217 233 255
217 233 255
218 233 255
218 233 255
218 233 255
218 233 255
218 233 255
218 233 255
218 233 255
218 233 255
218 233 255
218 233 255
218 234 255
218 234 255
218 234 255
219 234 255
219 234 255
219 234 255
219 234 255
219 234 255
219 234 255
219 234 255
219 234 255
219 234 255
219 234 255
219 234 255
219 234 255
220 234 255
220 234 255
220 234 255
220 234 255
220 234 255
220 234 255
220 234 255
220 235 255
220 235 255
220 235 255
220 235 255
220 235 255
221 235 255
221 235 255
221 235 255
221 235 255
221 235 255
221 235 255
221 235 255
221 235 255
221 235 255
221 235 255
221 235 255
221 235 255
222 235 255
222 235 255
222 235 255
222 235 255
222 236 255
222 236 255
222 236 255
222 236 255
222 236 255
222 236 255
222 236 255
223 236 255
223 236 255
223 236 255
223 236 255
223 236 255
223 236 255
223 236 255
223 236 255
223 236 255
206 229 245
158 211 222
158 211 223
155 210 221
140 205 217
137 204 216
134 204 214
130 203 212
137 205 214
139 205 215
142 206 216
152 209 220
149 208 220
155 210 222
145 207 217
144 207 217
138 205 215
136 205 214
132 203 212
132 203 211
137 205 215
129 202 211
147 208 218
158 212 221
148 208 218
152 210 219
147 208 218
150 209 219
142 206 216
144 206 218
144 206 218
129 202 212
124 201 210
156 211 223
217 234 250
226 238 255
226 238 255
226 238 255
227 238 255
227 238 255
227 238 255
227 238 255
227 238 255
227 238 255
227 238 255
227 239 255
227 239 255
227 239 255
227 239 255
227 239 255
228 239 255
228 239 255
228 239 255
228 239 255
228 239 255
228 239 255
228 239 255
228 239 255
228 239 255
228 239 255
228 239 255
228 239 255
229 239 255
229 239 255
229 239 255
229 239 255
229 239 255
229 240 255
229 240 255
229 240 255
229 240 255
229 240 255
229 240 255
229 240 255
230 240 255
230 240 255
230 240 255
230 240 255
230 240 255
230 240 255
230 240 255
230 240 255
230 240 255
230 240 255
230 240 255
230 240 255
230 240 255
231 240 255
231 240 255
231 241 255
231 241 255
231 241 255
231 241 255
231 241 255
231 241 255
231 241 255
231 241 255
231 241 255
231 241 255
231 241 255
232 241 255
232 241 255
232 241 255
232 241 255
232 241 255
232 241 255
232 241 255
232 241 255
232 241 255
232 241 255
232 241 255
232 241 255
232 242 255
232 242 255
233 242 255
233 242 255
233 242 255
233 242 255
233 242 255
233 242 255
233 242 255
233 242 255
233 242 255
233 242 255
233 242 255
233 242 255
233 242 255
233 242 255
234 242 255
234 242 255
234 242 255
234 242 255
234 242 255
234 242 255
234 242 255
234 242 255
234 242 255
234 242 255
234 243 255
234 243 255
234 243 255
234 243 255
234 243 255
234 243 255
235 243 255
235 243 255
235 243 255
235 243 255
235 243 255
235 243 255
235 243 255
235 243 255
235 243 255
235 243 255
235 243 255
235 243 255
235 243 255
235 243 255
235 243 255
235 243 255
236 243 255
236 243 255
236 243 255
236 243 255
236 243 255
236 243 255
236 244 255
236 244 255
236 244 255
236 244 255
236 244 255
236 244 255
236 244 255
236 244 255
236 244 255
236 244 255
236 244 255
236 244 255
237 244 255
237 244 255
237 244 255
237 244 255
237 244 255
237 244 255
237 244 255
237 244 255
237 244 255
237 244 255
237 244 255
237 244 255
237 244 255
237 244 255
237 244 255
237 244 255
237 244 255
237 244 255
237 244 255
237 244 255
238 244 255
238 245 255
238 245 255
238 245 255
238 245 255
238 245 255
238 245 255
238 245 255
238 245 255
238 245 255
238 245 255
238 245 255
238 245 255
238 245 255
238 245 255
238 245 255
238 245 255
238 245 255
238 245 255
238 245 255
238 245 255
238 245 255
239 245 255
239 245 255
239 245 255
239 245 255
239 245 255
239 245 255
239 245 255
239 245 255
239 245 255
239 245 255
239 245 255
239 245 255
239 245 255
239 245 255
239 245 255
239 245 255
211 230 255
211 230 255
211 230 255
211 230 255
211 230 255
211 230 255
211 230 255
212 230 255
212 230 255
212 230 255
212 230 255
212 230 255
212 230 255
212 230 255
212 230 255
212 230 255
212 230 255
212 230 255
212 230 255
212 230 255
212 230 255
212 230 255
212 230 255
212 230 255
213 230 255
213 230 255
213 230 255
213 230 255
213 230 255
213 231 255
213 231 255
213 231 255
213 231 255
213 231 255
213 231 255
213 231 255
213 231 255
213 231 255
213 231 255
214 231 255
214 231 255
214 231 255
214 231 255
214 231 255
214 231 255
214 231 255
214 231 255
214 231 255
214 231 255
214 231 255
214 231 255
214 231 255
214 231 255
214 231 255
215 231 255
215 231 255
215 232 255
215 232 255
215 232 255
215 232 255
215 232 255
215 232 255
215 232 255
215 232 255
215 232 255
215 232 255
215 232 255
215 232 255
216 232 255
216 232 255
216 232 255
216 232 255
216 232 255
216 232 255
216 232 255
216 232 255
216 232 255
216 232 255
216 232 255
216 232 255
216 232 255
217 233 255
217 233 255
217 233 255
217 233 255
217 233 255
217 233 255
217 233 255
217 233 255
217 233 255
217 233 255
217 233 255
217 233 255
217 233 255
218 233 255
218 233 255
218 233 255
218 233 255
218 233 255
218 233 255
218 233 255
218 233 255
218 233 255
218 233 255
218 234 255
218 234 255
218 234 255
219 234 255
219 234 255
219 234 255
219 234 255
219 234 255
219 234 255
219 234 255
219 234 255
219 234 255
219 234 255
219 234 255
219 234 255
220 234 255
220 234 255
220 234 255
220 234 255
220 234 255
220 234 255
220 234 255
220 235 255
220 235 255
220 235 255
220 235 255
220 235 255
221 235 255
221 235 255
221 235 255
221 235 255
221 235 255
221 235 255
221 235 255
221 235 255
221 235 255
221 235 255
221 235 255
221 235 255
222 235 255
222 235 255
222 235 255
222 235 255
222 236 255
222 236 255
222 236 255
222 236 255
222 236 255
222 236 255
222 236 255
222 236 255
223 236 255
223 236 255
223 236 255
223 236 255
223 236 255
223 236 255
223 236 255
223 236 255
220 235 253
186 221 237
178 218 232
162 213 224
158 211 223
156 211 223
143 206 216
134 204 213
144 206 218
138 205 215
157 211 222
153 210 220
154 210 222
141 206 217
113 198 207
88 192 200
83 191 199
87 192 201
75 190 197
82 191 199
79 191 198
90 192 201
84 192 199
91 193 201
92 193 201
94 194 201
118 199 209
140 205 216
158 211 222
144 207 217
145 207 217
151 209 220
139 205 216
134 204 214
128 202 212
140 205 217
199 226 241
226 238 255
227 238 255
227 238 255
227 238 255
227 238 255
227 238 255
227 238 255
227 238 255
227 238 255
227 239 255
227 239 255
227 239 255
227 239 255
228 239 255
228 239 255
228 239 255
228 239 255
228 239 255
228 239 255
228 239 255
228 239 255
228 239 255
228 239 255
228 239 255
228 239 255
229 239 255
229 239 255
229 239 255
229 239 255
229 239 255
229 240 255
229 240 255
229 240 255
229 240 255
229 240 255
229 240 255
229 240 255
230 240 255
230 240 255
230 240 255
230 240 255
230 240 255
230 240 255
230 240 255
230 240 255
230 240 255
230 240 255
230 240 255
230 240 255
230 240 255
231 240 255
231 240 255
231 241 255
231 241 255
231 241 255
231 241 255
231 241 255
231 241 255
231 241 255
231 241 255
231 241 255
231 241 255
231 241 255
232 241 255
232 241 255
232 241 255
232 241 255
232 241 255
232 241 255
232 241 255
232 241 255
232 241 255
232 241 255
232 241 255
232 241 255
232 242 255
232 242 255
233 242 255
233 242 255
233 242 255
233 242 255
233 242 255
233 242 255
233 242 255
233 242 255
233 242 255
233 242 255
233 242 255
233 242 255
233 242 255
233 242 255
234 242 255
234 242 255
234 242 255
234 242 255
234 242 255
234 242 255
234 242 255
234 242 255
234 242 255
234 242 255
234 243 255
234 243 255
234 243 255
234 243 255
234 243 255
235 243 255
235 243 255
235 243 255
235 243 255
235 243 255
235 243 255
235 243 255
235 243 255
235 243 255
235 243 255
235 243 255
235 243 255
235 243 255
235 243 255
235 243 255
235 243 255
235 243 255
236 243 255
236 243 255
236 243 255
236 243 255
236 243 255
236 243 255
236 244 255
236 244 255
236 244 255
236 244 255
236 244 255
236 244 255
236 244 255
236 244 255
236 244 255
236 244 255
236 244 255
236 244 255
237 244 255
237 244 255
237 244 255
237 244 255
237 244 255
237 244 255
237 244 255
237 244 255
237 244 255
237 244 255
237 244 255
237 244 255
237 244 255
237 244 255
237 244 255
237 244 255
237 244 255
237 244 255
237 244 255
238 244 255
238 244 255
238 245 255
238 245 255
238 245 255
238 245 255
238 245 255
238 245 255
238 245 255
238 245 255
238 245 255
238 245 255
238 245 255
238 245 255
238 245 255
238 245 255
238 245 255
238 245 255
238 245 255
238 245 255
238 245 255
238 245 255
239 245 255
239 245 255
239 245 255
239 245 255
239 245 255
239 245 255
239 245 255
239 245 255
239 245 255
239 245 255
239 245 255
239 245 255
239 245 255
239 245 255
239 245 255
239 245 255
239 245 255
239 245 255
211 230 255
211 230 255
211 230 255
211 230 255
211 230 255
211 230 255
212 230 255
212 230 255
212 230 255
212 230 255
212 230 255
212 230 255
212 230 255
212 230 255
212 230 255
212 230 255
212 230 255
212 230 255
212 230 255
212 230 255
212 230 255
212 230 255
212 230 255
213 230 255
213 230 255
213 230 255
213 230 255
213 230 255
213 231 255
213 231 255
213 231 255
213 231 255
213 231 255
213 231 255
213 231 255
213 231 255
213 231 255
213 231 255
214 231 255
214 231 255
214 231 255
214 231 255
214 231 255
214 231 255
214 231 255
214 231 255
214 231 255
214 231 255
214 231 255
214 231 255
214 231 255
214 231 255
214 231 255
215 231 255
215 231 255
215 232 255
215 232 255
215 232 255
215 232 255
215 232 255
215 232 255
215 232 255
215 232 255
215 232 255
215 232 255
215 232 255
215 232 255
216 232 255
216 232 255
216 232 255
216 232 255
216 232 255
216 232 255
216 232 255
216 232 255
216 232 255
216 232 255
216 232 255
216 232 255
216 232 255
217 233 255
217 233 255
217 233 255
217 233 255
217 233 255
217 233 255
217 233 255
217 233 255
217 233 255
217 233 255
217 233 255
217 233 255
217 233 255
218 233 255
218 233 255
218 233 255
218 233 255
218 233 255
218 233 255
218 233 255
218 233 255
218 233 255
218 233 255
218 234 255
218 234 255
218 234 255
219 234 255
219 234 255
219 234 255
219 234 255
219 234 255
219 234 255
219 234 255
219 234 255
219 234 255
219 234 255
219 234 255
219 234 255
220 234 255
220 234 255
220 234 255
220 234 255
220 234 255
220 234 255
220 234 255
220 235 255
220 235 255
220 235 255
220 235 255
220 235 255
221 235 255
221 235 255
221 235 255
221 235 255
221 235 255
221 235 255
221 235 255
221 235 255
221 235 255
221 235 255
221 235 255
221 235 255
222 235 255
222 235 255
222 235 255
222 235 255
222 236 255
222 236 255
222 236 255
222 236 255
222 236 255
222 236 255
222 236 255
222 236 255
223 236 255
223 236 255
223 236 255
223 236 255
223 236 255
223 236 255
223 236 255
223 236 255
223 236 255
203 228 244
177 218 232
177 218 232
172 216 229
165 214 226
164 213 226
157 211 223
146 207 220
135 204 214
137 205 215
146 208 218
133 203 214
98 194 202
91 192 202
88 192 201
77 190 197
91 193 202
82 191 199
82 191 199
89 192 201
83 191 199
91 193 202
78 191 197
81 191 198
88 192 200
90 193 201
82 191 198
86 192 200
89 193 200
114 198 207
132 203 213
135 204 214
132 203 213
140 205 215
124 201 210
124 201 210
118 199 208
176 218 231
224 237 253
227 238 255
227 238 255
227 238 255
227 238 255
227 238 255
227 238 255
227 239 255
227 239 255
227 239 255
227 239 255
228 239 255
228 239 255
228 239 255
228 239 255
228 239 255
228 239 255
228 239 255
228 239 255
228 239 255
228 239 255
228 239 255
228 239 255
229 239 255
229 239 255
229 239 255
229 239 255
229 239 255
229 240 255
229 240 255
229 240 255
229 240 255
229 240 255
229 240 255
229 240 255
230 240 255
230 240 255
230 240 255
230 240 255
230 240 255
230 240 255
230 240 255
230 240 255
230 240 255
230 240 255
230 240 255
230 240 255
230 240 255
231 240 255
231 240 255
231 241 255
231 241 255
231 241 255
231 241 255
231 241 255
231 241 255
231 241 255
231 241 255
231 241 255
231 241 255
231 241 255
232 241 255
232 241 255
232 241 255
232 241 255
232 241 255
232 241 255
232 241 255
232 241 255
232 241 255
232 241 255
232 241 255
232 241 255
232 242 255
232 242 255
233 242 255
233 242 255
233 242 255
233 242 255
233 242 255
233 242 255
233 242 255
233 242 255
233 242 255
233 242 255
233 242 255
233 242 255
233 242 255
233 242 255
234 242 255
234 242 255
234 242 255
234 242 255
234 242 255
234 242 255
234 242 255
234 242 255
234 242 255
234 243 255
234 243 255
234 243 255
234 243 255
234 243 255
234 243 255
235 243 255
235 243 255
235 243 255
235 243 255
235 243 255
235 243 255
235 243 255
235 243 255
235 243 255
235 243 255
235 243 255
235 243 255
235 243 255
235 243 255
235 243 255
235 243 255
235 243 255
236 243 255
236 243 255
236 243 255
236 243 255
236 243 255
236 243 255
236 244 255
236 244 255
236 244 255
236 244 255
236 244 255
236 244 255
236 244 255
236 244 255
236 244 255
236 244 255
236 244 255
237 244 255
237 244 255
237 244 255
237 244 255
237 244 255
237 244 255
237 244 255
237 244 255
237 244 255
237 244 255
237 244 255
237 244 255
237 244 255
237 244 255
237 244 255
237 244 255
237 244 255
237 244 255
237 244 255
237 244 255
238 244 255
238 245 255
238 245 255
238 245 255
238 245 255
238 245 255
238 245 255
238 245 255
238 245 255
238 245 255
238 245 255
238 245 255
238 245 255
238 245 255
238 245 255
238 245 255
238 245 255
238 245 255
238 245 255
238 245 255
238 245 255
238 245 255
239 245 255
239 245 255
239 245 255
239 245 255
239 245 255
239 245 255
239 245 255
239 245 255
239 245 255
239 245 255
239 245 255
239 245 255
239 245 255
239 245 255
239 245 255
239 245 255
239 245 255
239 245 255
239 245 255
211 230 255
211 230 255
211 230 255
211 230 255
211 230 255
212 230 255
212 230 255
212 230 255
212 230 255
212 230 255
212 230 255
212 230 255
212 230 255
212 230 255
212 230 255
212 230 255
212 230 255
212 230 255
212 230 255
212 230 255
212 230 255
212 230 255
213 230 255
213 230 255
213 230 255
213 230 255
213 230 255
213 231 255
213 231 255
213 231 255
213 231 255
213 231 255
213 231 255
213 231 255
213 231 255
213 231 255
213 231 255
214 231 255
214 231 255
214 231 255
214 231 255
214 231 255
214 231 255
214 231 255
214 231 255
214 231 255
214 231 255
214 231 255
214 231 255
214 231 255
214 231 255
214 231 255
215 231 255
215 231 255
215 232 255
215 232 255
215 232 255
215 232 255
215 232 255
215 232 255
215 232 255
215 232 255
215 232 255
215 232 255
215 232 255
215 232 255
216 232 255
216 232 255
216 232 255
216 232 255
216 232 255
216 232 255
216 232 255
216 232 255
216 232 255
216 232 255
216 232 255
216 232 255
216 232 255
217 233 255
217 233 255
217 233 255
217 233 255
217 233 255
217 233 255
217 233 255
217 233 255
217 233 255
217 233 255
217 233 255
217 233 255
217 233 255
218 233 255
218 233 255
218 233 255
218 233 255
218 233 255
218 233 255
218 233 255
218 233 255
218 233 255
218 233 255
218 234 255
218 234 255
218 234 255
219 234 255
219 234 255
219 234 255
219 234 255
219 234 255
219 234 255
219 234 255
219 234 255
219 234 255
219 234 255
219 234 255
219 234 255
220 234 255
220 234 255
220 234 255
220 234 255
220 234 255
220 234 255
220 234 255
220 235 255
220 235 255
220 235 255
220 235 255
220 235 255
221 235 255
221 235 255
221 235 255
221 235 255
221 235 255
221 235 255
221 235 255
221 235 255
221 235 255
221 235 255
221 235 255
221 235 255
222 235 255
222 235 255
222 235 255
222 235 255
222 236 255
222 236 255
222 236 255
222 236 255
222 236 255
222 236 255
222 236 255
222 236 255
223 236 255
223 236 255
223 236 255
223 236 255
223 236 255
223 236 255
223 236 255
223 236 255
223 236 255
222 236 254
172 216 229
177 218 232
179 218 233
175 217 230
172 216 229
167 214 227
154 210 222
151 209 220
143 206 218
133 204 213
100 195 203
88 192 201
79 190 198
74 190 197
80 191 199
88 192 201
80 191 198
75 190 197
83 191 199
86 192 200
89 192 201
85 192 200
85 192 200
89 192 201
82 191 199
83 191 199
85 192 199
91 193 201
86 192 199
84 192 199
88 192 200
89 193 200
98 195 201
129 202 211
149 208 219
136 204 215
125 201 211
129 202 212
148 208 219
216 234 250
227 238 255
227 238 255
227 238 255
227 238 255
227 239 255
227 239 255
227 239 255
227 239 255
228 239 255
228 239 255
228 239 255
228 239 255
228 239 255
228 239 255
228 239 255
228 239 255
228 239 255
228 239 255
228 239 255
228 239 255
229 239 255
229 239 255
229 239 255
229 239 255
229 239 255
229 240 255
229 240 255
229 240 255
229 240 255
229 240 255
229 240 255
229 240 255
230 240 255
230 240 255
230 240 255
230 240 255
230 240 255
230 240 255
230 240 255
230 240 255
230 240 255
230 240 255
230 240 255
230 240 255
230 240 255
231 240 255
231 240 255
231 241 255
231 241 255
231 241 255
231 241 255
231 241 255
231 241 255
231 241 255
231 241 255
231 241 255
231 241 255
231 241 255
232 241 255
232 241 255
232 241 255
232 241 255
232 241 255
232 241 255
232 241 255
232 241 255
232 241 255
232 241 255
232 241 255
232 241 255
232 242 255
233 242 255
233 242 255
233 242 255
233 242 255
233 242 255
233 242 255
233 242 255
233 242 255
233 242 255
233 242 255
233 242 255
233 242 255
233 242 255
233 242 255
233 242 255
234 242 255
234 242 255
234 242 255
234 242 255
234 242 255
234 242 255
234 242 255
234 242 255
234 242 255
234 243 255
234 243 255
234 243 255
234 243 255
234 243 255
234 243 255
235 243 255
235 243 255
235 243 255
235 243 255
235 243 255
235 243 255
235 243 255
235 243 255
235 243 255
235 243 255
235 243 255
235 243 255
235 243 255
235 243 255
235 243 255
235 243 255
236 243 255
236 243 255
236 243 255
236 243 255
236 243 255
236 243 255
236 244 255
236 244 255
236 244 255
236 244 255
236 244 255
236 244 255
236 244 255
236 244 255
236 244 255
236 244 255
236 244 255
236 244 255
237 244 255
237 244 255
237 244 255
237 244 255
237 244 255
237 244 255
237 244 255
237 244 255
237 244 255
237 244 255
237 244 255
237 244 255
237 244 255
237 244 255
237 244 255
237 244 255
237 244 255
237 244 255
237 244 255
238 244 255
238 244 255
238 245 255
238 245 255
238 245 255
238 245 255
238 245 255
238 245 255
238 245 255
238 245 255
238 245 255
238 245 255
238 245 255
238 245 255
238 245 255
238 245 255
238 245 255
238 245 255
238 245 255
238 245 255
238 245 255
238 245 255
239 245 255
239 245 255
239 245 255
239 245 255
239 245 255
239 245 255
239 245 255
239 245 255
239 245 255
239 245 255
239 245 255
239 245 255
239 245 255
239 245 255
239 245 255
239 245 255
239 245 255
239 245 255
239 245 255
239 246 255
239 246 255
211 230 255
211 230 255
211 230 255
211 230 255
212 230 255
212 230 255
212 230 255
212 230 255
212 230 255
212 230 255
212 230 255
212 230 255
212 230 255
212 230 255
212 230 255
212 230 255
212 230 255
212 230 255
212 230 255
212 230 255
212 230 255
213 230 255
213 230 255
213 230 255
213 230 255
213 230 255
213 231 255
213 231 255
213 231 255
213 231 255
213 231 255
213 231 255
213 231 255
213 231 255
213 231 255
213 231 255
214 231 255
214 231 255
214 231 255
214 231 255
214 231 255
214 231 255
214 231 255
214 231 255
214 231 255
214 231 255
214 231 255
214 231 255
214 231 255
214 231 255
214 231 255
215 231 255
215 231 255
215 232 255
215 232 255
215 232 255
215 232 255
215 232 255
215 232 255
215 232 255
215 232 255
215 232 255
215 232 255
215 232 255
215 232 255
216 232 255
216 232 255
216 232 255
216 232 255
216 232 255
216 232 255
216 232 255
216 232 255
216 232 255
216 232 255
216 232 255
216 232 255
216 232 255
216 233 255
217 233 255
217 233 255
217 233 255
217 233 255
217 233 255
217 233 255
217 233 255
217 233 255
217 233 255
217 233 255
217 233 255
217 233 255
217 233 255
218 233 255
218 233 255
218 233 255
218 233 255
218 233 255
218 233 255
218 233 255
218 233 255
218 233 255
218 234 255
218 234 255
218 234 255
219 234 255
219 234 255
219 234 255
219 234 255
219 234 255
219 234 255
219 234 255
219 234 255
219 234 255
219 234 255
219 234 255
219 234 255
220 234 255
220 234 255
220 234 255
220 234 255
220 234 255
220 234 255
220 234 255
220 235 255
220 235 255
220 235 255
220 235 255
220 235 255
221 235 255
221 235 255
221 235 255
221 235 255
221 235 255
221 235 255
221 235 255
221 235 255
221 235 255
221 235 255
221 235 255
221 235 255
222 235 255
222 235 255
222 235 255
222 235 255
222 236 255
222 236 255
222 236 255
222 236 255
222 236 255
222 236 255
222 236 255
222 236 255
223 236 255
223 236 255
223 236 255
223 236 255
223 236 255
223 236 255
223 236 255
223 236 255
223 236 255
223 236 255
209 230 247
177 218 232
177 218 231
171 215 229
177 218 232
181 219 233
175 217 231
170 216 228
164 213 226
144 207 218
89 192 201
84 191 200
77 190 198
81 191 199
83 191 200
78 190 198
85 192 200
80 191 198
87 192 201
81 191 199
80 191 198
93 193 203
90 192 202
78 190 197
93 193 202
89 192 201
77 190 197
83 191 199
80 191 198
76 190 197
82 191 198
82 191 198
86 192 199
70 190 194
71 190 195
96 194 202
114 198 207
137 204 215
120 200 209
125 201 211
131 203 213
192 224 238
227 238 255
227 238 255
227 239 255
227 239 255
227 239 255
227 239 255
228 239 255
228 239 255
228 239 255
228 239 255
228 239 255
228 239 255
228 239 255
228 239 255
228 239 255
228 239 255
228 239 255
228 239 255
229 239 255
229 239 255
229 239 255
229 239 255
229 239 255
229 240 255
229 240 255
229 240 255
229 240 255
229 240 255
229 240 255
229 240 255
230 240 255
230 240 255
230 240 255
230 240 255
230 240 255
230 240 255
230 240 255
230 240 255
230 240 255
230 240 255
230 240 255
230 240 255
230 240 255
231 240 255
231 240 255
231 241 255
231 241 255
231 241 255
231 241 255
231 241 255
231 241 255
231 241 255
231 241 255
231 241 255
231 241 255
231 241 255
232 241 255
232 241 255
232 241 255
232 241 255
232 241 255
232 241 255
232 241 255
232 241 255
232 241 255
232 241 255
232 241 255
232 241 255
232 242 255
233 242 255
233 242 255
233 242 255
233 242 255
233 242 255
233 242 255
233 242 255
233 242 255
233 242 255
233 242 255
233 242 255
233 242 255
233 242 255
233 242 255
233 242 255
234 242 255
234 242 255
234 242 255
234 242 255
234 242 255
234 242 255
234 242 255
234 242 255
234 242 255
234 243 255
234 243 255
234 243 255
234 243 255
234 243 255
234 243 255
235 243 255
235 243 255
235 243 255
235 243 255
235 243 255
235 243 255
235 243 255
235 243 255
235 243 255
235 243 255
235 243 255
235 243 255
235 243 255
235 243 255
235 243 255
235 243 255
236 243 255
236 243 255
236 243 255
236 243 255
236 243 255
236 243 255
236 244 255
236 244 255
236 244 255
236 244 255
236 244 255
236 244 255
236 244 255
236 244 255
236 244 255
236 244 255
236 244 255
237 244 255
237 244 255
237 244 255
237 244 255
237 244 255
237 244 255
237 244 255
237 244 255
237 244 255
237 244 255
237 244 255
237 244 255
237 244 255
237 244 255
237 244 255
237 244 255
237 244 255
237 244 255
237 244 255
237 244 255
238 244 255
238 245 255
238 245 255
238 245 255
238 245 255
238 245 255
238 245 255
238 245 255
238 245 255
238 245 255
238 245 255
238 245 255
238 245 255
238 245 255
238 245 255
238 245 255
238 245 255
238 245 255
238 245 255
238 245 255
238 245 255
239 245 255
239 245 255
239 245 255
239 245 255
239 245 255
239 245 255
239 245 255
239 245 255
239 245 255
239 245 255
239 245 255
239 245 255
239 245 255
239 245 255
239 245 255
239 245 255
239 245 255
239 245 255
239 245 255
239 246 255
239 246 255
239 246 255
239 246 255
211 230 255
211 230 255
211 230 255
212 230 255
212 230 255
212 230 255
212 230 255
212 230 255
212 230 255
212 230 255
212 230 255
212 230 255
212 230 255
212 230 255
212 230 255
212 230 255
212 230 255
212 230 255
212 230 255
212 230 255
213 230 255
213 230 255
213 230 255
213 230 255
213 230 255
213 231 255
213 231 255
213 231 255
213 231 255
213 231 255
213 231 255
213 231 255
213 231 255
213 231 255
213 231 255
214 231 255
214 231 255
214 231 255
214 231 255
214 231 255
214 231 255
214 231 255
214 231 255
214 231 255
214 231 255
214 231 255
214 231 255
214 231 255
214 231 255
214 231 255
215 231 255
215 231 255
215 232 255
215 232 255
215 232 255
215 232 255
215 232 255
215 232 255
215 232 255
215 232 255
215 232 255
215 232 255
215 232 255
215 232 255
216 232 255
216 232 255
216 232 255
216 232 255
216 232 255
216 232 255
216 232 255
216 232 255
216 232 255
216 232 255
216 232 255
216 232 255
216 232 255
216 233 255
217 233 255
217 233 255
217 233 255
217 233 255
217 233 255
217 233 255
217 233 255
217 233 255
217 233 255
217 233 255
217 233 255
217 233 255
217 233 255
218 233 255
218 233 255
218 233 255
218 233 255
218 233 255
218 233 255
218 233 255
218 233 255
218 233 255
218 234 255
218 234 255
218 234 255
219 234 255
219 234 255
219 234 255
219 234 255
219 234 255
219 234 255
219 234 255
219 234 255
219 234 255
219 234 255
219 234 255
219 234 255
219 234 255
220 234 255
220 234 255
220 234 255
220 234 255
220 234 255
220 234 255
220 235 255
220 235 255
220 235 255
220 235 255
220 235 255
220 235 255
221 235 255
221 235 255
221 235 255
221 235 255
221 235 255
221 235 255
221 235 255
221 235 255
221 235 255
221 235 255
221 235 255
222 235 255
222 235 255
222 235 255
222 235 255
222 236 255
222 236 255
222 236 255
222 236 255
222 236 255
222 236 255
222 236 255
222 236 255
223 236 255
223 236 255
223 236 255
223 236 255
223 236 255
223 236 255
223 236 255
223 236 255
223 236 255
223 236 255
223 236 255
188 222 237
169 215 229
170 215 229
181 219 234
173 216 230
180 219 233
173 216 230
166 214 227
137 205 215
82 191 199
82 191 200
80 191 199
88 192 202
77 190 198
83 191 200
74 190 197
85 192 200
85 192 200
79 191 198
71 189 195
82 191 199
85 192 200
76 190 197
89 192 201
89 192 201
80 191 198
78 191 197
81 191 198
90 192 201
85 192 199
80 191 198
84 192 199
83 192 199
86 192 199
85 192 199
90 193 200
80 191 197
92 193 201
103 196 203
124 201 210
121 200 209
120 200 209
171 216 229
223 237 252
227 239 255
227 239 255
227 239 255
228 239 255
228 239 255
228 239 255
228 239 255
228 239 255
228 239 255
228 239 255
228 239 255
228 239 255
228 239 255
228 239 255
228 239 255
229 239 255
229 239 255
229 239 255
229 239 255
229 239 255
229 240 255
229 240 255
229 240 255
229 240 255
229 240 255
229 240 255
229 240 255
230 240 255
230 240 255
230 240 255
230 240 255
230 240 255
230 240 255
230 240 255
230 240 255
230 240 255
230 240 255
230 240 255
230 240 255
230 240 255
231 240 255
231 240 255
231 241 255
231 241 255
231 241 255
231 241 255
231 241 255
231 241 255
231 241 255
231 241 255
231 241 255
231 241 255
231 241 255
232 241 255
232 241 255
232 241 255
232 241 255
232 241 255
232 241 255
232 241 255
232 241 255
232 241 255
232 241 255
232 241 255
232 241 255
232 242 255
233 242 255
233 242 255
233 242 255
233 242 255
233 242 255
233 242 255
233 242 255
233 242 255
233 242 255
233 242 255
233 242 255
233 242 255
233 242 255
233 242 255
234 242 255
234 242 255
234 242 255
234 242 255
234 242 255
234 242 255
234 242 255
234 242 255
234 242 255
234 242 255
234 243 255
234 243 255
234 243 255
234 243 255
234 243 255
235 243 255
235 243 255
235 243 255
235 243 255
235 243 255
235 243 255
235 243 255
235 243 255
235 243 255
235 243 255
235 243 255
235 243 255
235 243 255
235 243 255
235 243 255
235 243 255
235 243 255
236 243 255
236 243 255
236 243 255
236 243 255
236 243 255
236 243 255
236 244 255
236 244 255
236 244 255
236 244 255
236 244 255
236 244 255
236 244 255
236 244 255
236 244 255
236 244 255
236 244 255
237 244 255
237 244 255
237 244 255
237 244 255
237 244 255
237 244 255
237 244 255
237 244 255
237 244 255
237 244 255
237 244 255
237 244 255
237 244 255
237 244 255
237 244 255
237 244 255
237 244 255
237 244 255
237 244 255
238 244 255
238 244 255
238 245 255
238 245 255
238 245 255
238 245 255
238 245 255
238 245 255
238 245 255
238 245 255
238 245 255
238 245 255
238 245 255
238 245 255
238 245 255
238 245 255
238 245 255
238 245 255
238 245 255
238 245 255
238 245 255
238 245 255
239 245 255
239 245 255
239 245 255
239 245 255
239 245 255
239 245 255
239 245 255
239 245 255
239 245 255
239 245 255
239 245 255
239 245 255
239 245 255
239 245 255
239 245 255
239 245 255
239 245 255
239 245 255
239 245 255
239 246 255
239 246 255
239 246 255
239 246 255
239 246 255
211 230 255
211 230 255
212 230 255
212 230 255
212 230 255
212 230 255
212 230 255
212 230 255
212 230 255
212 230 255
212 230 255
212 230 255
212 230 255
212 230 255
212 230 255
212 230 255
212 230 255
212 230 255
212 230 255
213 230 255
213 230 255
213 230 255
213 230 255
213 230 255
213 231 255
213 231 255
213 231 255
213 231 255
213 231 255
213 231 255
213 231 255
213 231 255
213 231 255
213 231 255
214 231 255
214 231 255
214 231 255
214 231 255
214 231 255
214 231 255
214 231 255
214 231 255
214 231 255
214 231 255
214 231 255
214 231 255
214 231 255
214 231 255
214 231 255
215 231 255
215 231 255
215 232 255
215 232 255
215 232 255
215 232 255
215 232 255
215 232 255
215 232 255
215 232 255
215 232 255
215 232 255
215 232 255
215 232 255
216 232 255
216 232 255
216 232 255
216 232 255
216 232 255
216 232 255
216 232 255
216 232 255
216 232 255
216 232 255
216 232 255
216 232 255
216 232 255
216 233 255
217 233 255
217 233 255
217 233 255
217 233 255
217 233 255
217 233 255
217 233 255
217 233 255
217 233 255
217 233 255
217 233 255
217 233 255
217 233 255
218 233 255
218 233 255
218 233 255
218 233 255
218 233 255
218 233 255
218 233 255
218 233 255
218 233 255
218 234 255
218 234 255
218 234 255
219 234 255
219 234 255
219 234 255
219 234 255
219 234 255
219 234 255
219 234 255
219 234 255
219 234 255
219 234 255
219 234 255
219 234 255
219 234 255
220 234 255
220 234 255
220 234 255
220 234 255
220 234 255
220 234 255
220 235 255
220 235 255
220 235 255
220 235 255
220 235 255
220 235 255
221 235 255
221 235 255
221 235 255
221 235 255
221 235 255
221 235 255
221 235 255
221 235 255
221 235 255
221 235 255
221 235 255
221 235 255
222 235 255
222 235 255
222 235 255
222 236 255
222 236 255
222 236 255
222 236 255
222 236 255
222 236 255
222 236 255
222 236 255
223 236 255
223 236 255
223 236 255
223 236 255
223 236 255
223 236 255
223 236 255
223 236 255
223 236 255
223 236 255
223 236 255
219 234 252
144 206 219
164 213 228
174 216 232
173 216 230
174 216 231
165 214 226
161 212 225
155 210 223
87 192 201
89 192 202
84 191 200
76 190 198
80 191 199
83 191 200
82 191 199
76 190 197
76 190 197
80 191 199
73 190 196
77 190 197
73 190 196
84 191 200
85 192 200
86 192 200
86 192 200
83 191 199
89 192 201
83 191 199
76 190 197
86 192 200
82 191 198
76 190 197
86 192 200
75 190 196
80 191 198
74 190 195
83 192 198
79 191 197
87 192 199
80 191 197
94 194 200
116 199 208
116 199 207
144 207 218
211 231 246
227 239 255
228 239 255
228 239 255
228 239 255
228 239 255
228 239 255
228 239 255
228 239 255
228 239 255
228 239 255
228 239 255
228 239 255
228 239 255
229 239 255
229 239 255
229 239 255
229 239 255
229 239 255
229 240 255
229 240 255
229 240 255
229 240 255
229 240 255
229 240 255
229 240 255
230 240 255
230 240 255
230 240 255
230 240 255
230 240 255
230 240 255
230 240 255
230 240 255
230 240 255
230 240 255
230 240 255
230 240 255
230 240 255
231 240 255
231 241 255
231 241 255
231 241 255
231 241 255
231 241 255
231 241 255
231 241 255
231 241 255
231 241 255
231 241 255
231 241 255
231 241 255
232 241 255
232 241 255
232 241 255
232 241 255
232 241 255
232 241 255
232 241 255
232 241 255
232 241 255
232 241 255
232 241 255
232 241 255
232 242 255
233 242 255
233 242 255
233 242 255
233 242 255
233 242 255
233 242 255
233 242 255
233 242 255
233 242 255
233 242 255
233 242 255
233 242 255
233 242 255
233 242 255
234 242 255
234 242 255
234 242 255
234 242 255
234 242 255
234 242 255
234 242 255
234 242 255
234 242 255
234 243 255
234 243 255
234 243 255
234 243 255
234 243 255
234 243 255
235 243 255
235 243 255
235 243 255
235 243 255
235 243 255
235 243 255
235 243 255
235 243 255
235 243 255
235 243 255
235 243 255
235 243 255
235 243 255
235 243 255
235 243 255
235 243 255
236 243 255
236 243 255
236 243 255
236 243 255
236 243 255
236 243 255
236 244 255
236 244 255
236 244 255
236 244 255
236 244 255
236 244 255
236 244 255
236 244 255
236 244 255
236 244 255
236 244 255
236 244 255
237 244 255
237 244 255
237 244 255
237 244 255
237 244 255
237 244 255
237 244 255
237 244 255
237 244 255
237 244 255
237 244 255
237 244 255
237 244 255
237 244 255
237 244 255
237 244 255
237 244 255
237 244 255
237 244 255
238 244 255
238 245 255
238 245 255
238 245 255
238 245 255
238 245 255
238 245 255
238 245 255
238 245 255
238 245 255
238 245 255
238 245 255
238 245 255
238 245 255
238 245 255
238 245 255
238 245 255
238 245 255
238 245 255
238 245 255
238 245 255
239 245 255
239 245 255
239 245 255
239 245 255
239 245 255
239 245 255
239 245 255
239 245 255
239 245 255
239 245 255
239 245 255
239 245 255
239 245 255
239 245 255
239 245 255
239 245 255
239 245 255
239 245 255
239 245 255
239 246 255
239 246 255
239 246 255
239 246 255
239 246 255
240 246 255
240 246 255
211 230 255
212 230 255
212 230 255
212 230 255
212 230 255
212 230 255
212 230 255
212 230 255
212 230 255
212 230 255
212 230 255
212 230 255
212 230 255
212 230 255
212 230 255
212 230 255
212 230 255
212 230 255
213 230 255
213 230 255
213 230 255
213 230 255
213 230 255
213 231 255
213 231 255
213 231 255
213 231 255
213 231 255
213 231 255
213 231 255
213 231 255
213 231 255
213 231 255
214 231 255
214 231 255
214 231 255
214 231 255
214 231 255
214 231 255
214 231 255
214 231 255
214 231 255
214 231 255
214 231 255
214 231 255
214 231 255
214 231 255
214 231 255
215 231 255
215 231 255
215 231 255
215 232 255
215 232 255
215 232 255
215 232 255
215 232 255
215 232 255
215 232 255
215 232 255
215 232 255
215 232 255
215 232 255
216 232 255
216 232 255
216 232 255
216 232 255
216 232 255
216 232 255
216 232 255
216 232 255
216 232 255
216 232 255
216 232 255
216 232 255
216 232 255
216 233 255
217 233 255
217 233 255
217 233 255
217 233 255
217 233 255
217 233 255
217 233 255
217 233 255
217 233 255
217 233 255
217 233 255
217 233 255
217 233 255
218 233 255
218 233 255
218 233 255
218 233 255
218 233 255
218 233 255
218 233 255
218 233 255
218 233 255
218 233 255
218 234 255
218 234 255
218 234 255
219 234 255
219 234 255
219 234 255
219 234 255
219 234 255
219 234 255
219 234 255
219 234 255
219 234 255
219 234 255
219 234 255
219 234 255
220 234 255
220 234 255
220 234 255
220 234 255
220 234 255
220 234 255
220 234 255
220 235 255
220 235 255
220 235 255
220 235 255
220 235 255
221 235 255
221 235 255
221 235 255
221 235 255
221 235 255
221 235 255
221 235 255
221 235 255
221 235 255
221 235 255
221 235 255
221 235 255
222 235 255
222 235 255
222 235 255
222 235 255
222 236 255
222 236 255
222 236 255
222 236 255
222 236 255
222 236 255
222 236 255
223 236 255
223 236 255
223 236 255
223 236 255
223 236 255
223 236 255
223 236 255
223 236 255
223 236 255
223 236 255
223 236 255
223 236 255
206 229 246
147 207 221
147 207 220
164 213 227
170 215 230
173 216 231
156 210 222
146 207 220
91 193 201
85 191 201
80 191 199
89 192 202
84 191 200
81 191 199
79 191 199
84 191 200
85 192 201
76 190 197
81 191 199
79 191 198
91 193 203
76 190 197
81 191 199
84 191 200
86 192 200
81 191 199
83 191 199
84 191 199
75 190 197
80 191 198
85 192 200
78 191 197
83 191 199
74 190 196
75 190 196
78 191 197
81 191 198
89 193 200
87 192 200
82 191 198
75 190 195
85 192 199
86 192 199
96 194 202
98 195 202
125 201 211
179 219 231
227 238 254
228 239 255
228 239 255
228 239 255
228 239 255
228 239 255
228 239 255
228 239 255
228 239 255
228 239 255
228 239 255
229 239 255
229 239 255
229 239 255
229 239 255
229 239 255
229 240 255
229 240 255
229 240 255
229 240 255
229 240 255
229 240 255
229 240 255
230 240 255
230 240 255
230 240 255
230 240 255
230 240 255
230 240 255
230 240 255
230 240 255
230 240 255
230 240 255
230 240 255
230 240 255
230 240 255
231 240 255
231 241 255
231 241 255
231 241 255
231 241 255
231 241 255
231 241 255
231 241 255
231 241 255
231 241 255
231 241 255
231 241 255
232 241 255
232 241 255
232 241 255
232 241 255
232 241 255
232 241 255
232 241 255
232 241 255
232 241 255
232 241 255
232 241 255
232 241 255
232 242 255
232 242 255
233 242 255
233 242 255
233 242 255
233 242 255
233 242 255
233 242 255
233 242 255
233 242 255
233 242 255
233 242 255
233 242 255
233 242 255
233 242 255
233 242 255
234 242 255
234 242 255
234 242 255
234 242 255
234 242 255
234 242 255
234 242 255
234 242 255
234 242 255
234 243 255
234 243 255
234 243 255
234 243 255
234 243 255
234 243 255
235 243 255
235 243 255
235 243 255
235 243 255
235 243 255
235 243 255
235 243 255
235 243 255
235 243 255
235 243 255
235 243 255
235 243 255
235 243 255
235 243 255
235 243 255
235 243 255
236 243 255
236 243 255
236 243 255
236 243 255
236 243 255
236 243 255
236 244 255
236 244 255
236 244 255
236 244 255
236 244 255
236 244 255
236 244 255
236 244 255
236 244 255
236 244 255
236 244 255
237 244 255
237 244 255
237 244 255
237 244 255
237 244 255
237 244 255
237 244 255
237 244 255
237 244 255
237 244 255
237 244 255
237 244 255
237 244 255
237 244 255
237 244 255
237 244 255
237 244 255
237 244 255
237 244 255
238 244 255
238 244 255
238 245 255
238 245 255
238 245 255
238 245 255
238 245 255
238 245 255
238 245 255
238 245 255
238 245 255
238 245 255
238 245 255
238 245 255
238 245 255
238 245 255
238 245 255
238 245 255
238 245 255
238 245 255
238 245 255
239 245 255
239 245 255
239 245 255
239 245 255
239 245 255
239 245 255
239 245 255
239 245 255
239 245 255
239 245 255
239 245 255
239 245 255
239 245 255
239 245 255
239 245 255
239 245 255
239 245 255
239 245 255
239 245 255
239 246 255
239 246 255
239 246 255
239 246 255
239 246 255
240 246 255
240 246 255
240 246 255
240 246 255
212 230 255
212 230 255
212 230 255
212 230 255
212 230 255
212 230 255
212 230 255
212 230 255
212 230 255
212 230 255
212 230 255
212 230 255
212 230 255
212 230 255
212 230 255
212 230 255
212 230 255
213 230 255
213 230 255
213 230 255
213 230 255
213 230 255
213 231 255
213 231 255
213 231 255
213 231 255
213 231 255
213 231 255
213 231 255
213 231 255
213 231 255
213 231 255
214 231 255
214 231 255
214 231 255
214 231 255
214 231 255
214 231 255
214 231 255
214 231 255
214 231 255
214 231 255
214 231 255
214 231 255
214 231 255
214 231 255
214 231 255
215 231 255
215 231 255
215 231 255
215 232 255
215 232 255
215 232 255
215 232 255
215 232 255
215 232 255
215 232 255
215 232 255
215 232 255
215 232 255
215 232 255
216 232 255
216 232 255
216 232 255
216 232 255
216 232 255
216 232 255
216 232 255
216 232 255
216 232 255
216 232 255
216 232 255
216 232 255
216 232 255
216 232 255
217 233 255
217 233 255
217 233 255
217 233 255
217 233 255
217 233 255
217 233 255
217 233 255
217 233 255
217 233 255
217 233 255
217 233 255
217 233 255
218 233 255
218 233 255
218 233 255
218 233 255
218 233 255
218 233 255
218 233 255
218 233 255
218 233 255
218 233 255
218 234 255
218 234 255
218 234 255
219 234 255
219 234 255
219 234 255
219 234 255
219 234 255
219 234 255
219 234 255
219 234 255
219 234 255
219 234 255
219 234 255
219 234 255
220 234 255
220 234 255
220 234 255
220 234 255
220 234 255
220 234 255
220 234 255
220 235 255
220 235 255
220 235 255
220 235 255
220 235 255
221 235 255
221 235 255
221 235 255
221 235 255
221 235 255
221 235 255
221 235 255
221 235 255
221 235 255
221 235 255
221 235 255
221 235 255
222 235 255
222 235 255
222 235 255
222 235 255
222 236 255
222 236 255
222 236 255
222 236 255
222 236 255
222 236 255
222 236 255
223 236 255
223 236 255
223 236 255
223 236 255
223 236 255
223 236 255
223 236 255
223 236 255
223 236 255
223 236 255
223 236 255
223 236 255
224 236 255
200 226 243
152 209 222
143 206 220
148 207 220
158 211 224
168 214 228
151 208 222
121 200 211
73 190 197
77 190 198
82 191 200
77 190 198
85 191 201
78 190 198
92 192 203
77 190 198
76 190 197
83 191 200
91 192 203
81 191 199
78 190 198
79 191 198
78 190 198
86 192 200
81 191 199
79 191 198
78 190 198
75 190 197
85 192 200
86 192 200
75 190 197
80 191 198
81 191 198
86 192 200
81 191 198
78 191 197
86 192 200
90 193 201
93 193 202
81 191 198
82 191 198
71 190 194
87 192 199
89 193 200
83 192 198
82 191 197
91 193 200
148 208 218
220 235 251
228 239 255
228 239 255
228 239 255
228 239 255
228 239 255
228 239 255
228 239 255
228 239 255
229 239 255
229 239 255
229 239 255
229 239 255
229 239 255
229 240 255
229 240 255
229 240 255
229 240 255
229 240 255
229 240 255
229 240 255
230 240 255
230 240 255
230 240 255
230 240 255
230 240 255
230 240 255
230 240 255
230 240 255
230 240 255
230 240 255
230 240 255
230 240 255
230 240 255
231 240 255
231 241 255
231 241 255
231 241 255
231 241 255
231 241 255
231 241 255
231 241 255
231 241 255
231 241 255
231 241 255
231 241 255
232 241 255
232 241 255
232 241 255
232 241 255
232 241 255
232 241 255
232 241 255
232 241 255
232 241 255
232 241 255
232 241 255
232 241 255
232 242 255
232 242 255
233 242 255
233 242 255
233 242 255
233 242 255
233 242 255
233 242 255
233 242 255
233 242 255
233 242 255
233 242 255
233 242 255
233 242 255
233 242 255
233 242 255
234 242 255
234 242 255
234 242 255
234 242 255
234 242 255
234 242 255
234 242 255
234 242 255
234 242 255
234 243 255
234 243 255
234 243 255
234 243 255
234 243 255
234 243 255
235 243 255
235 243 255
235 243 255
235 243 255
235 243 255
235 243 255
235 243 255
235 243 255
235 243 255
235 243 255
235 243 255
235 243 255
235 243 255
235 243 255
235 243 255
235 243 255
236 243 255
236 243 255
236 243 255
236 243 255
236 243 255
236 243 255
236 244 255
236 244 255
236 244 255
236 244 255
236 244 255
236 244 255
236 244 255
236 244 255
236 244 255
236 244 255
236 244 255
237 244 255
237 244 255
237 244 255
237 244 255
237 244 255
237 244 255
237 244 255
237 244 255
237 244 255
237 244 255
237 244 255
237 244 255
237 244 255
237 244 255
237 244 255
237 244 255
237 244 255
237 244 255
237 244 255
238 244 255
238 245 255
238 245 255
238 245 255
238 245 255
238 245 255
238 245 255
238 245 255
238 245 255
238 245 255
238 245 255
238 245 255
238 245 255
238 245 255
238 245 255
238 245 255
238 245 255
238 245 255
238 245 255
238 245 255
238 245 255
239 245 255
239 245 255
239 245 255
239 245 255
239 245 255
239 245 255
239 245 255
239 245 255
239 245 255
239 245 255
239 245 255
239 245 255
239 245 255
239 245 255
239 245 255
239 245 255
239 245 255
239 245 255
239 246 255
239 246 255
239 246 255
239 246 255
239 246 255
240 246 255
240 246 255
240 246 255
240 246 255
240 246 255
240 246 255
212 230 255
212 230 255
212 230 255
212 230 255
212 230 255
212 230 255
212 230 255
212 230 255
212 230 255
212 230 255
212 230 255
212 230 255
212 230 255
212 230 255
212 230 255
212 230 255
213 230 255
213 230 255
213 230 255
213 230 255
213 230 255
213 231 255
213 231 255
213 231 255
213 231 255
213 231 255
213 231 255
213 231 255
213 231 255
213 231 255
213 231 255
213 231 255
214 231 255
214 231 255
214 231 255
214 231 255
214 231 255
214 231 255
214 231 255
214 231 255
214 231 255
214 231 255
214 231 255
214 231 255
214 231 255
214 231 255
215 231 255
215 231 255
215 231 255
215 232 255
215 232 255
215 232 255
215 232 255
215 232 255
215 232 255
215 232 255
215 232 255
215 232 255
215 232 255
215 232 255
215 232 255
216 232 255
216 232 255
216 232 255
216 232 255
216 232 255
216 232 255
216 232 255
216 232 255
216 232 255
216 232 255
216 232 255
216 232 255
216 232 255
217 233 255
217 233 255
217 233 255
217 233 255
217 233 255
217 233 255
217 233 255
217 233 255
217 233 255
217 233 255
217 233 255
217 233 255
217 233 255
218 233 255
218 233 255
218 233 255
218 233 255
218 233 255
218 233 255
218 233 255
218 233 255
218 233 255
218 233 255
218 234 255
218 234 255
218 234 255
219 234 255
219 234 255
219 234 255
219 234 255
219 234 255
219 234 255
219 234 255
219 234 255
219 234 255
219 234 255
219 234 255
219 234 255
220 234 255
220 234 255
220 234 255
220 234 255
220 234 255
220 234 255
220 234 255
220 235 255
220 235 255
220 235 255
220 235 255
220 235 255
221 235 255
221 235 255
221 235 255
221 235 255
221 235 255
221 235 255
221 235 255
221 235 255
221 235 255
221 235 255
221 235 255
221 235 255
222 235 255
222 235 255
222 235 255
222 235 255
222 236 255
222 236 255
222 236 255
222 236 255
222 236 255
222 236 255
222 236 255
222 236 255
223 236 255
223 236 255
223 236 255
223 236 255
223 236 255
223 236 255
223 236 255
223 236 255
223 236 255
223 236 255
223 236 255
224 236 255
224 237 255
189 222 239
156 210 224
153 209 223
147 207 221
147 207 220
143 206 218
137 204 216
87 192 202
85 191 201
79 191 199
78 190 198
81 191 199
77 190 198
75 190 197
78 190 198
73 190 197
88 192 202
80 191 199
81 191 199
81 191 199
84 191 200
82 191 199
76 190 197
80 191 198
77 190 197
84 191 200
82 191 199
87 192 201
86 192 200
82 191 199
79 191 198
71 190 195
76 190 197
75 190 196
82 191 199
89 192 201
90 192 201
88 192 200
78 191 197
90 193 201
69 189 194
95 194 202
81 191 198
86 192 199
81 191 197
83 192 198
91 193 200
92 193 200
101 195 201
202 228 241
228 239 255
228 239 255
228 239 255
228 239 255
228 239 255
228 239 255
229 239 255
229 239 255
229 239 255
229 239 255
229 239 255
229 240 255
229 240 255
229 240 255
229 240 255
229 240 255
229 240 255
229 240 255
230 240 255
230 240 255
230 240 255
230 240 255
230 240 255
230 240 255
230 240 255
230 240 255
230 240 255
230 240 255
230 240 255
230 240 255
230 240 255
231 240 255
231 241 255
231 241 255
231 241 255
231 241 255
231 241 255
231 241 255
231 241 255
231 241 255
231 241 255
231 241 255
231 241 255
232 241 255
232 241 255
232 241 255
232 241 255
232 241 255
232 241 255
232 241 255
232 241 255
232 241 255
232 241 255
232 241 255
232 241 255
232 242 255
232 242 255
233 242 255
233 242 255
233 242 255
233 242 255
233 242 255
233 242 255
233 242 255
233 242 255
233 242 255
233 242 255
233 242 255
233 242 255
233 242 255
233 242 255
234 242 255
234 242 255
234 242 255
234 242 255
234 242 255
234 242 255
234 242 255
234 242 255
234 242 255
234 243 255
234 243 255
234 243 255
234 243 255
234 243 255
234 243 255
235 243 255
235 243 255
235 243 255
235 243 255
235 243 255
235 243 255
235 243 255
235 243 255
235 243 255
235 243 255
235 243 255
235 243 255
235 243 255
235 243 255
235 243 255
236 243 255
236 243 255
236 243 255
236 243 255
236 243 255
236 243 255
236 244 255
236 244 255
236 244 255
236 244 255
236 244 255
236 244 255
236 244 255
236 244 255
236 244 255
236 244 255
236 244 255
237 244 255
237 244 255
237 244 255
237 244 255
237 244 255
237 244 255
237 244 255
237 244 255
237 244 255
237 244 255
237 244 255
237 244 255
237 244 255
237 244 255
237 244 255
237 244 255
237 244 255
237 244 255
237 244 255
238 244 255
238 244 255
238 245 255
238 245 255
238 245 255
238 245 255
238 245 255
238 245 255
238 245 255
238 245 255
238 245 255
238 245 255
238 245 255
238 245 255
238 245 255
238 245 255
238 245 255
238 245 255
238 245 255
238 245 255
238 245 255
239 245 255
239 245 255
239 245 255
239 245 255
239 245 255
239 245 255
239 245 255
239 245 255
239 245 255
239 245 255
239 245 255
239 245 255
239 245 255
239 245 255
239 245 255
239 245 255
239 245 255
239 245 255
239 245 255
239 246 255
239 246 255
239 246 255
239 246 255
239 246 255
240 246 255
240 246 255
240 246 255
240 246 255
240 246 255
240 246 255
240 246 255
212 230 255
212 230 255
212 230 255
212 230 255
212 230 255
212 230 255
212 230 255
212 230 255
212 230 255
212 230 255
212 230 255
212 230 255
212 230 255
212 230 255
212 230 255
213 230 255
213 230 255
213 230 255
213 230 255
213 230 255
213 231 255
213 231 255
213 231 255
213 231 255
213 231 255
213 231 255
213 231 255
213 231 255
213 231 255
213 231 255
213 231 255
214 231 255
214 231 255
214 231 255
214 231 255
214 231 255
214 231 255
214 231 255
214 231 255
214 231 255
214 231 255
214 231 255
214 231 255
214 231 255
214 231 255
215 231 255
215 231 255
215 231 255
215 232 255
215 232 255
215 232 255
215 232 255
215 232 255
215 232 255
215 232 255
215 232 255
215 232 255
215 232 255
215 232 255
215 232 255
216 232 255
216 232 255
216 232 255
216 232 255
216 232 255
216 232 255
216 232 255
216 232 255
216 232 255
216 232 255
216 232 255
216 232 255
216 232 255
217 233 255
217 233 255
217 233 255
217 233 255
217 233 255
217 233 255
217 233 255
217 233 255
217 233 255
217 233 255
217 233 255
217 233 255
217 233 255
218 233 255
218 233 255
218 233 255
218 233 255
218 233 255
218 233 255
218 233 255
218 233 255
218 233 255
218 233 255
218 234 255
218 234 255
218 234 255
219 234 255
219 234 255
219 234 255
219 234 255
219 234 255
219 234 255
219 234 255
219 234 255
219 234 255
219 234 255
219 234 255
219 234 255
220 234 255
220 234 255
220 234 255
220 234 255
220 234 255
220 234 255
220 234 255
220 235 255
220 235 255
220 235 255
220 235 255
220 235 255
221 235 255
221 235 255
221 235 255
221 235 255
221 235 255
221 235 255
221 235 255
221 235 255
221 235 255
221 235 255
221 235 255
221 235 255
222 235 255
222 235 255
222 235 255
222 235 255
222 236 255
222 236 255
222 236 255
222 236 255
222 236 255
222 236 255
222 236 255
222 236 255
223 236 255
223 236 255
223 236 255
223 236 255
223 236 255
223 236 255
223 236 255
223 236 255
223 236 255
223 236 255
223 236 255
224 236 255
224 237 255
224 237 255
185 221 237
166 213 228
162 212 227
155 210 223
142 206 218
136 204 216
110 197 207
75 190 197
88 192 202
84 191 201
85 191 201
79 190 199
69 189 195
77 190 198
78 190 198
77 190 198
73 190 197
82 191 200
79 190 198
87 192 201
77 190 198
84 191 200
82 191 199
80 191 199
79 191 198
77 190 198
82 191 199
77 190 197
87 192 201
74 190 196
73 190 196
71 190 195
77 190 197
84 192 199
75 190 196
81 191 198
79 191 198
87 192 200
77 191 197
77 190 197
81 191 198
83 191 198
81 191 198
86 192 199
87 192 199
87 192 199
85 192 198
78 191 196
87 192 199
87 192 198
167 215 225
227 238 254
228 239 255
228 239 255
228 239 255
229 239 255
229 239 255
229 239 255
229 239 255
229 239 255
229 240 255
229 240 255
229 240 255
229 240 255
229 240 255
229 240 255
229 240 255
230 240 255
230 240 255
230 240 255
230 240 255
230 240 255
230 240 255
230 240 255
230 240 255
230 240 255
230 240 255
230 240 255
230 240 255
230 240 255
231 240 255
231 241 255
231 241 255
231 241 255
231 241 255
231 241 255
231 241 255
231 241 255
231 241 255
231 241 255
231 241 255
231 241 255
232 241 255
232 241 255
232 241 255
232 241 255
232 241 255
232 241 255
232 241 255
232 241 255
232 241 255
232 241 255
232 241 255
232 241 255
232 242 255
232 242 255
233 242 255
233 242 255
233 242 255
233 242 255
233 242 255
233 242 255
233 242 255
233 242 255
233 242 255
233 242 255
233 242 255
233 242 255
233 242 255
233 242 255
234 242 255
234 242 255
234 242 255
234 242 255
234 242 255
234 242 255
234 242 255
234 242 255
234 242 255
234 243 255
234 243 255
234 243 255
234 243 255
234 243 255
235 243 255
235 243 255
235 243 255
235 243 255
235 243 255
235 243 255
235 243 255
235 243 255
235 243 255
235 243 255
235 243 255
235 243 255
235 243 255
235 243 255
235 243 255
235 243 255
236 243 255
236 243 255
236 243 255
236 243 255
236 243 255
236 243 255
236 244 255
236 244 255
236 244 255
236 244 255
236 244 255
236 244 255
236 244 255
236 244 255
236 244 255
236 244 255
236 244 255
237 244 255
237 244 255
237 244 255
237 244 255
237 244 255
237 244 255
237 244 255
237 244 255
237 244 255
237 244 255
237 244 255
237 244 255
237 244 255
237 244 255
237 244 255
237 244 255
237 244 255
237 244 255
237 244 255
238 244 255
238 245 255
238 245 255
238 245 255
238 245 255
238 245 255
238 245 255
238 245 255
238 245 255
238 245 255
238 245 255
238 245 255
238 245 255
238 245 255
238 245 255
238 245 255
238 245 255
238 245 255
238 245 255
238 245 255
239 245 255
239 245 255
239 245 255
239 245 255
239 245 255
239 245 255
239 245 255
239 245 255
239 245 255
239 245 255
239 245 255
239 245 255
239 245 255
239 245 255
239 245 255
239 245 255
239 245 255
239 245 255
239 245 255
239 246 255
239 246 255
239 246 255
239 246 255
239 246 255
240 246 255
240 246 255
240 246 255
240 246 255
240 246 255
240 246 255
240 246 255
240 246 255
240 246 255
212 230 255
212 230 255
212 230 255
212 230 255
212 230 255
212 230 255
212 230 255
212 230 255
212 230 255
212 230 255
212 230 255
212 230 255
212 230 255
212 230 255
213 230 255
213 230 255
213 230 255
213 230 255
213 230 255
213 231 255
213 231 255
213 231 255
213 231 255
213 231 255
213 231 255
213 231 255
213 231 255
213 231 255
213 231 255
213 231 255
214 231 255
214 231 255
214 231 255
214 231 255
214 231 255
214 231 255
214 231 255
214 231 255
214 231 255
214 231 255
214 231 255
214 231 255
214 231 255
214 231 255
214 231 255
215 231 255
215 231 255
215 232 255
215 232 255
215 232 255
215 232 255
215 232 255
215 232 255
215 232 255
215 232 255
215 232 255
215 232 255
215 232 255
215 232 255
216 232 255
216 232 255
216 232 255
216 232 255
216 232 255
216 232 255
216 232 255
216 232 255
216 232 255
216 232 255
216 232 255
216 232 255
216 232 255
217 233 255
217 233 255
217 233 255
217 233 255
217 233 255
217 233 255
217 233 255
217 233 255
217 233 255
217 233 255
217 233 255
217 233 255
217 233 255
218 233 255
218 233 255
218 233 255
218 233 255
218 233 255
218 233 255
218 233 255
218 233 255
218 233 255
218 233 255
218 234 255
218 234 255
218 234 255
219 234 255
219 234 255
219 234 255
219 234 255
219 234 255
219 234 255
219 234 255
219 234 255
219 234 255
219 234 255
219 234 255
219 234 255
220 234 255
220 234 255
220 234 255
220 234 255
220 234 255
220 234 255
220 234 255
220 235 255
220 235 255
220 235 255
220 235 255
220 235 255
221 235 255
221 235 255
221 235 255
221 235 255
221 235 255
221 235 255
221 235 255
221 235 255
221 235 255
221 235 255
221 235 255
221 235 255
222 235 255
222 235 255
222 235 255
222 235 255
222 236 255
222 236 255
222 236 255
222 236 255
222 236 255
222 236 255
222 236 255
222 236 255
223 236 255
223 236 255
223 236 255
223 236 255
223 236 255
223 236 255
223 236 255
223 236 255
223 236 255
223 236 255
223 236 255
224 236 255
224 236 255
224 237 255
224 237 255
190 222 239
174 216 233
161 212 226
166 213 228
154 209 224
126 201 213
83 191 200
91 192 203
80 191 199
82 191 200
84 191 200
84 191 201
74 190 197
75 190 197
79 190 199
80 191 199
80 191 199
85 191 201
90 192 203
79 191 199
83 191 200
75 190 197
83 191 200
84 191 200
74 190 197
82 191 199
76 190 197
81 191 199
76 190 197
79 191 198
77 190 197
86 192 200
81 191 198
86 192 200
80 191 198
78 191 197
83 191 199
82 191 199
78 191 197
80 191 198
72 190 195
79 191 197
81 191 198
76 190 196
85 192 199
75 190 196
85 192 199
72 190 195
82 191 197
79 191 196
86 192 198
134 204 212
216 234 248
228 239 255
229 239 255
229 239 255
229 239 255
229 239 255
229 239 255
229 240 255
229 240 255
229 240 255
229 240 255
229 240 255
229 240 255
229 240 255
230 240 255
230 240 255
230 240 255
230 240 255
230 240 255
230 240 255
230 240 255
230 240 255
230 240 255
230 240 255
230 240 255
230 240 255
231 240 255
231 240 255
231 241 255
231 241 255
231 241 255
231 241 255
231 241 255
231 241 255
231 241 255
231 241 255
231 241 255
231 241 255
231 241 255
232 241 255
232 241 255
232 241 255
232 241 255
232 241 255
232 241 255
232 241 255
232 241 255
232 241 255
232 241 255
232 241 255
232 241 255
232 242 255
232 242 255
233 242 255
233 242 255
233 242 255
233 242 255
233 242 255
233 242 255
233 242 255
233 242 255
233 242 255
233 242 255
233 242 255
233 242 255
233 242 255
234 242 255
234 242 255
234 242 255
234 242 255
234 242 255
234 242 255
234 242 255
234 242 255
234 242 255
234 243 255
234 243 255
234 243 255
234 243 255
234 243 255
234 243 255
235 243 255
235 243 255
235 243 255
235 243 255
235 243 255
235 243 255
235 243 255
235 243 255
235 243 255
235 243 255
235 243 255
235 243 255
235 243 255
235 243 255
235 243 255
235 243 255
236 243 255
236 243 255
236 243 255
236 243 255
236 243 255
236 243 255
236 244 255
236 244 255
236 244 255
236 244 255
236 244 255
236 244 255
236 244 255
236 244 255
236 244 255
236 244 255
236 244 255
237 244 255
237 244 255
237 244 255
237 244 255
237 244 255
237 244 255
237 244 255
237 244 255
237 244 255
237 244 255
237 244 255
237 244 255
237 244 255
237 244 255
237 244 255
237 244 255
237 244 255
237 244 255
238 244 255
238 244 255
238 245 255
238 245 255
238 245 255
238 245 255
238 245 255
238 245 255
238 245 255
238 245 255
238 245 255
238 245 255
238 245 255
238 245 255
238 245 255
238 245 255
238 245 255
238 245 255
238 245 255
238 245 255
238 245 255
239 245 255
239 245 255
239 245 255
239 245 255
239 245 255
239 245 255
239 245 255
239 245 255
239 245 255
239 245 255
239 245 255
239 245 255
239 245 255
239 245 255
239 245 255
239 245 255
239 245 255
239 245 255
239 246 255
239 246 255
239 246 255
239 246 255
239 246 255
240 246 255
240 246 255
240 246 255
240 246 255
240 246 255
240 246 255
240 246 255
240 246 255
240 246 255
240 246 255
240 246 255
212 230 255
212 230 255
212 230 255
212 230 255
212 230 255
212 230 255
212 230 255
212 230 255
212 230 255
212 230 255
212 230 255
212 230 255
212 230 255
213 230 255
213 230 255
213 230 255
213 230 255
213 230 255
213 231 255
213 231 255
213 231 255
213 231 255
213 231 255
213 231 255
213 231 255
213 231 255
213 231 255
213 231 255
213 231 255
214 231 255
214 231 255
214 231 255
214 231 255
214 231 255
214 231 255
214 231 255
214 231 255
214 231 255
214 231 255
214 231 255
214 231 255
214 231 255
214 231 255
214 231 255
215 231 255
215 231 255
215 232 255
215 232 255
215 232 255
215 232 255
215 232 255
215 232 255
215 232 255
215 232 255
215 232 255
215 232 255
215 232 255
215 232 255
216 232 255
216 232 255
216 232 255
216 232 255
216 232 255
216 232 255
216 232 255
216 232 255
216 232 255
216 232 255
216 232 255
216 232 255
216 232 255
217 233 255
217 233 255
217 233 255
217 233 255
217 233 255
217 233 255
217 233 255
217 233 255
217 233 255
217 233 255
217 233 255
217 233 255
217 233 255
217 233 255
218 233 255
218 233 255
218 233 255
218 233 255
218 233 255
218 233 255
218 233 255
218 233 255
218 233 255
218 234 255
218 234 255
218 234 255
219 234 255
219 234 255
219 234 255
219 234 255
219 234 255
219 234 255
219 234 255
219 234 255
219 234 255
219 234 255
219 234 255
219 234 255
219 234 255
220 234 255
220 234 255
220 234 255
220 234 255
220 234 255
220 234 255
220 235 255
220 235 255
220 235 255
220 235 255
220 235 255
220 235 255
221 235 255
221 235 255
221 235 255
221 235 255
221 235 255
221 235 255
221 235 255
221 235 255
221 235 255
221 235 255
221 235 255
222 235 255
222 235 255
222 235 255
222 235 255
222 236 255
222 236 255
222 236 255
222 236 255
222 236 255
222 236 255
222 236 255
222 236 255
223 236 255
223 236 255
223 236 255
223 236 255
223 236 255
223 236 255
223 236 255
223 236 255
223 236 255
223 236 255
223 236 255
224 236 255
224 236 255
224 237 255
224 237 255
224 237 255
189 222 239
179 218 234
171 215 231
162 212 227
159 211 225
131 202 214
85 191 201
83 191 200
84 191 201
91 192 203
73 190 197
86 191 201
80 191 199
81 191 199
79 190 199
87 192 201
76 190 198
82 191 200
84 191 200
80 191 199
87 192 201
77 190 198
67 189 195
66 189 194
76 190 197
75 190 197
85 192 200
76 190 197
80 191 198
78 190 198
84 191 200
70 189 195
86 192 200
72 190 195
79 191 198
80 191 198
80 191 198
80 191 198
79 191 198
76 190 197
79 191 197
82 191 198
83 191 198
72 190 195
71 190 195
74 190 195
73 190 195
73 190 195
80 191 197
78 191 196
87 192 199
86 192 198
99 195 201
195 225 238
229 239 255
229 239 255
229 239 255
229 239 255
229 240 255
229 240 255
229 240 255
229 240 255
229 240 255
229 240 255
229 240 255
230 240 255
230 240 255
230 240 255
230 240 255
230 240 255
230 240 255
230 240 255
230 240 255
230 240 255
230 240 255
230 240 255
230 240 255
231 240 255
231 240 255
231 241 255
231 241 255
231 241 255
231 241 255
231 241 255
231 241 255
231 241 255
231 241 255
231 241 255
231 241 255
231 241 255
232 241 255
232 241 255
232 241 255
232 241 255
232 241 255
232 241 255
232 241 255
232 241 255
232 241 255
232 241 255
232 241 255
232 241 255
232 242 255
233 242 255
233 242 255
233 242 255
233 242 255
233 242 255
233 242 255
233 242 255
233 242 255
233 242 255
233 242 255
233 242 255
233 242 255
233 242 255
233 242 255
234 242 255
234 242 255
234 242 255
234 242 255
234 242 255
234 242 255
234 242 255
234 242 255
234 242 255
234 243 255
234 243 255
234 243 255
234 243 255
234 243 255
234 243 255
235 243 255
235 243 255
235 243 255
235 243 255
235 243 255
235 243 255
235 243 255
235 243 255
235 243 255
235 243 255
235 243 255
235 243 255
235 243 255
235 243 255
235 243 255
235 243 255
236 243 255
236 243 255
236 243 255
236 243 255
236 243 255
236 244 255
236 244 255
236 244 255
236 244 255
236 244 255
236 244 255
236 244 255
236 244 255
236 244 255
236 244 255
236 244 255
237 244 255
237 244 255
237 244 255
237 244 255
237 244 255
237 244 255
237 244 255
237 244 255
237 244 255
237 244 255
237 244 255
237 244 255
237 244 255
237 244 255
237 244 255
237 244 255
237 244 255
237 244 255
237 244 255
238 244 255
238 245 255
238 245 255
238 245 255
238 245 255
238 245 255
238 245 255
238 245 255
238 245 255
238 245 255
238 245 255
238 245 255
238 245 255
238 245 255
238 245 255
238 245 255
238 245 255
238 245 255
238 245 255
238 245 255
239 245 255
239 245 255
239 245 255
239 245 255
239 245 255
239 245 255
239 245 255
239 245 255
239 245 255
239 245 255
239 245 255
239 245 255
239 245 255
239 245 255
239 245 255
239 245 255
239 245 255
239 245 255
239 246 255
239 246 255
239 246 255
239 246 255
239 246 255
240 246 255
240 246 255
240 246 255
240 246 255
240 246 255
240 246 255
240 246 255
240 246 255
240 246 255
240 246 255
240 246 255
240 246 255
240 246 255
212 230 255
212 230 255
212 230 255
212 230 255
212 230 255
212 230 255
212 230 255
212 230 255
212 230 255
212 230 255
212 230 255
212 230 255
213 230 255
213 230 255
213 230 255
213 230 255
213 230 255
213 231 255
213 231 255
213 231 255
213 231 255
213 231 255
213 231 255
213 231 255
213 231 255
213 231 255
213 231 255
213 231 255
214 231 255
214 231 255
214 231 255
214 231 255
214 231 255
214 231 255
214 231 255
214 231 255
214 231 255
214 231 255
214 231 255
214 231 255
214 231 255
214 231 255
214 231 255
215 231 255
215 231 255
215 232 255
215 232 255
215 232 255
215 232 255
215 232 255
215 232 255
215 232 255
215 232 255
215 232 255
215 232 255
215 232 255
215 232 255
216 232 255
216 232 255
216 232 255
216 232 255
216 232 255
216 232 255
216 232 255
216 232 255
216 232 255
216 232 255
216 232 255
216 232 255
216 232 255
216 233 255
217 233 255
217 233 255
217 233 255
217 233 255
217 233 255
217 233 255
217 233 255
217 233 255
217 233 255
217 233 255
217 233 255
217 233 255
217 233 255
218 233 255
218 233 255
218 233 255
218 233 255
218 233 255
218 233 255
218 233 255
218 233 255
218 233 255
218 234 255
218 234 255
218 234 255
219 234 255
219 234 255
219 234 255
219 234 255
219 234 255
219 234 255
219 234 255
219 234 255
219 234 255
219 234 255
219 234 255
219 234 255
219 234 255
220 234 255
220 234 255
220 234 255
220 234 255
220 234 255
220 234 255
220 235 255
220 235 255
220 235 255
220 235 255
220 235 255
220 235 255
221 235 255
221 235 255
221 235 255
221 235 255
221 235 255
221 235 255
221 235 255
221 235 255
221 235 255
221 235 255
221 235 255
222 235 255
222 235 255
222 235 255
222 235 255
222 236 255
222 236 255
222 236 255
222 236 255
222 236 255
222 236 255
222 236 255
222 236 255
223 236 255
223 236 255
223 236 255
223 236 255
223 236 255
223 236 255
223 236 255
223 236 255
223 236 255
223 236 255
223 236 255
223 236 255
224 236 255
224 237 255
224 237 255
224 237 255
224 237 255
197 225 242
172 216 231
173 216 232
172 215 231
156 210 223
104 196 204
82 191 200
81 191 199
79 190 199
86 191 201
83 191 200
84 191 200
79 190 199
76 190 198
73 190 197
81 191 199
85 191 201
80 191 199
77 190 198
86 192 201
74 190 197
79 191 199
95 193 204
70 189 195
69 189 195
84 191 200
70 189 195
80 191 199
79 191 198
74 190 197
78 190 198
81 191 199
75 190 197
78 191 198
85 192 200
75 190 197
79 191 198
86 192 200
79 191 198
82 191 198
79 191 197
83 191 199
82 191 198
80 191 198
78 191 197
68 189 194
67 189 194
74 190 195
82 191 198
87 192 199
81 191 197
86 192 199
82 192 197
88 193 199
161 213 222
225 238 253
229 239 255
229 240 255
229 240 255
229 240 255
229 240 255
229 240 255
229 240 255
229 240 255
230 240 255
230 240 255
230 240 255
230 240 255
230 240 255
230 240 255
230 240 255
230 240 255
230 240 255
230 240 255
230 240 255
230 240 255
231 240 255
231 240 255
231 241 255
231 241 255
231 241 255
231 241 255
231 241 255
231 241 255
231 241 255
231 241 255
231 241 255
231 241 255
231 241 255
232 241 255
232 241 255
232 241 255
232 241 255
232 241 255
232 241 255
232 241 255
232 241 255
232 241 255
232 241 255
232 241 255
232 241 255
232 242 255
233 242 255
233 242 255
233 242 255
233 242 255
233 242 255
233 242 255
233 242 255
233 242 255
233 242 255
233 242 255
233 242 255
233 242 255
233 242 255
233 242 255
234 242 255
234 242 255
234 242 255
234 242 255
234 242 255
234 242 255
234 242 255
234 242 255
234 242 255
234 243 255
234 243 255
234 243 255
234 243 255
234 243 255
234 243 255
235 243 255
235 243 255
235 243 255
235 243 255
235 243 255
235 243 255
235 243 255
235 243 255
235 243 255
235 243 255
235 243 255
235 243 255
235 243 255
235 243 255
235 243 255
236 243 255
236 243 255
236 243 255
236 243 255
236 243 255
236 243 255
236 244 255
236 244 255
236 244 255
236 244 255
236 244 255
236 244 255
236 244 255
236 244 255
236 244 255
236 244 255
236 244 255
237 244 255
237 244 255
237 244 255
237 244 255
237 244 255
237 244 255
237 244 255
237 244 255
237 244 255
237 244 255
237 244 255
237 244 255
237 244 255
237 244 255
237 244 255
237 244 255
237 244 255
237 244 255
238 244 255
238 244 255
238 245 255
238 245 255
238 245 255
238 245 255
238 245 255
238 245 255
238 245 255
238 245 255
238 245 255
238 245 255
238 245 255
238 245 255
238 245 255
238 245 255
238 245 255
238 245 255
238 245 255
238 245 255
238 245 255
239 245 255
239 245 255
239 245 255
239 245 255
239 245 255
239 245 255
239 245 255
239 245 255
239 245 255
239 245 255
239 245 255
239 245 255
239 245 255
239 245 255
239 245 255
239 245 255
239 245 255
239 245 255
239 246 255
239 246 255
239 246 255
239 246 255
239 246 255
240 246 255
240 246 255
240 246 255
240 246 255
240 246 255
240 246 255
240 246 255
240 246 255
240 246 255
240 246 255
240 246 255
240 246 255
240 246 255
240 246 255
212 230 255
212 230 255
212 230 255
212 230 255
212 230 255
212 230 255
212 230 255
212 230 255
212 230 255
212 230 255
212 230 255
213 230 255
213 230 255
213 230 255
213 230 255
213 230 255
213 231 255
213 231 255
213 231 255
213 231 255
213 231 255
213 231 255
213 231 255
213 231 255
213 231 255
213 231 255
213 231 255
214 231 255
214 231 255
214 231 255
214 231 255
214 231 255
214 231 255
214 231 255
214 231 255
214 231 255
214 231 255
214 231 255
214 231 255
214 231 255
214 231 255
214 231 255
215 231 255
215 231 255
215 232 255
215 232 255
215 232 255
215 232 255
215 232 255
215 232 255
215 232 255
215 232 255
215 232 255
215 232 255
215 232 255
215 232 255
216 232 255
216 232 255
216 232 255
216 232 255
216 232 255
216 232 255
216 232 255
216 232 255
216 232 255
216 232 255
216 232 255
216 232 255
216 232 255
216 233 255
217 233 255
217 233 255
217 233 255
217 233 255
217 233 255
217 233 255
217 233 255
217 233 255
217 233 255
217 233 255
217 233 255
217 233 255
217 233 255
218 233 255
218 233 255
218 233 255
218 233 255
218 233 255
218 233 255
218 233 255
218 233 255
218 233 255
218 234 255
218 234 255
218 234 255
219 234 255
219 234 255
219 234 255
219 234 255
219 234 255
219 234 255
219 234 255
219 234 255
219 234 255
219 234 255
219 234 255
219 234 255
219 234 255
220 234 255
220 234 255
220 234 255
220 234 255
220 234 255
220 234 255
220 235 255
220 235 255
220 235 255
220 235 255
220 235 255
220 235 255
221 235 255
221 235 255
221 235 255
221 235 255
221 235 255
221 235 255
221 235 255
221 235 255
221 235 255
221 235 255
221 235 255
221 235 255
222 235 255
222 235 255
222 235 255
222 236 255
222 236 255
222 236 255
222 236 255
222 236 255
222 236 255
222 236 255
222 236 255
223 236 255
223 236 255
223 236 255
223 236 255
223 236 255
223 236 255
223 236 255
223 236 255
223 236 255
223 236 255
223 236 255
223 236 255
224 236 255
224 237 255
224 237 255
224 237 255
224 237 255
224 237 255
195 224 241
175 216 233
173 216 233
172 216 231
162 212 226
89 192 201
71 189 196
81 191 199
81 191 199
85 191 201
72 189 197
81 191 199
77 190 198
76 190 198
79 190 199
82 191 200
85 191 201
74 190 197
80 191 199
88 192 202
78 190 198
73 190 197
83 191 200
85 191 201
75 190 197
78 190 198
77 190 198
70 189 195
73 190 196
70 189 195
67 189 194
88 192 201
81 191 199
79 191 198
76 190 197
82 191 199
73 190 196
70 189 195
81 191 198
84 191 199
77 190 197
81 191 198
79 191 197
84 192 199
76 190 196
84 192 199
79 191 197
76 190 196
84 192 198
90 193 200
96 194 202
85 192 198
78 191 196
86 192 198
88 193 199
122 201 208
214 233 247
229 240 255
229 240 255
229 240 255
229 240 255
229 240 255
229 240 255
230 240 255
230 240 255
230 240 255
230 240 255
230 240 255
230 240 255
230 240 255
230 240 255
230 240 255
230 240 255
230 240 255
230 240 255
231 240 255
231 240 255
231 241 255
231 241 255
231 241 255
231 241 255
231 241 255
231 241 255
231 241 255
231 241 255
231 241 255
231 241 255
231 241 255
232 241 255
232 241 255
232 241 255
232 241 255
232 241 255
232 241 255
232 241 255
232 241 255
232 241 255
232 241 255
232 241 255
232 241 255
232 242 255
233 242 255
233 242 255
233 242 255
233 242 255
233 242 255
233 242 255
233 242 255
233 242 255
233 242 255
233 242 255
233 242 255
233 242 255
233 242 255
233 242 255
234 242 255
234 242 255
234 242 255
234 242 255
234 242 255
234 242 255
234 242 255
234 242 255
234 242 255
234 243 255
234 243 255
234 243 255
234 243 255
234 243 255
234 243 255
235 243 255
235 243 255
235 243 255
235 243 255
235 243 255
235 243 255
235 243 255
235 243 255
235 243 255
235 243 255
235 243 255
235 243 255
235 243 255
235 243 255
235 243 255
236 243 255
236 243 255
236 243 255
236 243 255
236 243 255
236 243 255
236 244 255
236 244 255
236 244 255
236 244 255
236 244 255
236 244 255
236 244 255
236 244 255
236 244 255
236 244 255
236 244 255
237 244 255
237 244 255
237 244 255
237 244 255
237 244 255
237 244 255
237 244 255
237 244 255
237 244 255
237 244 255
237 244 255
237 244 255
237 244 255
237 244 255
237 244 255
237 244 255
237 244 255
237 244 255
238 244 255
238 245 255
238 245 255
238 245 255
238 245 255
238 245 255
238 245 255
238 245 255
238 245 255
238 245 255
238 245 255
238 245 255
238 245 255
238 245 255
238 245 255
238 245 255
238 245 255
238 245 255
238 245 255
238 245 255
239 245 255
239 245 255
239 245 255
239 245 255
239 245 255
239 245 255
239 245 255
239 245 255
239 245 255
239 245 255
239 245 255
239 245 255
239 245 255
239 245 255
239 245 255
239 245 255
239 245 255
239 245 255
239 246 255
239 246 255
239 246 255
239 246 255
239 246 255
240 246 255
240 246 255
240 246 255
240 246 255
240 246 255
240 246 255
240 246 255
240 246 255
240 246 255
240 246 255
240 246 255
240 246 255
240 246 255
240 246 255
240 246 255
240 246 255
212 230 255
212 230 255
212 230 255
212 230 255
212 230 255
212 230 255
212 230 255
212 230 255
212 230 255
212 230 255
213 230 255
213 230 255
213 230 255
213 230 255
213 230 255
213 231 255
213 231 255
213 231 255
213 231 255
213 231 255
213 231 255
213 231 255
213 231 255
213 231 255
213 231 255
213 231 255
214 231 255
214 231 255
214 231 255
214 231 255
214 231 255
214 231 255
214 231 255
214 231 255
214 231 255
214 231 255
214 231 255
214 231 255
214 231 255
214 231 255
214 231 255
215 231 255
215 231 255
215 232 255
215 232 255
215 232 255
215 232 255
215 232 255
215 232 255
215 232 255
215 232 255
215 232 255
215 232 255
215 232 255
215 232 255
216 232 255
216 232 255
216 232 255
216 232 255
216 232 255
216 232 255
216 232 255
216 232 255
216 232 255
216 232 255
216 232 255
216 232 255
216 232 255
216 233 255
217 233 255
217 233 255
217 233 255
217 233 255
217 233 255
217 233 255
217 233 255
217 233 255
217 233 255
217 233 255
217 233 255
217 233 255
217 233 255
218 233 255
218 233 255
218 233 255
218 233 255
218 233 255
218 233 255
218 233 255
218 233 255
218 233 255
218 233 255
218 234 255
218 234 255
218 234 255
219 234 255
219 234 255
219 234 255
219 234 255
219 234 255
219 234 255
219 234 255
219 234 255
219 234 255
219 234 255
219 234 255
219 234 255
220 234 255
220 234 255
220 234 255
220 234 255
220 234 255
220 234 255
220 234 255
220 235 255
220 235 255
220 235 255
220 235 255
220 235 255
221 235 255
221 235 255
221 235 255
221 235 255
221 235 255
221 235 255
221 235 255
221 235 255
221 235 255
221 235 255
221 235 255
221 235 255
222 235 255
222 235 255
222 235 255
222 235 255
222 236 255
222 236 255
222 236 255
222 236 255
222 236 255
222 236 255
222 236 255
223 236 255
223 236 255
223 236 255
223 236 255
223 236 255
223 236 255
223 236 255
223 236 255
223 236 255
223 236 255
223 236 255
223 236 255
224 236 255
224 237 255
224 237 255
224 237 255
224 237 255
224 237 255
224 237 255
198 226 243
152 209 223
174 216 232
170 215 230
155 210 224
87 192 201
75 190 198
78 190 199
83 191 200
73 190 197
89 192 203
78 190 198
78 190 199
84 191 201
80 191 199
81 191 199
74 190 197
80 191 199
83 191 200
70 189 196
83 191 200
84 191 200
81 191 199
72 190 196
76 190 198
80 191 199
88 192 201
80 191 199
75 190 197
72 190 196
77 190 198
76 190 197
75 190 197
88 192 201
79 191 198
69 189 195
79 191 198
77 190 197
81 191 198
80 191 198
84 191 199
80 191 198
69 189 194
79 191 197
69 189 194
69 189 194
75 190 196
77 191 197
82 191 198
93 193 202
74 190 195
83 191 198
80 191 197
79 191 197
82 191 197
77 191 196
97 194 201
184 221 232
229 240 255
229 240 255
229 240 255
229 240 255
230 240 255
230 240 255
230 240 255
230 240 255
230 240 255
230 240 255
230 240 255
230 240 255
230 240 255
230 240 255
230 240 255
230 240 255
231 240 255
231 240 255
231 241 255
231 241 255
231 241 255
231 241 255
231 241 255
231 241 255
231 241 255
231 241 255
231 241 255
231 241 255
231 241 255
232 241 255
232 241 255
232 241 255
232 241 255
232 241 255
232 241 255
232 241 255
232 241 255
232 241 255
232 241 255
232 241 255
232 241 255
232 242 255
233 242 255
233 242 255
233 242 255
233 242 255
233 242 255
233 242 255
233 242 255
233 242 255
233 242 255
233 242 255
233 242 255
233 242 255
233 242 255
233 242 255
234 242 255
234 242 255
234 242 255
234 242 255
234 242 255
234 242 255
234 242 255
234 242 255
234 242 255
234 243 255
234 243 255
234 243 255
234 243 255
234 243 255
235 243 255
235 243 255
235 243 255
235 243 255
235 243 255
235 243 255
235 243 255
235 243 255
235 243 255
235 243 255
235 243 255
235 243 255
235 243 255
235 243 255
235 243 255
235 243 255
236 243 255
236 243 255
236 243 255
236 243 255
236 243 255
236 244 255
236 244 255
236 244 255
236 244 255
236 244 255
236 244 255
236 244 255
236 244 255
236 244 255
236 244 255
236 244 255
237 244 255
237 244 255
237 244 255
237 244 255
237 244 255
237 244 255
237 244 255
237 244 255
237 244 255
237 244 255
237 244 255
237 244 255
237 244 255
237 244 255
237 244 255
237 244 255
237 244 255
237 244 255
238 244 255
238 244 255
238 245 255
238 245 255
238 245 255
238 245 255
238 245 255
238 245 255
238 245 255
238 245 255
238 245 255
238 245 255
238 245 255
238 245 255
238 245 255
238 245 255
238 245 255
238 245 255
238 245 255
238 245 255
239 245 255
239 245 255
239 245 255
239 245 255
239 245 255
239 245 255
239 245 255
239 245 255
239 245 255
239 245 255
239 245 255
239 245 255
239 245 255
239 245 255
239 245 255
239 245 255
239 245 255
239 245 255
239 246 255
239 246 255
239 246 255
239 246 255
239 246 255
240 246 255
240 246 255
240 246 255
240 246 255
240 246 255
240 246 255
240 246 255
240 246 255
240 246 255
240 246 255
240 246 255
240 246 255
240 246 255
240 246 255
240 246 255
240 246 255
240 246 255
240 246 255
212 230 255
212 230 255
212 230 255
212 230 255
212 230 255
212 230 255
212 230 255
212 230 255
212 230 255
213 230 255
213 230 255
213 230 255
213 230 255
213 230 255
213 231 255
213 231 255
213 231 255
213 231 255
213 231 255
213 231 255
213 231 255
213 231 255
213 231 255
213 231 255
213 231 255
214 231 255
214 231 255
214 231 255
214 231 255
214 231 255
214 231 255
214 231 255
214 231 255
214 231 255
214 231 255
214 231 255
214 231 255
214 231 255
214 231 255
214 231 255
215 231 255
215 231 255
215 232 255
215 232 255
215 232 255
215 232 255
215 232 255
215 232 255
215 232 255
215 232 255
215 232 255
215 232 255
215 232 255
215 232 255
216 232 255
216 232 255
216 232 255
216 232 255
216 232 255
216 232 255
216 232 255
216 232 255
216 232 255
216 232 255
216 232 255
216 232 255
216 232 255
216 233 255
217 233 255
217 233 255
217 233 255
217 233 255
217 233 255
217 233 255
217 233 255
217 233 255
217 233 255
217 233 255
217 233 255
217 233 255
217 233 255
218 233 255
218 233 255
218 233 255
218 233 255
218 233 255
218 233 255
218 233 255
218 233 255
218 233 255
218 233 255
218 234 255
218 234 255
218 234 255
219 234 255
219 234 255
219 234 255
219 234 255
219 234 255
219 234 255
219 234 255
219 234 255
219 234 255
219 234 255
219 234 255
219 234 255
220 234 255
220 234 255
220 234 255
220 234 255
220 234 255
220 234 255
220 234 255
220 235 255
220 235 255
220 235 255
220 235 255
220 235 255
221 235 255
221 235 255
221 235 255
221 235 255
221 235 255
221 235 255
221 235 255
221 235 255
221 235 255
221 235 255
221 235 255
221 235 255
222 235 255
222 235 255
222 235 255
222 235 255
222 236 255
222 236 255
222 236 255
222 236 255
222 236 255
222 236 255
222 236 255
223 236 255
223 236 255
223 236 255
223 236 255
223 236 255
223 236 255
223 236 255
223 236 255
223 236 255
223 236 255
223 236 255
223 236 255
224 236 255
224 237 255
224 237 255
224 237 255
224 237 255
224 237 255
224 237 255
224 237 255
214 232 250
130 202 215
154 209 225
169 215 231
157 210 225
76 190 198
75 190 197
85 191 201
75 190 198
79 190 199
85 191 201
75 190 198
82 191 200
84 191 201
81 191 199
81 191 199
78 190 198
82 191 200
74 190 197
83 191 200
74 190 197
78 190 198
82 191 200
83 191 200
79 190 198
73 190 197
78 190 198
76 190 197
76 190 197
78 190 198
85 191 200
78 190 198
78 190 198
83 191 199
79 191 198
79 191 198
76 190 197
77 190 197
64 189 193
72 190 195
79 191 198
68 189 194
77 190 197
69 189 194
67 189 194
71 190 195
77 191 197
70 189 194
75 190 196
72 190 195
74 190 195
68 189 194
80 191 197
71 190 194
81 191 197
68 189 193
70 190 194
85 192 198
158 211 221
224 237 252
229 240 255
230 240 255
230 240 255
230 240 255
230 240 255
230 240 255
230 240 255
230 240 255
230 240 255
230 240 255
230 240 255
230 240 255
230 240 255
231 240 255
231 240 255
231 241 255
231 241 255
231 241 255
231 241 255
231 241 255
231 241 255
231 241 255
231 241 255
231 241 255
231 241 255
231 241 255
232 241 255
232 241 255
232 241 255
232 241 255
232 241 255
232 241 255
232 241 255
232 241 255
232 241 255
232 241 255
232 241 255
232 241 255
232 242 255
233 242 255
233 242 255
233 242 255
233 242 255
233 242 255
233 242 255
233 242 255
233 242 255
233 242 255
233 242 255
233 242 255
233 242 255
233 242 255
233 242 255
234 242 255
234 242 255
234 242 255
234 242 255
234 242 255
234 242 255
234 242 255
234 242 255
234 242 255
234 243 255
234 243 255
234 243 255
234 243 255
234 243 255
235 243 255
235 243 255
235 243 255
235 243 255
235 243 255
235 243 255
235 243 255
235 243 255
235 243 255
235 243 255
235 243 255
235 243 255
235 243 255
235 243 255
235 243 255
236 243 255
236 243 255
236 243 255
236 243 255
236 243 255
236 243 255
236 244 255
236 244 255
236 244 255
236 244 255
236 244 255
236 244 255
236 244 255
236 244 255
236 244 255
236 244 255
236 244 255
237 244 255
237 244 255
237 244 255
237 244 255
237 244 255
237 244 255
237 244 255
237 244 255
237 244 255
237 244 255
237 244 255
237 244 255
237 244 255
237 244 255
237 244 255
237 244 255
237 244 255
237 244 255
238 244 255
238 245 255
238 245 255
238 245 255
238 245 255
238 245 255
238 245 255
238 245 255
238 245 255
238 245 255
238 245 255
238 245 255
238 245 255
238 245 255
238 245 255
238 245 255
238 245 255
238 245 255
238 245 255
238 245 255
239 245 255
239 245 255
239 245 255
239 245 255
239 245 255
239 245 255
239 245 255
239 245 255
239 245 255
239 245 255
239 245 255
239 245 255
239 245 255
239 245 255
239 245 255
239 245 255
239 245 255
239 245 255
239 246 255
239 246 255
239 246 255
239 246 255
240 246 255
240 246 255
240 246 255
240 246 255
240 246 255
240 246 255
240 246 255
240 246 255
240 246 255
240 246 255
240 246 255
240 246 255
240 246 255
240 246 255
240 246 255
240 246 255
240 246 255
240 246 255
240 246 255
240 246 255
212 230 255
212 230 255
212 230 255
212 230 255
212 230 255
212 230 255
212 230 255
212 230 255
213 230 255
213 230 255
213 230 255
213 230 255
213 230 255
213 231 255
213 231 255
213 231 255
213 231 255
213 231 255
213 231 255
213 231 255
213 231 255
213 231 255
213 231 255
213 231 255
214 231 255
214 231 255
214 231 255
214 231 255
214 231 255
214 231 255
214 231 255
214 231 255
214 231 255
214 231 255
214 231 255
214 231 255
214 231 255
214 231 255
214 231 255
215 231 255
215 231 255
215 232 255
215 232 255
215 232 255
215 232 255
215 232 255
215 232 255
215 232 255
215 232 255
215 232 255
215 232 255
215 232 255
215 232 255
216 232 255
216 232 255
216 232 255
216 232 255
216 232 255
216 232 255
216 232 255
216 232 255
216 232 255
216 232 255
216 232 255
216 232 255
216 232 255
216 233 255
217 233 255
217 233 255
217 233 255
217 233 255
217 233 255
217 233 255
217 233 255
217 233 255
217 233 255
217 233 255
217 233 255
217 233 255
217 233 255
218 233 255
218 233 255
218 233 255
218 233 255
218 233 255
218 233 255
218 233 255
218 233 255
218 233 255
218 233 255
218 234 255
218 234 255
218 234 255
219 234 255
219 234 255
219 234 255
219 234 255
219 234 255
219 234 255
219 234 255
219 234 255
219 234 255
219 234 255
219 234 255
219 234 255
220 234 255
220 234 255
220 234 255
220 234 255
220 234 255
220 234 255
220 234 255
220 235 255
220 235 255
220 235 255
220 235 255
220 235 255
221 235 255
221 235 255
221 235 255
221 235 255
221 235 255
221 235 255
221 235 255
221 235 255
221 235 255
221 235 255
221 235 255
221 235 255
222 235 255
222 235 255
222 235 255
222 235 255
222 236 255
222 236 255
222 236 255
222 236 255
222 236 255
222 236 255
222 236 255
222 236 255
223 236 255
223 236 255
223 236 255
223 236 255
223 236 255
223 236 255
223 236 255
223 236 255
223 236 255
223 236 255
223 236 255
224 236 255
224 237 255
224 237 255
224 237 255
224 237 255
224 237 255
224 237 255
224 237 255
224 237 255
224 237 255
148 208 221
128 201 215
166 213 230
153 209 224
79 190 199
88 192 202
78 190 199
86 191 201
85 191 201
83 191 200
81 191 199
85 191 201
78 190 198
76 190 198
88 192 202
80 191 199
88 192 202
82 191 200
77 190 198
77 190 198
74 190 197
74 190 197
75 190 197
81 191 199
81 191 199
79 190 198
76 190 197
83 191 200
80 191 199
79 190 198
68 189 195
85 191 200
83 191 199
77 190 197
74 190 196
82 191 199
70 189 195
76 190 197
80 191 198
81 191 198
75 190 197
78 191 197
84 192 199
73 190 196
71 190 195
75 190 196
79 191 197
76 190 196
79 191 197
78 191 197
77 191 196
70 190 194
61 188 192
65 189 193
63 189 192
65 189 193
68 189 193
73 190 194
112 198 205
207 230 243
230 240 255
230 240 255
230 240 255
230 240 255
230 240 255
230 240 255
230 240 255
230 240 255
230 240 255
230 240 255
230 240 255
231 240 255
231 240 255
231 241 255
231 241 255
231 241 255
231 241 255
231 241 255
231 241 255
231 241 255
231 241 255
231 241 255
231 241 255
231 241 255
232 241 255
232 241 255
232 241 255
232 241 255
232 241 255
232 241 255
232 241 255
232 241 255
232 241 255
232 241 255
232 241 255
232 241 255
232 242 255
233 242 255
233 242 255
233 242 255
233 242 255
233 242 255
233 242 255
233 242 255
233 242 255
233 242 255
233 242 255
233 242 255
233 242 255
233 242 255
233 242 255
234 242 255
234 242 255
234 242 255
234 242 255
234 242 255
234 242 255
234 242 255
234 242 255
234 243 255
234 243 255
234 243 255
234 243 255
234 243 255
234 243 255
235 243 255
235 243 255
235 243 255
235 243 255
235 243 255
235 243 255
235 243 255
235 243 255
235 243 255
235 243 255
235 243 255
235 243 255
235 243 255
235 243 255
235 243 255
236 243 255
236 243 255
236 243 255
236 243 255
236 243 255
236 243 255
236 244 255
236 244 255
236 244 255
236 244 255
236 244 255
236 244 255
236 244 255
236 244 255
236 244 255
236 244 255
236 244 255
237 244 255
237 244 255
237 244 255
237 244 255
237 244 255
237 244 255
237 244 255
237 244 255
237 244 255
237 244 255
237 244 255
237 244 255
237 244 255
237 244 255
237 244 255
237 244 255
237 244 255
237 244 255
238 244 255
238 245 255
238 245 255
238 245 255
238 245 255
238 245 255
238 245 255
238 245 255
238 245 255
238 245 255
238 245 255
238 245 255
238 245 255
238 245 255
238 245 255
238 245 255
238 245 255
238 245 255
238 245 255
239 245 255
239 245 255
239 245 255
239 245 255
239 245 255
239 245 255
239 245 255
239 245 255
239 245 255
239 245 255
239 245 255
239 245 255
239 245 255
239 245 255
239 245 255
239 245 255
239 245 255
239 245 255
239 246 255
239 246 255
239 246 255
239 246 255
239 246 255
240 246 255
240 246 255
240 246 255
240 246 255
240 246 255
240 246 255
240 246 255
240 246 255
240 246 255
240 246 255
240 246 255
240 246 255
240 246 255
240 246 255
240 246 255
240 246 255
240 246 255
240 246 255
240 246 255
240 246 255
240 246 255
212 230 255
212 230 255
212 230 255
212 230 255
212 230 255
212 230 255
212 230 255
213 230 255
213 230 255
213 230 255
213 230 255
213 230 255
213 231 255
213 231 255
213 231 255
213 231 255
213 231 255
213 231 255
213 231 255
213 231 255
213 231 255
213 231 255
213 231 255
214 231 255
214 231 255
214 231 255
214 231 255
214 231 255
214 231 255
214 231 255
214 231 255
214 231 255
214 231 255
214 231 255
214 231 255
214 231 255
214 231 255
214 231 255
215 231 255
215 231 255
215 232 255
215 232 255
215 232 255
215 232 255
215 232 255
215 232 255
215 232 255
215 232 255
215 232 255
215 232 255
215 232 255
215 232 255
216 232 255
216 232 255
216 232 255
216 232 255
216 232 255
216 232 255
216 232 255
216 232 255
216 232 255
216 232 255
216 232 255
216 232 255
216 232 255
216 232 255
217 233 255
217 233 255
217 233 255
217 233 255
217 233 255
217 233 255
217 233 255
217 233 255
217 233 255
217 233 255
217 233 255
217 233 255
217 233 255
218 233 255
218 233 255
218 233 255
218 233 255
218 233 255
218 233 255
218 233 255
218 233 255
218 233 255
218 233 255
218 234 255
218 234 255
218 234 255
219 234 255
219 234 255
219 234 255
219 234 255
219 234 255
219 234 255
219 234 255
219 234 255
219 234 255
219 234 255
219 234 255
219 234 255
220 234 255
220 234 255
220 234 255
220 234 255
220 234 255
220 234 255
220 234 255
220 235 255
220 235 255
220 235 255
220 235 255
220 235 255
221 235 255
221 235 255
221 235 255
221 235 255
221 235 255
221 235 255
221 235 255
221 235 255
221 235 255
221 235 255
221 235 255
221 235 255
222 235 255
222 235 255
222 235 255
222 235 255
222 236 255
222 236 255
222 236 255
222 236 255
222 236 255
222 236 255
222 236 255
222 236 255
223 236 255
223 236 255
223 236 255
223 236 255
223 236 255
223 236 255
223 236 255
223 236 255
223 236 255
223 236 255
223 236 255
224 236 255
224 237 255
224 237 255
224 237 255
224 237 255
224 237 255
224 237 255
224 237 255
224 237 255
224 237 255
224 237 255
191 223 239
124 200 212
127 201 215
147 207 220
84 191 201
84 191 200
87 192 202
71 189 196
81 191 199
83 191 200
75 190 198
81 191 200
82 191 200
83 191 200
83 191 200
80 191 199
79 190 199
76 190 198
76 190 198
73 190 197
72 189 196
69 189 195
77 190 198
73 190 197
79 190 198
70 189 195
80 191 199
75 190 197
85 191 200
74 190 197
73 190 196
75 190 197
76 190 197
76 190 197
69 189 195
66 189 194
77 190 197
69 189 195
75 190 197
78 191 198
73 190 196
70 189 195
76 190 197
74 190 196
72 190 195
76 190 197
72 190 195
80 191 198
56 188 191
27 186 186
12 185 185
0 185 185
0 185 185
0 185 185
0 185 185
0 185 185
0 185 185
0 185 185
38 186 187
70 190 193
175 218 228
229 240 254
230 240 255
230 240 255
230 240 255
230 240 255
230 240 255
230 240 255
230 240 255
230 240 255
231 240 255
231 240 255
231 241 255
231 241 255
231 241 255
231 241 255
231 241 255
231 241 255
231 241 255
231 241 255
231 241 255
231 241 255
231 241 255
232 241 255
232 241 255
232 241 255
232 241 255
232 241 255
232 241 255
232 241 255
232 241 255
232 241 255
232 241 255
232 241 255
232 242 255
232 242 255
233 242 255
233 242 255
233 242 255
233 242 255
233 242 255
233 242 255
233 242 255
233 242 255
233 242 255
233 242 255
233 242 255
233 242 255
233 242 255
234 242 255
234 242 255
234 242 255
234 242 255
234 242 255
234 242 255
234 242 255
234 242 255
234 242 255
234 243 255
234 243 255
234 243 255
234 243 255
234 243 255
234 243 255
235 243 255
235 243 255
235 243 255
235 243 255
235 243 255
235 243 255
235 243 255
235 243 255
235 243 255
235 243 255
235 243 255
235 243 255
235 243 255
235 243 255
235 243 255
236 243 255
236 243 255
236 243 255
236 243 255
236 243 255
236 243 255
236 244 255
236 244 255
236 244 255
236 244 255
236 244 255
236 244 255
236 244 255
236 244 255
236 244 255
236 244 255
237 244 255
237 244 255
237 244 255
237 244 255
237 244 255
237 244 255
237 244 255
237 244 255
237 244 255
237 244 255
237 244 255
237 244 255
237 244 255
237 244 255
237 244 255
237 244 255
237 244 255
237 244 255
238 244 255
238 244 255
238 245 255
238 245 255
238 245 255
238 245 255
238 245 255
238 245 255
238 245 255
238 245 255
238 245 255
238 245 255
238 245 255
238 245 255
238 245 255
238 245 255
238 245 255
238 245 255
238 245 255
238 245 255
239 245 255
239 245 255
239 245 255
239 245 255
239 245 255
239 245 255
239 245 255
239 245 255
239 245 255
239 245 255
239 245 255
239 245 255
239 245 255
239 245 255
239 245 255
239 245 255
239 245 255
239 246 255
239 246 255
239 246 255
239 246 255
239 246 255
240 246 255
240 246 255
240 246 255
240 246 255
240 246 255
240 246 255
240 246 255
240 246 255
240 246 255
240 246 255
240 246 255
240 246 255
240 246 255
240 246 255
240 246 255
240 246 255
240 246 255
240 246 255
240 246 255
240 246 255
240 246 255
240 246 255
240 246 255
212 230 255
212 230 255
212 230 255
212 230 255
212 230 255
212 230 255
213 230 255
213 230 255
213 230 255
213 230 255
213 230 255
213 230 255
213 231 255
213 231 255
213 231 255
213 231 255
213 231 255
213 231 255
213 231 255
213 231 255
213 231 255
213 231 255
214 231 255
214 231 255
214 231 255
214 231 255
214 231 255
214 231 255
214 231 255
214 231 255
214 231 255
214 231 255
214 231 255
214 231 255
214 231 255
214 231 255
214 231 255
215 231 255
215 231 255
215 232 255
215 232 255
215 232 255
215 232 255
215 232 255
215 232 255
215 232 255
215 232 255
215 232 255
215 232 255
215 232 255
215 232 255
216 232 255
216 232 255
216 232 255
216 232 255
216 232 255
216 232 255
216 232 255
216 232 255
216 232 255
216 232 255
216 232 255
216 232 255
216 232 255
216 232 255
217 233 255
217 233 255
217 233 255
217 233 255
217 233 255
217 233 255
217 233 255
217 233 255
217 233 255
217 233 255
217 233 255
217 233 255
217 233 255
218 233 255
218 233 255
218 233 255
218 233 255
218 233 255
218 233 255
218 233 255
218 233 255
218 233 255
218 233 255
218 234 255
218 234 255
218 234 255
219 234 255
219 234 255
219 234 255
219 234 255
219 234 255
219 234 255
219 234 255
219 234 255
219 234 255
219 234 255
219 234 255
219 234 255
220 234 255
220 234 255
220 234 255
220 234 255
220 234 255
220 234 255
220 234 255
220 235 255
220 235 255
220 235 255
220 235 255
220 235 255
221 235 255
221 235 255
221 235 255
221 235 255
221 235 255
221 235 255
221 235 255
221 235 255
221 235 255
221 235 255
221 235 255
221 235 255
222 235 255
222 235 255
222 235 255
222 235 255
222 236 255
222 236 255
222 236 255
222 236 255
222 236 255
222 236 255
222 236 255
222 236 255
223 236 255
223 236 255
223 236 255
223 236 255
223 236 255
223 236 255
223 236 255
223 236 255
223 236 255
223 236 255
223 236 255
224 236 255
224 236 255
224 237 255
224 237 255
224 237 255
224 237 255
224 237 255
224 237 255
224 237 255
224 237 255
224 237 255
224 237 255
220 235 253
154 209 225
125 201 213
126 200 215
85 191 201
80 191 199
78 190 198
72 190 197
81 191 199
87 192 202
83 191 200
77 190 198
81 191 200
77 190 198
81 191 200
81 191 199
89 192 203
76 190 198
83 191 200
79 191 199
82 191 200
75 190 197
74 190 197
77 190 198
80 191 199
80 191 199
57 188 192
70 189 195
77 190 198
71 189 196
86 192 201
81 191 199
66 189 194
85 192 200
74 190 197
79 191 198
70 189 195
68 189 194
75 190 197
71 190 195
75 190 197
73 190 196
77 190 197
75 190 197
68 189 194
70 189 195
27 186 186
0 185 185
0 185 185
0 185 185
0 185 185
0 185 185
0 185 185
0 185 185
0 185 185
0 185 185
0 185 185
0 185 185
0 185 185
0 185 185
13 185 185
133 204 210
220 236 249
230 240 255
230 240 255
230 240 255
230 240 255
230 240 255
230 240 255
231 240 255
231 240 255
231 241 255
231 241 255
231 241 255
231 241 255
231 241 255
231 241 255
231 241 255
231 241 255
231 241 255
231 241 255
231 241 255
232 241 255
232 241 255
232 241 255
232 241 255
232 241 255
232 241 255
232 241 255
232 241 255
232 241 255
232 241 255
232 241 255
232 242 255
232 242 255
233 242 255
233 242 255
233 242 255
233 242 255
233 242 255
233 242 255
233 242 255
233 242 255
233 242 255
233 242 255
233 242 255
233 242 255
233 242 255
234 242 255
234 242 255
234 242 255
234 242 255
234 242 255
234 242 255
234 242 255
234 242 255
234 242 255
234 243 255
234 243 255
234 243 255
234 243 255
234 243 255
234 243 255
235 243 255
235 243 255
235 243 255
235 243 255
235 243 255
235 243 255
235 243 255
235 243 255
235 243 255
235 243 255
235 243 255
235 243 255
235 243 255
235 243 255
235 243 255
236 243 255
236 243 255
236 243 255
236 243 255
236 243 255
236 244 255
236 244 255
236 244 255
236 244 255
236 244 255
236 244 255
236 244 255
236 244 255
236 244 255
236 244 255
236 244 255
237 244 255
237 244 255
237 244 255
237 244 255
237 244 255
237 244 255
237 244 255
237 244 255
237 244 255
237 244 255
237 244 255
237 244 255
237 244 255
237 244 255
237 244 255
237 244 255
237 244 255
237 244 255
238 244 255
238 245 255
238 245 255
238 245 255
238 245 255
238 245 255
238 245 255
238 245 255
238 245 255
238 245 255
238 245 255
238 245 255
238 245 255
238 245 255
238 245 255
238 245 255
238 245 255
238 245 255
238 245 255
239 245 255
239 245 255
239 245 255
239 245 255
239 245 255
239 245 255
239 245 255
239 245 255
239 245 255
239 245 255
239 245 255
239 245 255
239 245 255
239 245 255
239 245 255
239 245 255
239 245 255
239 245 255
239 246 255
239 246 255
239 246 255
239 246 255
240 246 255
240 246 255
240 246 255
240 246 255
240 246 255
240 246 255
240 246 255
240 246 255
240 246 255
240 246 255
240 246 255
240 246 255
240 246 255
240 246 255
240 246 255
240 246 255
240 246 255
240 246 255
240 246 255
240 246 255
240 246 255
240 246 255
240 246 255
240 246 255
240 246 255
212 230 255
212 230 255
212 230 255
212 230 255
212 230 255
213 230 255
213 230 255
213 230 255
213 230 255
213 230 255
213 230 255
213 231 255
213 231 255
213 231 255
213 231 255
213 231 255
213 231 255
213 231 255
213 231 255
213 231 255
213 231 255
214 231 255
214 231 255
214 231 255
214 231 255
214 231 255
214 231 255
214 231 255
214 231 255
214 231 255
214 231 255
214 231 255
214 231 255
214 231 255
214 231 255
214 231 255
215 231 255
215 231 255
215 232 255
215 232 255
215 232 255
215 232 255
215 232 255
215 232 255
215 232 255
215 232 255
215 232 255
215 232 255
215 232 255
215 232 255
215 232 255
216 232 255
216 232 255
216 232 255
216 232 255
216 232 255
216 232 255
216 232 255
216 232 255
216 232 255
216 232 255
216 232 255
216 232 255
216 232 255
217 233 255
217 233 255
217 233 255
217 233 255
217 233 255
217 233 255
217 233 255
217 233 255
217 233 255
217 233 255
217 233 255
217 233 255
217 233 255
218 233 255
218 233 255
218 233 255
218 233 255
218 233 255
218 233 255
218 233 255
218 233 255
218 233 255
218 233 255
218 234 255
218 234 255
218 234 255
219 234 255
219 234 255
219 234 255
219 234 255
219 234 255
219 234 255
219 234 255
219 234 255
219 234 255
219 234 255
219 234 255
219 234 255
219 234 255
220 234 255
220 234 255
220 234 255
220 234 255
220 234 255
220 234 255
220 235 255
220 235 255
220 235 255
220 235 255
220 235 255
220 235 255
221 235 255
221 235 255
221 235 255
221 235 255
221 235 255
221 235 255
221 235 255
221 235 255
221 235 255
221 235 255
221 235 255
222 235 255
222 235 255
222 235 255
222 235 255
222 236 255
222 236 255
222 236 255
222 236 255
222 236 255
222 236 255
222 236 255
222 236 255
223 236 255
223 236 255
223 236 255
223 236 255
223 236 255
223 236 255
223 236 255
223 236 255
223 236 255
223 236 255
223 236 255
224 236 255
224 236 255
224 237 255
224 237 255
224 237 255
224 237 255
224 237 255
224 237 255
224 237 255
224 237 255
224 237 255
224 237 255
225 237 255
225 237 255
193 224 240
143 206 221
123 200 212
79 191 198
87 192 201
74 190 197
80 191 199
81 191 199
89 192 203
87 192 202
85 191 201
82 191 200
83 191 200
81 191 200
75 190 197
78 190 199
77 190 198
80 191 199
79 190 199
68 189 195
80 191 199
73 190 197
76 190 198
74 190 197
81 191 199
81 191 199
79 191 199
82 191 200
76 190 197
77 190 198
78 190 198
78 190 198
80 191 199
79 191 198
68 189 195
66 189 194
77 190 197
71 190 195
76 190 197
66 189 194
80 191 198
74 190 196
68 189 194
39 186 188
0 185 185
0 185 185
0 185 185
0 185 185
0 185 185
0 185 185
0 185 185
0 185 185
0 185 185
0 185 185
0 185 185
0 185 185
0 185 185
0 185 185
0 185 185
0 185 185
0 185 185
69 190 191
198 227 238
230 240 255
230 240 255
230 240 255
230 240 255
231 240 255
231 240 255
231 241 255
231 241 255
231 241 255
231 241 255
231 241 255
231 241 255
231 241 255
231 241 255
231 241 255
231 241 255
231 241 255
232 241 255
232 241 255
232 241 255
232 241 255
232 241 255
232 241 255
232 241 255
232 241 255
232 241 255
232 241 255
232 241 255
232 242 255
232 242 255
233 242 255
233 242 255
233 242 255
233 242 255
233 242 255
233 242 255
233 242 255
233 242 255
233 242 255
233 242 255
233 242 255
233 242 255
233 242 255
234 242 255
234 242 255
234 242 255
234 242 255
234 242 255
234 242 255
234 242 255
234 242 255
234 242 255
234 243 255
234 243 255
234 243 255
234 243 255
234 243 255
235 243 255
235 243 255
235 243 255
235 243 255
235 243 255
235 243 255
235 243 255
235 243 255
235 243 255
235 243 255
235 243 255
235 243 255
235 243 255
235 243 255
235 243 255
236 243 255
236 243 255
236 243 255
236 243 255
236 243 255
236 243 255
236 244 255
236 244 255
236 244 255
236 244 255
236 244 255
236 244 255
236 244 255
236 244 255
236 244 255
236 244 255
236 244 255
237 244 255
237 244 255
237 244 255
237 244 255
237 244 255
237 244 255
237 244 255
237 244 255
237 244 255
237 244 255
237 244 255
237 244 255
237 244 255
237 244 255
237 244 255
237 244 255
237 244 255
238 244 255
238 244 255
238 245 255
238 245 255
238 245 255
238 245 255
238 245 255
238 245 255
238 245 255
238 245 255
238 245 255
238 245 255
238 245 255
238 245 255
238 245 255
238 245 255
238 245 255
238 245 255
238 245 255
238 245 255
239 245 255
239 245 255
239 245 255
239 245 255
239 245 255
239 245 255
239 245 255
239 245 255
239 245 255
239 245 255
239 245 255
239 245 255
239 245 255
239 245 255
239 245 255
239 245 255
239 245 255
239 246 255
239 246 255
239 246 255
239 246 255
239 246 255
240 246 255
240 246 255
240 246 255
240 246 255
240 246 255
240 246 255
240 246 255
240 246 255
240 246 255
240 246 255
240 246 255
240 246 255
240 246 255
240 246 255
240 246 255
240 246 255
240 246 255
240 246 255
240 246 255
240 246 255
240 246 255
240 246 255
240 246 255
240 246 255
240 246 255
241 246 255
212 230 255
212 230 255
212 230 255
212 230 255
213 230 255
213 230 255
213 230 255
213 230 255
213 230 255
213 230 255
213 231 255
213 231 255
213 231 255
213 231 255
213 231 255
213 231 255
213 231 255
213 231 255
213 231 255
213 231 255
214 231 255
214 231 255
214 231 255
214 231 255
214 231 255
214 231 255
214 231 255
214 231 255
214 231 255
214 231 255
214 231 255
214 231 255
214 231 255
214 231 255
214 231 255
215 231 255
215 231 255
215 231 255
215 232 255
215 232 255
215 232 255
215 232 255
215 232 255
215 232 255
215 232 255
215 232 255
215 232 255
215 232 255
215 232 255
215 232 255
216 232 255
216 232 255
216 232 255
216 232 255
216 232 255
216 232 255
216 232 255
216 232 255
216 232 255
216 232 255
216 232 255
216 232 255
216 232 255
217 233 255
217 233 255
217 233 255
217 233 255
217 233 255
217 233 255
217 233 255
217 233 255
217 233 255
217 233 255
217 233 255
217 233 255
217 233 255
217 233 255
218 233 255
218 233 255
218 233 255
218 233 255
218 233 255
218 233 255
218 233 255
218 233 255
218 233 255
218 234 255
218 234 255
218 234 255
219 234 255
219 234 255
219 234 255
219 234 255
219 234 255
219 234 255
219 234 255
219 234 255
219 234 255
219 234 255
219 234 255
219 234 255
219 234 255
220 234 255
220 234 255
220 234 255
220 234 255
220 234 255
220 234 255
220 235 255
220 235 255
220 235 255
220 235 255
220 235 255
220 235 255
221 235 255
221 235 255
221 235 255
221 235 255
221 235 255
221 235 255
221 235 255
221 235 255
221 235 255
221 235 255
221 235 255
222 235 255
222 235 255
222 235 255
222 235 255
222 236 255
222 236 255
222 236 255
222 236 255
222 236 255
222 236 255
222 236 255
222 236 255
223 236 255
223 236 255
223 236 255
223 236 255
223 236 255
223 236 255
223 236 255
223 236 255
223 236 255
223 236 255
223 236 255
223 236 255
224 236 255
224 237 255
224 237 255
224 237 255
224 237 255
224 237 255
224 237 255
224 237 255
224 237 255
224 237 255
224 237 255
225 237 255
225 237 255
225 237 255
224 237 254
162 212 227
157 210 227
111 197 208
79 191 199
85 191 201
82 191 200
79 190 199
82 191 200
82 191 200
79 190 199
84 191 201
78 190 198
79 190 199
76 190 198
79 190 199
78 190 198
80 191 199
81 191 200
78 190 198
82 191 200
71 189 196
78 190 198
77 190 198
80 191 199
78 190 198
76 190 198
78 190 198
78 190 198
73 190 196
66 189 194
77 190 198
81 191 199
72 190 196
72 190 196
68 189 195
77 190 197
74 190 197
71 189 195
75 190 197
76 190 197
45 187 189
0 185 185
0 185 185
0 185 185
0 185 185
0 185 185
0 185 185
0 185 185
0 185 185
0 185 185
0 185 185
0 185 185
0 185 185
0 185 185
0 185 185
0 185 185
0 185 185
0 185 185
0 185 185
0 185 185
0 185 185
25 186 186
158 212 220
229 240 254
230 240 255
231 240 255
231 240 255
231 241 255
231 241 255
231 241 255
231 241 255
231 241 255
231 241 255
231 241 255
231 241 255
231 241 255
231 241 255
231 241 255
232 241 255
232 241 255
232 241 255
232 241 255
232 241 255
232 241 255
232 241 255
232 241 255
232 241 255
232 241 255
232 241 255
232 242 255
232 242 255
233 242 255
233 242 255
233 242 255
233 242 255
233 242 255
233 242 255
233 242 255
233 242 255
233 242 255
233 242 255
233 242 255
233 242 255
233 242 255
234 242 255
234 242 255
234 242 255
234 242 255
234 242 255
234 242 255
234 242 255
234 242 255
234 242 255
234 243 255
234 243 255
234 243 255
234 243 255
234 243 255
235 243 255
235 243 255
235 243 255
235 243 255
235 243 255
235 243 255
235 243 255
235 243 255
235 243 255
235 243 255
235 243 255
235 243 255
235 243 255
235 243 255
235 243 255
236 243 255
236 243 255
236 243 255
236 243 255
236 243 255
236 243 255
236 244 255
236 244 255
236 244 255
236 244 255
236 244 255
236 244 255
236 244 255
236 244 255
236 244 255
236 244 255
237 244 255
237 244 255
237 244 255
237 244 255
237 244 255
237 244 255
237 244 255
237 244 255
237 244 255
237 244 255
237 244 255
237 244 255
237 244 255
237 244 255
237 244 255
237 244 255
237 244 255
237 244 255
238 244 255
238 245 255
238 245 255
238 245 255
238 245 255
238 245 255
238 245 255
238 245 255
238 245 255
238 245 255
238 245 255
238 245