P3
100 100
255
194 193 226
195 193 225
195 193 225
195 193 225
196 193 224
196 193 224
196 193 224
197 193 223
197 193 223
198 193 223
198 193 222
199 193 222
199 193 222
199 193 221
200 193 221
200 193 221
201 193 220
201 193 220
202 193 219
202 193 219
203 193 219
203 193 218
203 193 218
204 193 218
204 193 217
205 193 217
205 193 216
206 193 216
206 193 215
207 193 215
207 193 214
208 193 214
208 193 213
209 193 213
209 193 212
210 193 212
210 193 211
211 193 211
211 193 211
212 193 210
212 193 209
213 193 209
213 193 208
214 193 208
214 193 207
215 193 207
215 193 206
216 193 206
216 193 205
217 193 205
217 193 204
218 193 204
218 193 203
219 193 203
219 193 202
219 193 202
220 193 201
221 193 200
221 193 200
221 193 199
222 193 199
222 193 198
223 193 198
223 193 197
224 193 197
224 193 196
224 193 196
225 193 195
225 193 195
226 193 194
226 193 194
226 193 193
227 193 193
227 193 192
228 193 192
228 193 191
228 193 191
229 193 190
229 193 190
229 193 190
230 193 189
230 193 189
230 193 188
230 193 188
231 193 188
231 193 187
231 193 187
232 193 186
232 193 186
232 193 186
232 193 185
233 193 185
233 193 184
233 193 184
233 193 184
234 193 183
234 193 183
234 193 183
234 193 183
235 193 182
194 193 225
195 193 225
195 193 225
196 193 225
196 193 224
196 193 224
197 193 224
197 193 223
197 193 223
198 193 223
198 193 222
199 193 222
199 193 222
200 193 221
200 193 221
200 193 220
201 193 220
201 193 220
202 193 219
202 193 219
203 193 218
203 193 218
204 193 218
204 193 217
205 193 217
205 193 216
205 193 216
206 193 215
206 193 215
207 193 215
207 193 214
208 193 214
208 193 213
209 193 213
209 193 212
210 193 212
210 193 211
211 193 211
212 193 210
212 193 210
213 193 209
213 193 208
213 193 208
214 193 208
214 193 207
215 193 206
215 193 206
216 193 205
216 193 205
217 193 204
217 193 204
218 193 203
218 193 203
219 193 202
219 193 202
220 193 201
220 193 201
221 193 200
221 193 199
222 193 199
222 193 198
223 193 198
223 193 197
224 193 197
224 193 196
224 193 196
225 193 195
225 193 195
226 193 194
226 193 194
226 193 193
227 193 193
227 193 192
228 193 192
228 193 191
228 193 191
228 193 191
229 193 190
229 193 189
230 193 189
230 193 189
230 193 188
231 193 188
231 193 187
231 193 187
231 193 187
232 193 186
232 193 186
232 193 185
233 193 185
233 193 185
233 193 184
233 193 184
234 193 184
234 193 183
234 193 183
234 193 183
234 193 182
235 193 182
235 193 182
195 193 225
195 193 225
195 193 225
196 193 224
196 193 224
196 193 224
197 193 223
197 193 223
198 193 223
198 193 222
198 193 222
199 193 222
199 193 221
200 193 221
200 193 221
201 193 220
201 193 220
202 193 220
202 193 219
202 193 219
203 193 218
203 193 218
204 193 218
204 193 217
205 193 217
205 193 216
206 193 216
206 193 215
207 193 215
207 193 214
208 193 214
208 193 213
209 193 213
209 193 212
210 193 212
210 193 211
211 193 211
211 193 210
212 193 210
212 193 209
213 193 209
213 193 208
214 193 208
214 193 207
215 193 207
215 193 206
216 193 205
216 193 205
217 193 205
217 193 204
218 193 203
218 193 203
219 193 202
219 193 202
220 193 201
220 193 201
221 193 200
221 193 199
222 193 199
222 193 198
223 193 198
223 193 197
223 193 197
224 193 196
224 193 196
225 193 195
225 193 195
226 193 194
226 193 194
226 193 193
227 193 193
227 193 192
228 193 192
228 193 191
228 193 191
229 193 190
229 193 190
229 193 189
230 193 189
230 193 189
230 193 188
231 193 188
231 193 187
231 193 187
232 193 186
232 193 186
232 193 186
232 193 185
233 193 185
233 193 184
233 193 184
233 193 184
234 193 183
234 193 183
234 193 183
234 193 183
235 193 182
235 193 182
235 193 181
235 193 181
195 193 225
195 193 225
196 193 225
196 193 224
196 193 224
197 193 224
197 193 223
198 193 223
198 193 223
198 193 222
199 193 222
199 193 222
199 193 221
200 193 221
200 193 220
201 193 220
201 193 220
202 193 219
202 193 219
203 193 219
203 193 218
204 193 218
204 193 217
205 193 217
205 193 216
206 193 216
206 193 216
206 193 215
207 193 215
208 193 214
208 193 214
208 193 213
209 193 212
210 193 212
210 193 212
211 193 211
211 193 211
212 193 210
212 193 209
213 193 209
213 193 208
214 193 208
214 193 207
215 193 207
215 193 206
216 193 206
216 193 205
217 193 205
217 193 204
218 193 204
218 193 203
219 193 202
219 193 202
220 193 201
220 193 201
221 193 200
221 193 200
222 193 199
222 193 199
223 193 198
223 193 198
223 193 197
224 193 196
224 193 196
225 193 195
225 193 195
226 193 194
226 193 194
226 193 193
227 193 193
227 193 192
228 193 192
228 193 191
228 193 191
229 193 190
229 193 190
229 193 190
230 193 189
230 193 188
230 193 188
231 193 188
231 193 187
231 193 187
232 193 186
232 193 186
232 193 186
233 193 185
233 193 185
233 193 184
233 193 184
234 193 184
234 193 183
234 193 183
234 193 183
234 193 182
235 193 182
235 193 182
235 193 181
235 193 181
236 193 181
195 193 225
195 193 225
196 193 224
196 193 224
196 193 224
197 193 223
197 193 223
198 193 223
198 193 222
199 193 222
199 193 222
199 193 221
200 193 221
200 193 221
201 193 220
201 193 220
202 193 219
202 193 219
202 193 219
203 193 218
203 193 218
204 193 217
204 193 217
205 193 217
205 193 216
206 193 216
206 193 215
207 193 215
207 193 214
208 193 214
208 193 213
209 193 213
209 193 212
210 193 212
210 193 211
211 193 211
211 193 210
212 193 210
212 193 209
213 193 209
213 193 208
214 193 208
215 193 207
215 193 206
215 193 206
216 193 205
217 193 205
217 193 204
218 193 204
218 193 203
219 193 203
219 193 202
220 193 201
220 193 201
221 193 200
221 193 200
222 193 199
222 193 199
223 193 198
223 193 198
224 193 197
224 193 196
224 193 196
225 193 195
225 193 195
226 193 194
226 193 194
226 193 193
227 193 193
227 193 192
228 193 192
228 193 191
228 193 191
229 193 190
229 193 190
229 193 189
230 193 189
230 193 188
230 193 188
231 193 188
231 193 187
231 193 187
232 193 186
232 193 186
232 193 185
233 193 185
233 193 184
233 193 184
233 193 184
234 193 183
234 193 183
234 193 183
234 193 182
235 193 182
235 193 182
235 193 181
235 193 181
236 193 181
236 193 180
236 193 180
195 193 225
196 193 225
196 193 224
196 193 224
197 193 224
197 193 223
197 193 223
198 193 223
198 193 222
199 193 222
199 193 222
199 193 221
200 193 221
200 193 221
201 193 220
201 193 220
202 193 219
202 193 219
202 193 219
203 193 218
204 193 218
204 193 217
205 193 217
205 193 216
205 193 216
206 193 215
207 193 215
207 193 215
208 193 214
208 193 213
209 193 213
209 193 213
209 193 212
210 193 212
211 193 211
211 193 211
212 193 210
212 193 209
213 193 209
213 193 208
214 193 208
214 193 207
215 193 207
215 193 206
216 193 206
216 193 205
217 193 204
217 193 204
218 193 203
218 193 203
219 193 202
219 193 202
220 193 201
220 193 200
221 193 200
221 193 199
222 193 199
222 193 198
223 193 198
223 193 197
224 193 196
224 193 196
225 193 195
225 193 195
226 193 194
226 193 194
226 193 193
227 193 193
227 193 192
228 193 192
228 193 191
228 193 191
229 193 190
229 193 190
229 193 189
230 193 189
230 193 188
231 193 188
231 193 187
231 193 187
231 193 187
232 193 186
232 193 186
232 193 185
233 193 185
233 193 184
233 193 184
234 193 184
234 193 183
234 193 183
234 193 183
235 193 182
235 193 182
235 193 181
235 193 181
235 193 181
236 193 180
236 193 180
236 193 180
236 193 180
195 193 225
196 193 224
196 193 224
196 193 224
197 193 224
197 193 223
198 193 223
198 193 222
198 193 222
199 193 222
199 193 221
200 193 221
200 193 221
201 193 220
201 193 220
202 193 220
202 193 219
202 193 219
203 193 218
203 193 218
204 193 217
204 193 217
205 193 217
205 193 216
206 193 216
206 193 215
207 193 215
207 193 214
208 193 214
208 193 213
209 193 213
209 193 212
210 193 212
210 193 211
211 193 211
211 193 210
212 193 209
212 193 209
213 193 209
214 193 208
214 193 208
215 193 207
215 193 206
215 193 206
216 193 205
217 193 205
217 193 204
218 193 204
218 193 203
219 193 202
219 193 202
220 193 201
220 193 201
221 193 200
221 193 199
222 193 199
222 193 198
223 193 198
223 193 197
224 193 197
224 193 196
225 193 196
225 193 195
225 193 194
226 193 194
226 193 193
227 193 193
227 193 192
227 193 192
228 193 191
229 193 190
229 193 190
229 193 190
230 193 189
230 193 189
230 193 188
231 193 188
231 193 187
231 193 187
232 193 186
232 193 186
232 193 185
233 193 185
233 193 185
233 193 184
233 193 184
234 193 183
234 193 183
234 193 183
235 193 182
235 193 182
235 193 182
235 193 181
235 193 181
236 193 181
236 193 180
236 193 180
236 193 180
237 193 179
237 193 179
195 193 225
196 193 224
196 193 224
197 193 224
197 193 223
197 193 223
198 193 223
198 193 222
199 193 222
199 193 222
199 193 221
200 193 221
200 193 221
201 193 220
201 193 220
202 193 219
202 193 219
203 193 219
203 193 218
203 193 218
204 193 217
205 193 217
205 193 216
205 193 216
206 193 215
206 193 215
207 193 215
208 193 214
208 193 213
209 193 213
209 193 212
210 193 212
210 193 211
211 193 211
211 193 210
212 193 210
212 193 209
213 193 209
213 193 208
214 193 208
215 193 207
215 193 207
216 193 206
216 193 205
217 193 205
217 193 204
218 193 204
218 193 203
219 193 202
219 193 202
220 193 201
220 193 201
221 193 200
221 193 199
222 193 199
222 193 198
223 193 198
223 193 197
224 193 197
224 193 196
225 193 196
225 193 195
225 193 195
226 193 194
226 193 193
227 193 193
227 193 192
228 193 192
228 193 191
228 193 191
229 193 190
229 193 190
229 193 189
230 193 188
230 193 188
231 193 188
231 193 187
231 193 187
232 193 186
232 193 186
232 193 185
233 193 185
233 193 185
233 193 184
234 193 184
234 193 183
234 193 183
234 193 183
235 193 182
235 193 182
235 193 181
235 193 181
236 193 181
236 193 180
236 193 180
236 193 180
236 193 180
237 193 179
237 193 179
237 193 179
196 193 225
196 193 224
196 193 224
197 193 223
197 193 223
198 193 223
198 193 223
198 193 222
199 193 222
199 193 221
200 193 221
200 193 221
200 193 220
201 193 220
201 193 220
202 193 219
202 193 219
203 193 218
203 193 218
204 193 217
204 193 217
205 193 217
205 193 216
206 193 216
206 193 215
207 193 215
207 193 214
208 193 214
208 193 213
209 193 213
209 193 212
210 193 212
210 193 211
211 193 211
212 193 210
212 193 210
213 193 209
213 193 208
214 193 208
214 193 207
215 193 207
215 193 206
216 193 205
216 193 205
217 193 205
218 193 204
218 193 203
219 193 203
219 193 202
219 193 202
220 193 201
221 193 200
221 193 200
221 193 199
222 193 199
223 193 198
223 193 197
224 193 197
224 193 196
224 193 196
225 193 195
225 193 195
226 193 194
226 193 193
227 193 193
227 193 192
228 193 192
228 193 191
228 193 191
229 193 190
229 193 189
229 193 189
230 193 189
230 193 188
231 193 188
231 193 187
232 193 186
232 193 186
232 193 186
232 193 185
233 193 185
233 193 184
233 193 184
234 193 183
234 193 183
234 193 183
234 193 182
235 193 182
235 193 182
235 193 181
235 193 181
236 193 180
236 193 180
236 193 180
236 193 179
237 193 179
237 193 179
237 193 179
237 193 178
237 193 178
196 193 224
196 193 224
197 193 224
197 193 223
198 193 223
198 193 223
198 193 222
199 193 222
199 193 222
199 193 221
200 193 221
200 193 221
201 193 220
201 193 220
202 193 219
202 193 219
203 193 218
203 193 218
204 193 218
204 193 217
205 193 217
205 193 216
206 193 216
206 193 215
207 193 215
207 193 214
208 193 214
208 193 213
209 193 213
209 193 212
210 193 212
210 193 211
211 193 211
211 193 210
212 193 210
212 193 209
213 193 209
213 193 208
214 193 207
214 193 207
215 193 207
216 193 206
216 193 205
217 193 205
217 193 204
218 193 203
218 193 203
219 193 202
219 193 202
220 193 201
220 193 200
221 193 200
221 193 199
222 193 199
223 193 198
223 193 197
224 193 197
224 193 196
224 193 196
225 193 195
225 193 195
226 193 194
226 193 193
227 193 193
227 193 192
228 193 192
228 193 191
228 193 191
229 193 190
229 193 190
230 193 189
230 193 188
230 193 188
231 193 187
231 193 187
232 193 186
232 193 186
232 193 186
233 193 185
233 193 185
233 193 184
234 193 184
234 193 183
234 193 183
234 193 182
235 193 182
235 193 182
235 193 181
235 193 181
236 193 181
236 193 180
236 193 180
236 193 179
237 193 179
237 193 179
237 193 179
237 193 178
237 193 178
238 193 178
238 193 177
196 193 224
196 193 224
197 193 223
197 193 223
198 193 223
198 193 222
198 193 222
199 193 222
199 193 221
200 193 221
200 193 221
201 193 220
201 193 220
201 193 220
202 193 219
202 193 219
203 193 218
203 193 218
204 193 217
204 193 217
205 193 216
205 193 216
206 193 216
206 193 215
207 193 215
207 193 214
208 193 214
208 193 213
209 193 213
209 193 212
210 193 212
211 193 211
211 193 211
212 193 210
212 193 210
213 193 209
213 193 208
214 193 208
214 193 207
215 193 207
215 193 206
216 193 205
216 193 205
217 193 204
218 193 204
218 193 203
219 193 202
219 193 202
220 193 201
220 193 201
221 193 200
221 193 199
222 193 199
222 193 198
223 193 198
223 193 197
224 193 196
224 193 196
225 193 195
225 193 194
226 193 194
226 193 193
227 193 193
227 193 192
228 193 192
228 193 191
228 193 191
229 193 190
229 193 189
230 193 189
230 193 188
230 193 188
231 193 187
231 193 187
232 193 186
232 193 186
232 193 185
233 193 185
233 193 184
233 193 184
234 193 184
234 193 183
234 193 183
234 193 182
235 193 182
235 193 182
235 193 181
236 193 181
236 193 180
236 193 180
236 193 180
237 193 179
237 193 179
237 193 179
237 193 178
237 193 178
238 193 178
238 193 177
238 193 177
238 193 177
196 193 224
197 193 224
197 193 223
197 193 223
198 193 223
198 193 222
199 193 222
199 193 222
199 193 221
200 193 221
200 193 220
201 193 220
201 193 220
202 193 219
202 193 219
203 193 218
203 193 218
204 193 218
204 193 217
204 193 217
205 193 216
206 193 216
206 193 215
207 193 215
207 193 214
208 193 214
208 193 213
209 193 213
209 193 212
210 193 212
210 193 211
211 193 211
211 193 210
212 193 210
212 193 209
213 193 208
214 193 208
214 193 207
215 193 207
215 193 206
216 193 206
216 193 205
217 193 204
218 193 204
218 193 203
218 193 203
219 193 202
220 193 201
220 193 201
221 193 200
221 193 200
222 193 199
222 193 198
223 193 198
223 193 197
224 193 196
224 193 196
225 193 195
225 193 195
226 193 194
226 193 194
227 193 193
227 193 192
228 193 192
228 193 191
229 193 190
229 193 190
229 193 189
230 193 189
230 193 188
230 193 188
231 193 188
231 193 187
232 193 186
232 193 186
232 193 185
233 193 185
233 193 184
233 193 184
234 193 183
234 193 183
234 193 183
234 193 182
235 193 182
235 193 181
235 193 181
236 193 181
236 193 180
236 193 180
236 193 179
237 193 179
237 193 179
237 193 178
237 193 178
238 193 178
238 193 177
238 193 177
238 193 177
238 193 176
238 193 176
196 193 224
197 193 223
197 193 223
198 193 223
198 193 222
198 193 222
199 193 222
199 193 222
200 193 221
200 193 221
201 193 220
201 193 220
201 193 220
202 193 219
202 193 219
203 193 218
203 193 218
204 193 217
204 193 217
205 193 217
205 193 216
206 193 216
206 193 215
207 193 215
207 193 214
208 193 214
208 193 213
209 193 212
210 193 212
210 193 212
211 193 211
211 193 210
212 193 210
212 193 209
213 193 209
213 193 208
214 193 207
214 193 207
215 193 207
216 193 206
216 193 205
217 193 205
217 193 204
218 193 203
218 193 203
219 193 202
220 193 202
220 193 201
220 193 200
221 193 200
222 193 199
222 193 198
223 193 198
223 193 197
224 193 196
224 193 196
225 193 195
225 193 195
226 193 194
226 193 193
227 193 193
227 193 192
228 193 192
228 193 191
228 193 191
229 193 190
229 193 190
230 193 189
230 193 188
231 193 188
231 193 187
231 193 187
232 193 186
232 193 186
232 193 185
233 193 185
233 193 184
233 193 184
234 193 183
234 193 183
235 193 182
235 193 182
235 193 182
235 193 181
236 193 181
236 193 180
236 193 180
236 193 180
237 193 179
237 193 179
237 193 179
237 193 178
237 193 178
238 193 178
238 193 177
238 193 177
238 193 177
239 193 176
239 193 176
239 193 176
197 193 224
197 193 223
197 193 223
198 193 223
198 193 222
199 193 222
199 193 222
200 193 221
200 193 221
200 193 221
201 193 220
201 193 220
202 193 219
202 193 219
203 193 218
203 193 218
204 193 218
204 193 217
205 193 217
205 193 216
205 193 216
206 193 215
207 193 215
207 193 214
208 193 214
208 193 213
209 193 213
209 193 212
210 193 212
210 193 211
211 193 211
212 193 210
212 193 210
213 193 209
213 193 208
214 193 208
214 193 207
215 193 207
215 193 206
216 193 205
217 193 205
217 193 204
218 193 204
218 193 203
219 193 202
219 193 202
220 193 201
220 193 201
221 193 200
222 193 199
222 193 198
223 193 198
223 193 197
224 193 197
224 193 196
225 193 195
225 193 195
226 193 194
226 193 194
227 193 193
227 193 192
228 193 192
228 193 191
228 193 191
229 193 190
229 193 189
230 193 189
230 193 188
231 193 188
231 193 187
231 193 187
232 193 186
232 193 186
233 193 185
233 193 184
233 193 184
234 193 184
234 193 183
234 193 183
234 193 182
235 193 182
235 193 181
235 193 181
236 193 180
236 193 180
236 193 180
237 193 179
237 193 179
237 193 179
237 193 178
237 193 178
238 193 177
238 193 177
238 193 177
238 193 177
239 193 176
239 193 176
239 193 176
239 193 175
239 193 175
197 193 223
197 193 223
198 193 223
198 193 223
198 193 222
199 193 222
199 193 221
200 193 221
200 193 221
201 193 220
201 193 220
201 193 220
202 193 219
202 193 219
203 193 218
203 193 218
204 193 217
204 193 217
205 193 216
205 193 216
206 193 216
207 193 215
207 193 215
207 193 214
208 193 214
209 193 213
209 193 213
209 193 212
210 193 211
211 193 211
211 193 210
212 193 210
212 193 209
213 193 209
213 193 208
214 193 208
214 193 207
215 193 206
216 193 206
216 193 205
217 193 204
218 193 204
218 193 203
219 193 202
219 193 202
220 193 201
220 193 201
221 193 200
221 193 199
222 193 199
222 193 198
223 193 197
224 193 197
224 193 196
225 193 195
225 193 195
226 193 194
226 193 193
227 193 193
227 193 192
228 193 192
228 193 191
229 193 190
229 193 190
229 193 189
230 193 189
230 193 188
231 193 188
231 193 187
231 193 187
232 193 186
232 193 185
233 193 185
233 193 185
233 193 184
234 193 183
234 193 183
234 193 182
235 193 182
235 193 181
235 193 181
236 193 181
236 193 180
236 193 180
236 193 179
237 193 179
237 193 179
237 193 178
237 193 178
237 193 178
238 193 177
238 193 177
238 193 176
238 193 176
239 193 176
239 193 176
239 193 175
239 193 175
239 193 175
240 193 174
197 193 223
197 193 223
198 193 223
198 193 222
199 193 222
199 193 222
199 193 221
200 193 221
200 193 220
201 193 220
201 193 220
202 193 219
202 193 219
203 193 219
203 193 218
204 193 218
204 193 217
205 193 217
205 193 216
206 193 216
206 193 215
207 193 215
207 193 214
208 193 214
208 193 213
209 193 213
209 193 212
210 193 212
211 193 211
211 193 211
212 193 210
212 193 210
213 193 209
213 193 208
214 193 208
214 193 207
215 193 206
216 193 206
216 193 205
217 193 205
217 193 204
218 193 203
218 193 203
219 193 202
219 193 202
220 193 201
221 193 200
221 193 200
222 193 199
223 193 198
223 193 197
223 193 197
224 193 196
225 193 195
225 193 195
226 193 194
226 193 194
226 193 193
227 193 192
228 193 192
228 193 191
229 193 190
229 193 190
229 193 189
230 193 189
230 193 188
231 193 188
231 193 187
232 193 186
232 193 186
232 193 185
233 193 185
233 193 184
233 193 184
234 193 183
234 193 183
234 193 182
235 193 182
235 193 181
235 193 181
236 193 180
236 193 180
236 193 180
237 193 179
237 193 179
237 193 179
237 193 178
237 193 178
238 193 177
238 193 177
238 193 177
238 193 176
239 193 176
239 193 176
239 193 175
239 193 175
239 193 175
239 193 175
240 193 174
240 193 174
197 193 223
198 193 223
198 193 222
198 193 222
199 193 222
199 193 221
200 193 221
200 193 221
201 193 220
201 193 220
202 193 220
202 193 219
202 193 219
203 193 218
204 193 218
204 193 217
204 193 217
205 193 216
206 193 216
206 193 215
207 193 215
207 193 214
207 193 214
208 193 214
209 193 213
209 193 212
210 193 212
210 193 211
211 193 211
211 193 210
212 193 210
212 193 209
213 193 209
214 193 208
214 193 207
215 193 207
215 193 206
216 193 205
217 193 205
217 193 204
218 193 204
218 193 203
219 193 202
219 193 202
220 193 201
221 193 200
221 193 200
222 193 199
222 193 198
223 193 198
223 193 197
224 193 196
224 193 196
225 193 195
226 193 194
226 193 194
226 193 193
227 193 192
228 193 192
228 193 191
229 193 190
229 193 190
229 193 189
230 193 189
230 193 188
231 193 188
231 193 187
231 193 187
232 193 186
232 193 185
233 193 185
233 193 184
233 193 184
234 193 183
234 193 183
235 193 182
235 193 182
235 193 182
236 193 181
236 193 180
236 193 180
236 193 179
237 193 179
237 193 179
237 193 178
237 193 178
238 193 177
238 193 177
238 193 177
238 193 176
239 193 176
239 193 176
239 193 175
239 193 175
240 193 175
240 193 175
240 193 174
240 193 174
240 193 174
240 193 173
198 193 223
198 193 223
198 193 222
199 193 222
199 193 222
200 193 221
200 193 221
200 193 221
201 193 220
201 193 220
202 193 219
202 193 219
203 193 218
203 193 218
204 193 218
204 193 217
205 193 217
205 193 216
206 193 216
206 193 215
207 193 215
207 193 214
208 193 214
208 193 213
209 193 213
210 193 212
210 193 212
211 193 211
211 193 211
212 193 210
212 193 209
213 193 209
213 193 208
214 193 207
215 193 207
215 193 206
216 193 206
216 193 205
217 193 204
217 193 204
218 193 203
219 193 203
219 193 202
220 193 201
221 193 200
221 193 200
221 193 199
222 193 199
223 193 198
223 193 197
224 193 197
224 193 196
225 193 195
225 193 194
226 193 194
227 193 193
227 193 192
227 193 192
228 193 191
228 193 191
229 193 190
229 193 189
230 193 189
230 193 188
231 193 188
231 193 187
232 193 186
232 193 186
232 193 185
233 193 184
233 193 184
234 193 184
234 193 183
234 193 182
235 193 182
235 193 182
235 193 181
236 193 181
236 193 180
236 193 180
237 193 179
237 193 179
237 193 178
237 193 178
238 193 178
238 193 177
238 193 177
238 193 176
239 193 176
239 193 176
239 193 176
239 193 175
239 193 175
240 193 174
240 193 174
240 193 174
240 193 173
240 193 173
241 193 173
241 193 173
198 193 223
198 193 222
198 193 222
199 193 222
199 193 221
200 193 221
200 193 221
201 193 220
201 193 220
202 193 220
202 193 219
203 193 219
203 193 218
203 193 218
204 193 217
204 193 217
205 193 216
206 193 216
206 193 216
207 193 215
207 193 215
208 193 214
208 193 213
209 193 213
209 193 212
210 193 212
210 193 211
211 193 211
212 193 210
212 193 209
213 193 209
213 193 208
214 193 208
214 193 207
215 193 207
216 193 206
216 193 205
217 193 205
217 193 204
218 193 204
218 193 203
219 193 202
220 193 201
220 193 201
221 193 200
221 193 199
222 193 199
223 193 198
223 193 197
224 193 197
224 193 196
225 193 195
225 193 195
226 193 194
226 193 193
227 193 193
228 193 192
228 193 191
228 193 191
229 193 190
229 193 189
230 193 189
230 193 188
231 193 187
231 193 187
232 193 186
232 193 186
232 193 185
233 193 184
233 193 184
234 193 183
234 193 183
234 193 182
235 193 182
235 193 182
236 193 181
236 193 180
236 193 180
236 193 179
237 193 179
237 193 179
237 193 178
237 193 178
238 193 177
238 193 177
238 193 177
239 193 176
239 193 176
239 193 175
239 193 175
239 193 175
240 193 174
240 193 174
240 193 174
240 193 173
240 193 173
241 193 173
241 193 173
241 193 172
241 193 172
198 193 223
198 193 222
199 193 222
199 193 221
199 193 221
200 193 221
200 193 220
201 193 220
201 193 220
202 193 219
202 193 219
203 193 218
203 193 218
204 193 218
204 193 217
205 193 217
205 193 216
206 193 216
206 193 215
207 193 215
207 193 214
208 193 214
209 193 213
209 193 213
210 193 212
210 193 212
211 193 211
211 193 210
212 193 210
213 193 209
213 193 209
214 193 208
214 193 208
215 193 207
215 193 206
216 193 206
217 193 205
217 193 204
218 193 204
218 193 203
219 193 202
219 193 202
220 193 201
221 193 200
221 193 200
222 193 199
222 193 198
223 193 197
223 193 197
224 193 196
225 193 195
225 193 195
226 193 194
226 193 194
227 193 193
227 193 192
228 193 191
228 193 191
229 193 190
229 193 190
230 193 189
230 193 188
231 193 187
231 193 187
232 193 186
232 193 186
232 193 185
233 193 185
233 193 184
234 193 183
234 193 183
235 193 182
235 193 182
235 193 181
236 193 181
236 193 180
236 193 180
237 193 179
237 193 179
237 193 178
237 193 178
238 193 177
238 193 177
238 193 177
238 193 176
239 193 176
239 193 175
239 193 175
239 193 175
240 193 174
240 193 174
240 193 174
240 193 173
240 193 173
241 193 173
241 193 172
241 193 172
241 193 172
241 193 172
241 193 172
198 193 222
199 193 222
199 193 222
199 193 221
200 193 221
200 193 221
201 193 220
201 193 220
202 193 219
202 193 219
202 193 219
203 193 218
204 193 218
204 193 217
204 193 217
205 193 216
206 193 216
206 193 215
206 193 215
207 193 215
208 193 214
208 193 213
209 193 213
209 193 212
210 193 212
210 193 211
211 193 211
211 193 210
212 193 209
213 193 209
213 193 208
214 193 208
214 193 207
215 193 206
216 193 206
216 193 205
217 193 205
218 193 204
218 193 203
219 193 202
219 193 202
220 193 201
221 193 200
221 193 200
222 193 199
222 193 199
223 193 198
223 193 197
224 193 196
225 193 196
225 193 195
226 193 194
226 193 194
227 193 193
227 193 192
228 193 192
228 193 191
229 193 190
229 193 190
230 193 189
230 193 188
231 193 188
231 193 187
232 193 186
232 193 185
233 193 185
233 193 184
234 193 184
234 193 183
234 193 183
235 193 182
235 193 182
235 193 181
236 193 181
236 193 180
236 193 179
237 193 179
237 193 178
237 193 178
238 193 178
238 193 177
238 193 177
238 193 176
239 193 176
239 193 175
239 193 175
239 193 175
240 193 174
240 193 174
240 193 174
240 193 173
240 193 173
241 193 173
241 193 172
241 193 172
241 193 172
241 193 172
242 193 171
242 193 171
242 193 171
199 193 222
199 193 222
199 193 222
200 193 221
200 193 221
201 193 220
201 193 220
201 193 220
202 193 219
202 193 219
203 193 218
203 193 218
204 193 217
204 193 217
205 193 217
205 193 216
206 193 216
206 193 215
207 193 215
207 193 214
208 193 214
208 193 213
209 193 212
210 193 212
210 193 211
211 193 211
211 193 210
212 193 210
212 193 209
213 193 209
213 193 208
214 193 207
215 193 207
215 193 206
216 193 205
217 193 205
217 193 204
218 193 203
219 193 203
219 193 202
220 193 201
220 193 201
221 193 200
222 193 199
222 193 199
223 193 198
223 193 197
224 193 197
224 193 196
225 193 195
226 193 194
226 193 194
227 193 193
227 193 193
228 193 192
228 193 191
229 193 190
229 193 190
230 193 189
230 193 188
231 193 188
231 193 187
232 193 186
232 193 186
233 193 185
233 193 184
233 193 184
234 193 183
234 193 183
235 193 182
235 193 181
236 193 181
236 193 180
236 193 180
236 193 179
237 193 179
237 193 178
237 193 178
238 193 177
238 193 177
238 193 177
239 193 176
239 193 176
239 193 175
239 193 175
239 193 175
240 193 174
240 193 174
240 193 174
240 193 173
241 193 173
241 193 172
241 193 172
241 193 172
241 193 172
242 193 171
242 193 171
242 193 171
242 193 170
242 193 170
199 193 222
199 193 222
200 193 221
200 193 221
200 193 221
201 193 220
201 193 220
202 193 219
202 193 219
203 193 219
203 193 218
203 193 218
204 193 217
205 193 217
205 193 216
206 193 216
206 193 215
207 193 215
207 193 214
208 193 214
208 193 213
209 193 213
209 193 212
210 193 211
210 193 211
211 193 210
212 193 210
212 193 209
213 193 209
213 193 208
214 193 207
215 193 207
215 193 206
216 193 206
216 193 205
217 193 204
218 193 204
218 193 203
219 193 202
219 193 202
220 193 201
221 193 200
221 193 200
222 193 199
222 193 198
223 193 197
224 193 197
224 193 196
225 193 195
225 193 195
226 193 194
226 193 193
227 193 192
228 193 192
228 193 191
229 193 190
229 193 190
230 193 189
230 193 188
231 193 188
231 193 187
232 193 186
232 193 186
233 193 185
233 193 184
233 193 184
234 193 183
234 193 182
235 193 182
235 193 181
236 193 181
236 193 180
236 193 180
237 193 179
237 193 179
237 193 178
238 193 178
238 193 177
238 193 177
238 193 176
239 193 176
239 193 175
239 193 175
239 193 175
240 193 174
240 193 174
240 193 173
240 193 173
241 193 173
241 193 172
241 193 172
241 193 172
241 193 171
242 193 171
242 193 171
242 193 171
242 193 170
242 193 170
242 193 170
243 193 170
199 193 222
199 193 221
200 193 221
200 193 221
201 193 220
201 193 220
201 193 220
202 193 219
203 193 219
203 193 218
203 193 218
204 193 218
204 193 217
205 193 217
205 193 216
206 193 216
206 193 215
207 193 215
207 193 214
208 193 214
209 193 213
209 193 212
210 193 212
210 193 211
211 193 211
212 193 210
212 193 210
213 193 209
213 193 208
214 193 208
214 193 207
215 193 207
216 193 206
216 193 205
217 193 204
217 193 204
218 193 203
219 193 203
219 193 202
220 193 201
221 193 200
221 193 200
222 193 199
222 193 198
223 193 198
224 193 197
224 193 196
225 193 195
225 193 195
226 193 194
226 193 193
227 193 193
227 193 192
228 193 191
229 193 190
229 193 190
230 193 189
230 193 188
231 193 188
231 193 187
232 193 186
232 193 185
233 193 185
233 193 184
233 193 184
234 193 183
234 193 182
235 193 182
235 193 181
235 193 181
236 193 180
236 193 180
237 193 179
237 193 178
237 193 178
238 193 177
238 193 177
238 193 176
239 193 176
239 193 175
239 193 175
239 193 175
240 193 174
240 193 174
240 193 173
240 193 173
241 193 173
241 193 173
241 193 172
241 193 172
241 193 171
242 193 171
242 193 171
242 193 170
242 193 170
242 193 170
242 193 170
243 193 170
243 193 169
243 193 169
199 193 221
200 193 221
200 193 221
200 193 220
201 193 220
201 193 220
202 193 219
202 193 219
203 193 219
203 193 218
204 193 218
204 193 217
205 193 217
205 193 216
206 193 216
206 193 215
207 193 215
207 193 214
208 193 214
208 193 213
209 193 213
209 193 212
210 193 212
211 193 211
211 193 211
212 193 210
212 193 209
213 193 209
214 193 208
214 193 207
215 193 207
215 193 206
216 193 205
216 193 205
217 193 204
218 193 203
219 193 203
219 193 202
220 193 201
220 193 201
221 193 200
222 193 199
222 193 199
223 193 198
223 193 197
224 193 196
225 193 195
225 193 195
226 193 194
226 193 193
227 193 193
227 193 192
228 193 191
229 193 190
229 193 190
230 193 189
230 193 188
231 193 188
231 193 187
232 193 186
232 193 186
233 193 185
233 193 184
234 193 184
234 193 183
234 193 182
235 193 182
235 193 181
236 193 181
236 193 180
236 193 179
237 193 179
237 193 178
238 193 178
238 193 177
238 193 177
238 193 176
239 193 176
239 193 175
239 193 175
239 193 175
240 193 174
240 193 174
240 193 173
241 193 173
241 193 173
241 193 172
241 193 172
241 193 171
242 193 171
242 193 171
242 193 171
242 193 170
242 193 170
242 193 170
243 193 169
243 193 169
243 193 169
243 193 169
243 193 168
199 193 221
200 193 221
200 193 221
201 193 220
201 193 220
202 193 219
202 193 219
203 193 219
203 193 218
204 193 218
204 193 217
204 193 217
205 193 216
205 193 216
206 193 216
207 193 215
207 193 215
207 193 214
208 193 214
209 193 213
209 193 212
210 193 212
210 193 211
211 193 211
212 193 210
212 193 210
213 193 209
213 193 208
214 193 207
214 193 207
215 193 206
216 193 206
216 193 205
217 193 204
217 193 204
218 193 203
219 193 202
219 193 202
220 193 201
221 193 200
221 193 200
222 193 199
222 193 198
223 193 197
224 193 197
224 193 196
225 193 195
226 193 194
226 193 193
227 193 193
227 193 192
228 193 191
228 193 191
229 193 190
229 193 189
230 193 189
231 193 188
231 193 187
232 193 186
232 193 186
233 193 185
233 193 184
233 193 184
234 193 183
234 193 182
235 193 182
235 193 181
236 193 180
236 193 180
236 193 179
237 193 179
237 193 178
238 193 178
238 193 177
238 193 177
238 193 176
239 193 175
239 193 175
239 193 175
240 193 174
240 193 174
240 193 173
240 193 173
241 193 173
241 193 172
241 193 172
241 193 171
242 193 171
242 193 171
242 193 170
242 193 170
242 193 170
243 193 169
243 193 169
243 193 169
243 193 169
243 193 168
243 193 168
243 193 168
243 193 168
200 193 221
200 193 221
200 193 220
201 193 220
201 193 220
202 193 219
202 193 219
203 193 218
203 193 218
204 193 218
204 193 217
205 193 217
205 193 216
206 193 216
206 193 215
207 193 215
207 193 214
208 193 214
208 193 213
209 193 213
209 193 212
210 193 212
211 193 211
211 193 211
212 193 210
212 193 209
213 193 208
214 193 208
214 193 207
215 193 207
215 193 206
216 193 205
217 193 205
217 193 204
218 193 203
219 193 203
219 193 202
220 193 201
220 193 200
221 193 200
222 193 199
222 193 198
223 193 197
224 193 197
224 193 196
225 193 195
225 193 195
226 193 194
227 193 193
227 193 192
228 193 191
228 193 191
229 193 190
229 193 189
230 193 189
231 193 188
231 193 187
232 193 186
232 193 186
233 193 185
233 193 184
233 193 184
234 193 183
234 193 182
235 193 182
235 193 181
236 193 180
236 193 180
236 193 180
237 193 179
237 193 178
238 193 177
238 193 177
238 193 176
239 193 176
239 193 175
239 193 175
240 193 174
240 193 174
240 193 173
240 193 173
241 193 173
241 193 172
241 193 172
241 193 172
242 193 171
242 193 171
242 193 170
242 193 170
242 193 170
243 193 169
243 193 169
243 193 169
243 193 169
243 193 168
243 193 168
243 193 168
244 193 168
244 193 167
244 193 167
200 193 221
200 193 221
201 193 220
201 193 220
202 193 219
202 193 219
203 193 219
203 193 218
204 193 218
204 193 217
204 193 217
205 193 216
205 193 216
206 193 215
207 193 215
207 193 214
208 193 214
208 193 213
209 193 213
209 193 212
210 193 212
210 193 211
211 193 211
211 193 210
212 193 209
213 193 209
213 193 208
214 193 208
214 193 207
215 193 206
216 193 206
217 193 205
217 193 204
218 193 204
218 193 203
219 193 202
220 193 201
220 193 201
221 193 200
221 193 199
222 193 199
223 193 198
223 193 197
224 193 196
225 193 196
225 193 195
226 193 194
227 193 193
227 193 192
228 193 192
228 193 191
229 193 190
229 193 189
230 193 189
230 193 188
231 193 187
232 193 186
232 193 186
233 193 185
233 193 184
234 193 184
234 193 183
234 193 182
235 193 182
235 193 181
236 193 180
236 193 180
237 193 179
237 193 179
237 193 178
238 193 177
238 193 177
239 193 176
239 193 176
239 193 175
239 193 175
240 193 174
240 193 174
240 193 173
241 193 173
241 193 172
241 193 172
241 193 172
242 193 171
242 193 171
242 193 170
242 193 170
242 193 170
243 193 169
243 193 169
243 193 169
243 193 169
243 193 168
243 193 168
244 193 168
244 193 168
244 193 167
244 193 167
244 193 167
244 193 167
200 193 221
200 193 220
201 193 220
201 193 220
202 193 219
202 193 219
203 193 218
203 193 218
204 193 217
204 193 217
205 193 216
205 193 216
206 193 215
206 193 215
207 193 215
207 193 214
208 193 214
208 193 213
209 193 213
210 193 212
210 193 211
211 193 211
211 193 210
212 193 210
213 193 209
213 193 208
214 193 208
214 193 207
215 193 206
216 193 206
216 193 205
217 193 204
218 193 204
218 193 203
219 193 202
219 193 202
220 193 201
221 193 200
221 193 199
222 193 199
223 193 198
223 193 197
224 193 196
225 193 196
225 193 195
226 193 194
226 193 193
227 193 193
227 193 192
228 193 191
229 193 191
229 193 190
230 193 189
230 193 188
231 193 187
231 193 187
232 193 186
233 193 185
233 193 184
234 193 183
234 193 183
235 193 182
235 193 182
235 193 181
236 193 180
236 193 180
237 193 179
237 193 178
238 193 178
238 193 177
238 193 177
239 193 176
239 193 176
239 193 175
240 193 174
240 193 174
240 193 174
240 193 173
241 193 173
241 193 172
241 193 172
241 193 171
242 193 171
242 193 170
242 193 170
242 193 170
243 193 169
243 193 169
243 193 169
243 193 168
243 193 168
244 193 168
244 193 168
244 193 167
244 193 167
244 193 167
244 193 166
244 193 166
244 193 166
245 193 166
200 193 221
201 193 220
201 193 220
202 193 219
202 193 219
203 193 219
203 193 218
204 193 218
204 193 217
205 193 217
205 193 216
206 193 216
206 193 215
206 193 215
207 193 214
208 193 214
208 193 213
209 193 213
209 193 212
210 193 212
210 193 211
211 193 210
212 193 210
212 193 209
213 193 209
213 193 208
214 193 207
215 193 207
215 193 206
216 193 206
217 193 205
217 193 204
218 193 203
218 193 203
219 193 202
220 193 201
220 193 200
221 193 200
222 193 199
222 193 198
223 193 197
224 193 197
224 193 196
225 193 195
225 193 194
226 193 194
227 193 193
227 193 192
228 193 191
229 193 190
229 193 190
230 193 189
230 193 188
231 193 187
231 193 187
232 193 186
232 193 185
233 193 185
233 193 184
234 193 183
234 193 182
235 193 182
235 193 181
236 193 180
236 193 180
237 193 179
237 193 178
237 193 178
238 193 177
238 193 176
239 193 176
239 193 176
239 193 175
240 193 174
240 193 174
240 193 173
241 193 173
241 193 172
241 193 172
241 193 172
242 193 171
242 193 170
242 193 170
242 193 170
243 193 169
243 193 169
243 193 169
243 193 168
243 193 168
244 193 168
244 193 167
244 193 167
244 193 167
244 193 167
244 193 166
244 193 166
245 193 166
245 193 166
245 193 166
245 193 165
201 193 220
201 193 220
201 193 220
202 193 219
202 193 219
203 193 218
203 193 218
204 193 217
204 193 217
205 193 216
205 193 216
206 193 216
206 193 215
207 193 215
207 193 214
208 193 214
209 193 213
209 193 212
210 193 212
210 193 211
211 193 211
211 193 210
212 193 209
213 193 209
213 193 208
214 193 207
215 193 207
215 193 206
216 193 206
216 193 205
217 193 204
218 193 204
218 193 203
219 193 202
219 193 202
220 193 201
221 193 200
222 193 199
222 193 198
223 193 198
223 193 197
224 193 196
225 193 195
226 193 194
226 193 194
226 193 193
227 193 192
228 193 191
228 193 191
229 193 190
230 193 189
230 193 188
231 193 187
231 193 187
232 193 186
232 193 185
233 193 185
233 193 184
234 193 183
235 193 182
235 193 181
235 193 181
236 193 180
236 193 180
237 193 179
237 193 178
238 193 177
238 193 177
238 193 176
239 193 176
239 193 175
240 193 174
240 193 174
240 193 173
240 193 173
241 193 172
241 193 172
241 193 172
242 193 171
242 193 171
242 193 170
242 193 170
243 193 169
243 193 169
243 193 169
243 193 168
243 193 168
244 193 168
244 193 167
244 193 167
244 193 167
244 193 167
244 193 166
245 193 166
245 193 166
245 193 166
245 193 165
245 193 165
245 193 165
245 193 165
201 193 220
201 193 220
202 193 219
202 193 219
203 193 218
203 193 218
204 193 218
204 193 217
205 193 217
205 193 216
205 193 216
206 193 215
207 193 215
207 193 214
208 193 214
208 193 213
209 193 213
209 193 212
210 193 212
211 193 211
211 193 210
212 193 210
212 193 209
213 193 209
213 193 208
214 193 207
215 193 207
215 193 206
216 193 205
217 193 205
217 193 204
218 193 203
219 193 202
219 193 202
220 193 201
221 193 200
221 193 199
222 193 199
223 193 198
223 193 197
224 193 196
224 193 196
225 193 195
226 193 194
226 193 193
227 193 192
228 193 192
228 193 191
229 193 190
230 193 189
230 193 189
231 193 188
231 193 187
232 193 186
232 193 185
233 193 185
234 193 184
234 193 183
234 193 183
235 193 181
235 193 181
236 193 180
236 193 180
237 193 179
237 193 178
238 193 178
238 193 177
238 193 176
239 193 176
239 193 175
240 193 174
240 193 174
240 193 173
241 193 173
241 193 173
241 193 172
241 193 172
242 193 171
242 193 170
242 193 170
243 193 170
243 193 169
243 193 169
243 193 168
243 193 168
244 193 168
244 193 167
244 193 167
244 193 167
244 193 166
245 193 166
245 193 166
245 193 166
245 193 166
245 193 165
245 193 165
245 193 165
245 193 164
246 193 164
246 193 164
201 193 220
202 193 219
202 193 219
203 193 219
203 193 218
204 193 218
204 193 217
204 193 217
205 193 216
205 193 216
206 193 216
207 193 215
207 193 215
207 193 214
208 193 213
209 193 213
209 193 212
210 193 212
210 193 211
211 193 211
212 193 210
212 193 209
213 193 209
213 193 208
214 193 208
215 193 207
215 193 206
216 193 206
217 193 205
217 193 204
218 193 203
218 193 203
219 193 202
220 193 201
220 193 200
221 193 200
222 193 199
222 193 198
223 193 197
224 193 197
224 193 196
225 193 195
226 193 194
226 193 193
227 193 193
227 193 192
228 193 191
229 193 190
229 193 189
230 193 189
231 193 188
231 193 187
232 193 186
232 193 185
233 193 185
233 193 184
234 193 183
234 193 182
235 193 182
235 193 181
236 193 180
236 193 179
237 193 179
237 193 178
238 193 178
238 193 177
239 193 176
239 193 175
239 193 175
240 193 174
240 193 174
240 193 173
241 193 173
241 193 172
241 193 172
242 193 171
242 193 171
242 193 170
242 193 170
243 193 169
243 193 169
243 193 168
243 193 168
244 193 168
244 193 167
244 193 167
244 193 167
244 193 166
245 193 166
245 193 166
245 193 166
245 193 165
245 193 165
245 193 165
245 193 164
245 193 164
246 193 164
246 193 164
246 193 164
246 193 163
201 193 220
202 193 219
202 193 219
203 193 218
203 193 218
204 193 218
204 193 217
205 193 217
205 193 216
206 193 216
206 193 215
207 193 215
207 193 214
208 193 214
208 193 213
209 193 213
209 193 212
210 193 212
211 193 211
211 193 210
212 193 210
213 193 209
213 193 209
214 193 208
214 193 207
215 193 206
216 193 206
216 193 205
217 193 205
217 193 204
218 193 203
219 193 202
220 193 202
220 193 201
221 193 200
221 193 200
222 193 199
223 193 198
223 193 197
224 193 196
225 193 195
226 193 194
226 193 194
227 193 193
227 193 192
228 193 191
229 193 190
229 193 190
230 193 189
230 193 188
231 193 187
232 193 186
232 193 186
233 193 185
233 193 184
234 193 183
234 193 183
235 193 182
235 193 181
236 193 180
236 193 179
237 193 179
237 193 178
238 193 177
238 193 177
239 193 176
239 193 175
239 193 175
240 193 174
240 193 174
240 193 173
241 193 173
241 193 172
241 193 171
242 193 171
242 193 170
242 193 170
243 193 169
243 193 169
243 193 169
243 193 168
244 193 168
244 193 167
244 193 167
244 193 167
244 193 166
245 193 166
245 193 166
245 193 165
245 193 165
245 193 165
245 193 165
245 193 164
246 193 164
246 193 164
246 193 164
246 193 163
246 193 163
246 193 163
246 193 163
202 193 219
202 193 219
203 193 219
203 193 218
204 193 218
204 193 217
204 193 217
205 193 216
206 193 216
206 193 215
207 193 215
207 193 215
208 193 214
208 193 213
209 193 213
209 193 212
210 193 212
210 193 211
211 193 210
212 193 210
212 193 210
213 193 209
213 193 208
214 193 207
215 193 207
215 193 206
216 193 205
217 193 205
217 193 204
218 193 203
219 193 203
219 193 202
220 193 201
221 193 200
221 193 200
222 193 199
223 193 198
223 193 197
224 193 197
225 193 195
225 193 195
226 193 194
226 193 193
227 193 192
228 193 192
228 193 191
229 193 190
230 193 189
230 193 188
231 193 187
231 193 187
232 193 186
233 193 185
233 193 184
234 193 183
234 193 182
235 193 182
235 193 181
236 193 181
236 193 179
237 193 179
237 193 178
238 193 177
238 193 176
239 193 176
239 193 175
239 193 175
240 193 174
240 193 173
241 193 173
241 193 172
241 193 172
242 193 171
242 193 171
242 193 170
242 193 170
243 193 169
243 193 169
243 193 168
244 193 168
244 193 167
244 193 167
244 193 167
244 193 166
245 193 166
245 193 166
245 193 165
245 193 165
245 193 165
245 193 164
246 193 164
246 193 164
246 193 164
246 193 163
246 193 163
246 193 163
246 193 163
246 193 163
246 193 163
247 193 162
202 193 219
203 193 219
203 193 218
203 193 218
204 193 217
204 193 217
205 193 217
205 193 216
206 193 215
206 193 215
207 193 215
207 193 214
208 193 214
209 193 213
209 193 213
210 193 212
210 193 211
211 193 211
211 193 210
212 193 210
212 193 209
213 193 208
214 193 208
215 193 207
215 193 206
216 193 206
216 193 205
217 193 204
218 193 204
218 193 203
219 193 202
219 193 202
220 193 201
221 193 200
221 193 199
222 193 199
223 193 197
224 193 197
224 193 196
225 193 195
226 193 194
226 193 193
227 193 193
228 193 192
228 193 191
229 193 190
229 193 189
230 193 188
231 193 188
231 193 187
232 193 186
232 193 185
233 193 184
234 193 183
234 193 183
235 193 182
235 193 181
236 193 180
236 193 180
237 193 179
237 193 178
238 193 177
238 193 177
239 193 176
239 193 175
239 193 175
240 193 174
240 193 173
241 193 173
241 193 172
241 193 172
242 193 171
242 193 170
242 193 170
243 193 169
243 193 169
243 193 168
243 193 168
244 193 167
244 193 167
244 193 167
244 193 166
245 193 166
245 193 166
245 193 165
245 193 165
245 193 165
245 193 164
246 193 164
246 193 164
246 193 164
246 193 163
246 193 163
246 193 163
246 193 163
247 193 162
247 193 162
247 193 162
247 193 162
247 193 162
202 193 219
203 193 218
203 193 218
204 193 218
204 193 217
205 193 217
205 193 216
206 193 216
206 193 215
207 193 215
207 193 214
208 193 214
208 193 213
209 193 213
210 193 212
210 193 212
210 193 211
211 193 211
212 193 210
212 193 209
213 193 209
214 193 208
214 193 207
215 193 207
216 193 206
216 193 205
217 193 205
217 193 204
218 193 203
219 193 202
219 193 202
220 193 201
221 193 200
221 193 200
222 193 199
223 193 198
223 193 197
224 193 196
225 193 195
225 193 194
226 193 194
227 193 193
227 193 192
228 193 191
229 193 190
229 193 190
230 193 189
230 193 188
231 193 187
232 193 186
232 193 185
233 193 184
233 193 184
234 193 183
235 193 182
235 193 181
236 193 180
236 193 180
237 193 179
237 193 178
238 193 177
238 193 177
239 193 176
239 193 175
240 193 175
240 193 174
240 193 173
241 193 173
241 193 172
241 193 171
242 193 171
242 193 170
243 193 170
243 193 169
243 193 169
243 193 168
243 193 168
244 193 167
244 193 167
244 193 166
245 193 166
245 193 166
245 193 165
245 193 165
245 193 165
246 193 164
246 193 164
246 193 164
246 193 163
246 193 163
246 193 163
247 193 162
247 193 162
247 193 162
247 193 162
247 193 162
247 193 162
247 193 161
247 193 161
247 193 161
203 193 219
203 193 218
203 193 218
204 193 217
204 193 217
205 193 217
205 193 216
206 193 215
206 193 215
207 193 215
207 193 214
208 193 213
209 193 213
209 193 212
210 193 212
210 193 211
211 193 211
211 193 210
212 193 210
213 193 209
213 193 208
214 193 208
214 193 207
215 193 206
216 193 206
216 193 205
217 193 204
218 193 204
218 193 203
219 193 202
220 193 201
220 193 201
221 193 200
222 193 199
222 193 198
223 193 197
224 193 197
224 193 196
225 193 195
226 193 194
226 193 193
227 193 192
228 193 192
228 193 191
229 193 190
230 193 189
230 193 188
231 193 187
231 193 187
232 193 186
233 193 184
233 193 184
234 193 183
235 193 182
235 193 181
236 193 181
236 193 180
237 193 179
237 193 178
238 193 177
238 193 177
239 193 176
239 193 175
240 193 175
240 193 174
240 193 173
241 193 173
241 193 172
242 193 171
242 193 171
242 193 170
243 193 170
243 193 169
243 193 168
243 193 168
244 193 168
244 193 167
244 193 166
244 193 166
245 193 166
245 193 165
245 193 165
245 193 164
246 193 164
246 193 164
246 193 164
246 193 163
246 193 163
246 193 163
247 193 162
247 193 162
247 193 162
247 193 162
247 193 162
247 193 161
247 193 161
247 193 161
247 193 161
248 193 160
248 193 160
203 193 218
203 193 218
204 193 217
204 193 217
205 193 217
205 193 216
206 193 216
206 193 215
207 193 215
207 193 214
208 193 214
208 193 213
209 193 213
210 193 212
210 193 211
211 193 211
211 193 210
212 193 210
212 193 209
213 193 209
214 193 208
214 193 207
215 193 207
216 193 206
216 193 205
217 193 205
217 193 204
218 193 203
219 193 202
220 193 201
220 193 201
221 193 200
221 193 199
222 193 198
223 193 198
223 193 197
224 193 196
225 193 195
226 193 194
226 193 193
227 193 193
228 193 192
228 193 191
229 193 190
229 193 189
230 193 188
231 193 188
231 193 187
232 193 186
233 193 185
233 193 184
234 193 183
234 193 182
235 193 182
236 193 181
236 193 180
237 193 179
237 193 178
238 193 178
238 193 177
239 193 176
239 193 175
239 193 175
240 193 174
240 193 173
241 193 173
241 193 172
241 193 171
242 193 171
242 193 170
243 193 170
243 193 169
243 193 168
244 193 168
244 193 167
244 193 167
244 193 166
245 193 166
245 193 165
245 193 165
245 193 165
246 193 164
246 193 164
246 193 164
246 193 163
246 193 163
246 193 163
247 193 162
247 193 162
247 193 162
247 193 161
247 193 161
247 193 161
247 193 161
247 193 161
248 193 160
248 193 160
248 193 160
248 193 160
248 193 160
203 193 218
204 193 218
204 193 217
205 193 217
205 193 216
206 193 216
206 193 215
206 193 215
207 193 214
208 193 214
208 193 214
209 193 213
209 193 212
210 193 212
210 193 211
211 193 211
212 193 210
212 193 209
213 193 209
213 193 208
214 193 208
214 193 207
215 193 206
216 193 206
217 193 205
217 193 204
218 193 203
219 193 203
219 193 202
220 193 201
220 193 200
221 193 200
222 193 199
223 193 198
223 193 197
224 193 197
225 193 196
225 193 195
226 193 194
227 193 193
227 193 192
228 193 191
228 193 191
229 193 189
230 193 189
230 193 188
231 193 187
232 193 186
232 193 185
233 193 184
234 193 183
234 193 182
235 193 182
235 193 181
236 193 180
236 193 179
237 193 179
237 193 178
238 193 177
238 193 176
239 193 175
240 193 175
240 193 174
240 193 173
241 193 173
241 193 172
242 193 171
242 193 171
242 193 170
243 193 169
243 193 169
243 193 168
244 193 168
244 193 167
244 193 167
245 193 166
245 193 165
245 193 165
245 193 165
245 193 164
246 193 164
246 193 164
246 193 163
246 193 163
246 193 163
247 193 162
247 193 162
247 193 162
247 193 162
247 193 161
247 193 161
247 193 161
248 193 161
248 193 160
248 193 160
248 193 160
248 193 160
248 193 160
248 193 159
248 193 159
203 193 218
204 193 217
204 193 217
205 193 216
205 193 216
206 193 216
206 193 215
207 193 215
207 193 214
208 193 214
208 193 213
209 193 213
210 193 212
210 193 212
211 193 211
211 193 210
212 193 210
213 193 209
213 193 209
214 193 208
214 193 207
215 193 207
215 193 206
216 193 205
217 193 205
217 193 204
218 193 203
219 193 202
220 193 201
220 193 201
221 193 200
222 193 199
222 193 198
223 193 198
224 193 197
224 193 196
225 193 195
226 193 194
227 193 193
227 193 192
228 193 192
228 193 191
229 193 190
230 193 189
230 193 188
231 193 187
232 193 186
232 193 185
233 193 185
233 193 184
234 193 183
235 193 182
235 193 181
236 193 180
236 193 179
237 193 178
237 193 178
238 193 177
239 193 176
239 193 175
240 193 175
240 193 174
240 193 173
241 193 173
241 193 172
242 193 171
242 193 170
242 193 170
243 193 169
243 193 169
243 193 168
244 193 167
244 193 167
244 193 166
245 193 166
245 193 165
245 193 165
245 193 165
246 193 164
246 193 164
246 193 163
246 193 163
246 193 163
247 193 162
247 193 162
247 193 162
247 193 161
247 193 161
247 193 161
248 193 160
248 193 160
248 193 160
248 193 160
248 193 160
248 193 160
248 193 159
248 193 159
248 193 159
248 193 159
249 193 159
204 193 217
204 193 217
205 193 217
205 193 216
206 193 216
206 193 215
207 193 215
207 193 214
208 193 214
208 193 213
209 193 213
209 193 212
210 193 212
210 193 211
211 193 211
211 193 210
212 193 209
213 193 209
213 193 208
214 193 208
215 193 207
215 193 206
216 193 206
216 193 205
217 193 204
218 193 203
219 193 203
219 193 202
220 193 201
221 193 200
221 193 200
222 193 199
222 193 198
223 193 197
224 193 196
225 193 195
225 193 195
226 193 194
227 193 193
227 193 192
228 193 191
229 193 190
229 193 189
230 193 189
231 193 188
231 193 187
232 193 186
233 193 185
233 193 184
234 193 183
234 193 182
235 193 181
236 193 180
236 193 180
237 193 179
237 193 178
238 193 177
239 193 176
239 193 175
239 193 175
240 193 174
240 193 173
241 193 173
241 193 172
242 193 171
242 193 171
243 193 170
243 193 169
243 193 168
243 193 168
244 193 167
244 193 167
244 193 166
245 193 166
245 193 165
245 193 165
245 193 164
246 193 164
246 193 163
246 193 163
246 193 163
247 193 162
247 193 162
247 193 162
247 193 161
247 193 161
247 193 161
248 193 160
248 193 160
248 193 160
248 193 160
248 193 160
248 193 159
248 193 159
248 193 159
248 193 159
249 193 158
249 193 158
249 193 158
249 193 158
204 193 217
205 193 217
205 193 216
205 193 216
206 193 215
207 193 215
207 193 215
208 193 214
208 193 213
208 193 213
209 193 212
210 193 212
210 193 212
211 193 211
211 193 210
212 193 210
212 193 209
213 193 208
214 193 208
214 193 207
215 193 206
216 193 206
216 193 205
217 193 204
218 193 204
218 193 203
219 193 202
220 193 201
220 193 201
221 193 200
222 193 199
222 193 198
223 193 198
224 193 197
224 193 196
225 193 195
226 193 194
227 193 193
227 193 192
228 193 191
229 193 191
229 193 190
230 193 189
230 193 188
231 193 187
232 193 186
233 193 185
233 193 184
234 193 184
234 193 182
235 193 182
236 193 180
236 193 180
237 193 179
237 193 178
238 193 177
238 193 176
239 193 176
239 193 175
240 193 174
240 193 173
241 193 172
241 193 172
242 193 171
242 193 171
242 193 170
243 193 169
243 193 168
244 193 168
244 193 167
244 193 167
244 193 166
245 193 166
245 193 165
245 193 164
246 193 164
246 193 164
246 193 163
246 193 163
247 193 162
247 193 162
247 193 162
247 193 161
247 193 161
248 193 161
248 193 160
248 193 160
248 193 160
248 193 160
248 193 159
248 193 159
248 193 159
249 193 159
249 193 159
249 193 158
249 193 158
249 193 158
249 193 158
249 193 158
249 193 158
204 193 217
205 193 217
205 193 216
206 193 216
206 193 215
207 193 215
207 193 214
208 193 214
208 193 213
209 193 213
210 193 212
210 193 212
211 193 211
211 193 210
212 193 210
212 193 209
213 193 209
214 193 208
214 193 207
215 193 207
216 193 206
216 193 206
217 193 204
217 193 204
218 193 203
219 193 202
219 193 202
220 193 201
221 193 200
221 193 200
222 193 199
222 193 198
223 193 197
224 193 196
225 193 195
225 193 195
226 193 193
227 193 193
227 193 192
228 193 191
229 193 190
230 193 189
230 193 188
231 193 187
231 193 187
232 193 186
233 193 185
233 193 184
234 193 183
235 193 182
235 193 181
236 193 180
236 193 179
237 193 179
238 193 178
238 193 177
239 193 176
239 193 175
240 193 174
240 193 173
241 193 173
241 193 172
242 193 171
242 193 170
242 193 170
243 193 169
243 193 169
244 193 168
244 193 167
244 193 166
245 193 166
245 193 165
245 193 165
245 193 165
246 193 164
246 193 163
246 193 163
247 193 162
247 193 162
247 193 162
247 193 161
247 193 161
247 193 161
248 193 160
248 193 160
248 193 160
248 193 159
248 193 159
248 193 159
248 193 159
249 193 158
249 193 158
249 193 158
249 193 158
249 193 158
249 193 158
249 193 158
249 193 157
249 193 157
249 193 157
205 193 217
205 193 216
206 193 216
206 193 215
207 193 215
207 193 214
208 193 214
208 193 213
209 193 213
209 193 212
210 193 212
210 193 211
211 193 211
211 193 210
212 193 209
213 193 209
213 193 208
214 193 208
215 193 207
215 193 207
216 193 206
216 193 205
217 193 204
218 193 204
218 193 203
219 193 202
220 193 201
220 193 201
221 193 200
222 193 199
222 193 198
223 193 197
224 193 196
224 193 196
225 193 195
226 193 194
226 193 193
227 193 192
228 193 191
229 193 190
229 193 189
230 193 189
230 193 188
231 193 187
232 193 186
233 193 185
233 193 184
234 193 183
235 193 182
235 193 181
236 193 180
237 193 179
237 193 179
237 193 178
238 193 177
238 193 176
239 193 175
240 193 174
240 193 174
241 193 173
241 193 172
242 193 171
242 193 170
242 193 170
243 193 169
243 193 168
244 193 168
244 193 167
244 193 167
245 193 166
245 193 165
245 193 165
246 193 164
246 193 164
246 193 163
246 193 163
247 193 162
247 193 162
247 193 162
247 193 161
247 193 161
248 193 160
248 193 160
248 193 160
248 193 159
248 193 159
248 193 159
249 193 158
249 193 158
249 193 158
249 193 158
249 193 158
249 193 158
249 193 157
249 193 157
249 193 157
249 193 157
249 193 157
250 193 157
250 193 157
205 193 216
206 193 216
206 193 216
206 193 215
207 193 215
207 193 214
208 193 214
208 193 213
209 193 213
210 193 212
210 193 212
211 193 211
211 193 210
212 193 210
212 193 209
213 193 209
214 193 208
214 193 207
215 193 207
215 193 206
216 193 205
217 193 205
217 193 204
218 193 203
219 193 202
219 193 202
220 193 201
221 193 200
221 193 199
222 193 199
223 193 198
224 193 197
224 193 196
225 193 195
225 193 194
226 193 193
227 193 193
228 193 192
228 193 191
229 193 190
230 193 189
230 193 188
231 193 187
232 193 186
232 193 185
233 193 185
234 193 183
234 193 183
235 193 182
236 193 181
236 193 180
237 193 179
237 193 178
238 193 177
238 193 176
239 193 175
240 193 174
240 193 174
241 193 173
241 193 172
241 193 171
242 193 171
242 193 170
243 193 169
243 193 169
243 193 168
244 193 167
244 193 167
245 193 166
245 193 166
245 193 165
246 193 164
246 193 163
246 193 163
246 193 163
247 193 162
247 193 162
247 193 161
247 193 161
248 193 160
248 193 160
248 193 160
248 193 160
248 193 159
248 193 159
249 193 159
249 193 158
249 193 158
249 193 158
249 193 158
249 193 157
249 193 157
249 193 157
249 193 157
249 193 157
250 193 156
250 193 156
250 193 156
250 193 156
250 193 156
205 193 216
206 193 216
206 193 215
207 193 215
207 193 214
208 193 214
208 193 213
209 193 213
209 193 212
210 193 212
210 193 211
211 193 211
211 193 210
212 193 210
213 193 209
213 193 208
214 193 208
215 193 207
215 193 206
216 193 206
216 193 205
217 193 204
218 193 204
218 193 203
219 193 202
220 193 201
220 193 200
221 193 200
222 193 199
222 193 198
223 193 197
224 193 196
225 193 196
225 193 195
226 193 194
227 193 193
227 193 192
228 193 191
229 193 190
229 193 189
230 193 188
231 193 188
231 193 187
232 193 186
233 193 185
234 193 184
234 193 183
235 193 182
235 193 181
236 193 180
237 193 179
237 193 178
238 193 177
238 193 177
239 193 176
239 193 175
240 193 174
240 193 173
241 193 172
241 193 172
242 193 171
242 193 170
243 193 169
243 193 168
244 193 168
244 193 167
244 193 167
245 193 166
245 193 165
245 193 165
246 193 164
246 193 163
246 193 163
247 193 162
247 193 162
247 193 161
247 193 161
247 193 161
248 193 160
248 193 160
248 193 159
248 193 159
248 193 159
249 193 158
249 193 158
249 193 158
249 193 158
249 193 157
249 193 157
249 193 157
249 193 157
250 193 156
250 193 156
250 193 156
250 193 156
250 193 156
250 193 156
250 193 156
250 193 156
250 193 156
206 193 216
206 193 215
207 193 215
207 193 215
207 193 214
208 193 213
209 193 213
209 193 212
210 193 212
210 193 211
211 193 211
211 193 210
212 193 210
212 193 209
213 193 209
214 193 208
214 193 207
215 193 207
215 193 206
216 193 205
217 193 204
217 193 204
218 193 203
219 193 203
219 193 202
220 193 201
221 193 200
221 193 199
222 193 199
223 193 198
223 193 197
224 193 196
225 193 195
226 193 194
226 193 193
227 193 193
227 193 192
228 193 191
229 193 190
230 193 189
231 193 188
231 193 187
232 193 186
232 193 185
233 193 184
234 193 183
234 193 182
235 193 181
236 193 181
236 193 179
237 193 179
237 193 178
238 193 177
239 193 176
239 193 175
240 193 174
240 193 173
241 193 173
241 193 172
242 193 171
242 193 170
243 193 169
243 193 169
243 193 168
244 193 167
244 193 167
245 193 166
245 193 165
245 193 165
246 193 164
246 193 164
246 193 163
247 193 162
247 193 162
247 193 161
247 193 161
248 193 160
248 193 160
248 193 160
248 193 159
248 193 159
249 193 159
249 193 158
249 193 158
249 193 158
249 193 157
249 193 157
249 193 157
250 193 156
250 193 156
250 193 156
250 193 156
250 193 156
250 193 156
250 193 156
250 193 155
250 193 155
250 193 155
250 193 155
250 193 155
206 193 215
206 193 215
207 193 215
207 193 214
208 193 214
208 193 213
209 193 213
209 193 212
210 193 212
211 193 211
211 193 211
212 193 210
212 193 209
213 193 209
213 193 208
214 193 208
215 193 207
215 193 206
216 193 206
216 193 205
217 193 204
218 193 203
218 193 203
219 193 202
220 193 201
220 193 200
221 193 200
222 193 199
222 193 198
223 193 197
224 193 196
225 193 195
225 193 195
226 193 194
227 193 193
227 193 192
228 193 191
229 193 190
229 193 189
230 193 188
231 193 188
232 193 186
232 193 186
233 193 185
233 193 184
234 193 183
235 193 182
236 193 181
236 193 180
237 193 179
237 193 178
238 193 178
238 193 176
239 193 176
240 193 175
240 193 174
241 193 173
241 193 172
241 193 171
242 193 170
243 193 169
243 193 169
243 193 168
244 193 167
244 193 167
245 193 166
245 193 165
245 193 165
246 193 164
246 193 163
246 193 163
247 193 162
247 193 162
247 193 161
247 193 161
248 193 160
248 193 160
248 193 159
248 193 159
249 193 159
249 193 158
249 193 158
249 193 158
249 193 157
249 193 157
249 193 157
250 193 157
250 193 156
250 193 156
250 193 156
250 193 156
250 193 155
250 193 155
250 193 155
250 193 155
250 193 155
250 193 155
251 193 155
250 193 155
251 193 154
206 193 215
207 193 215
207 193 214
208 193 214
208 193 213
209 193 213
209 193 212
210 193 212
210 193 211
211 193 211
212 193 210
212 193 210
212 193 209
213 193 208
214 193 208
214 193 207
215 193 206
216 193 206
216 193 205
217 193 205
217 193 204
218 193 203
219 193 202
219 193 202
220 193 201
221 193 200
221 193 199
222 193 198
223 193 198
223 193 197
224 193 196
225 193 195
226 193 194
226 193 193
227 193 193
228 193 192
228 193 191
229 193 190
230 193 189
231 193 188
231 193 187
232 193 186
233 193 185
233 193 184
234 193 183
235 193 182
235 193 181
236 193 180
237 193 179
237 193 179
238 193 178
238 193 177
239 193 176
239 193 175
240 193 174
240 193 173
241 193 172
241 193 171
242 193 170
242 193 170
243 193 169
243 193 168
244 193 168
244 193 167
245 193 166
245 193 165
245 193 164
246 193 164
246 193 164
246 193 163
247 193 162
247 193 162
247 193 161
247 193 161
248 193 160
248 193 160
248 193 159
248 193 159
249 193 159
249 193 158
249 193 158
249 193 157
249 193 157
249 193 157
250 193 157
250 193 156
250 193 156
250 193 156
250 193 155
250 193 155
250 193 155
250 193 155
250 193 155
250 193 155
251 193 155
251 193 154
251 193 154
251 193 154
251 193 154
251 193 154
207 193 215
207 193 215
207 193 214
208 193 214
208 193 213
209 193 212
210 193 212
210 193 211
211 193 211
211 193 211
212 193 210
212 193 209
213 193 209
214 193 208
214 193 208
215 193 207
215 193 206
216 193 206
216 193 205
217 193 204
218 193 203
218 193 203
219 193 202
220 193 201
221 193 200
221 193 200
222 193 199
222 193 198
223 193 197
224 193 197
225 193 196
225 193 195
226 193 194
227 193 193
227 193 192
228 193 191
229 193 190
229 193 189
230 193 188
231 193 187
231 193 186
232 193 185
233 193 185
233 193 184
234 193 183
235 193 182
235 193 181
236 193 180
237 193 179
237 193 178
238 193 177
238 193 176
239 193 175
240 193 175
240 193 173
241 193 173
241 193 172
242 193 171
242 193 170
243 193 169
243 193 168
244 193 168
244 193 167
245 193 166
245 193 165
245 193 165
246 193 164
246 193 163
246 193 163
247 193 162
247 193 162
247 193 161
248 193 161
248 193 160
248 193 160
248 193 159
248 193 159
249 193 158
249 193 158
249 193 158
249 193 157
249 193 157
249 193 157
250 193 156
250 193 156
250 193 156
250 193 156
250 193 155
250 193 155
250 193 155
251 193 155
251 193 154
251 193 154
251 193 154
251 193 154
251 193 154
251 193 154
251 193 154
251 193 154
251 193 154
207 193 215
207 193 214
208 193 214
208 193 213
209 193 213
209 193 212
210 193 212
210 193 211
211 193 211
211 193 210
212 193 210
213 193 209
213 193 208
214 193 208
214 193 207
215 193 207
216 193 206
216 193 205
217 193 204
217 193 204
218 193 203
219 193 202
219 193 202
220 193 201
221 193 200
221 193 199
222 193 198
223 193 198
224 193 197
224 193 196
225 193 195
226 193 194
226 193 193
227 193 192
228 193 191
228 193 191
229 193 190
230 193 189
231 193 188
231 193 187
232 193 186
232 193 185
233 193 184
234 193 183
235 193 182
235 193 181
236 193 180
236 193 179
237 193 178
238 193 177
238 193 176
239 193 176
240 193 174
240 193 174
241 193 173
241 193 172
242 193 171
242 193 170
243 193 170
243 193 169
244 193 168
244 193 167
244 193 166
245 193 166
245 193 165
246 193 164
246 193 163
246 193 163
247 193 162
247 193 162
247 193 161
247 193 161
248 193 160
248 193 160
248 193 159
249 193 159
249 193 158
249 193 158
249 193 157
249 193 157
250 193 157
250 193 156
250 193 156
250 193 156
250 193 155
250 193 155
250 193 155
251 193 155
251 193 155
251 193 154
251 193 154
251 193 154
251 193 154
251 193 154
251 193 153
251 193 153
251 193 153
251 193 153
251 193 153
251 193 153
207 193 214
208 193 214
208 193 213
208 193 213
209 193 213
209 193 212
210 193 212
211 193 211
211 193 210
212 193 210
212 193 209
213 193 209
214 193 208
214 193 207
215 193 207
215 193 206
216 193 206
217 193 205
217 193 204
218 193 203
218 193 203
219 193 202
220 193 201
221 193 200
221 193 200
222 193 199
223 193 198
223 193 197
224 193 196
225 193 196
225 193 195
226 193 194
227 193 193
227 193 192
228 193 191
229 193 190
229 193 190
230 193 188
231 193 187
231 193 187
232 193 185
233 193 185
234 193 184
234 193 183
235 193 182
235 193 181
236 193 180
237 193 179
238 193 178
238 193 177
239 193 176
239 193 175
240 193 174
240 193 173
241 193 172
241 193 171
242 193 171
242 193 170
243 193 169
243 193 168
244 193 167
244 193 167
245 193 166
245 193 165
245 193 164
246 193 164
246 193 163
247 193 162
247 193 162
247 193 161
247 193 161
248 193 160
248 193 159
248 193 159
249 193 159
249 193 158
249 193 158
249 193 157
249 193 157
250 193 156
250 193 156
250 193 156
250 193 156
250 193 155
250 193 155
250 193 155
251 193 154
251 193 154
251 193 154
251 193 154
251 193 154
251 193 153
251 193 153
251 193 153
251 193 153
251 193 153
251 193 153
251 193 153
251 193 153
251 193 153
207 193 214
208 193 214
208 193 213
209 193 213
209 193 212
210 193 212
211 193 211
211 193 211
212 193 210
212 193 209
213 193 209
213 193 208
214 193 208
214 193 207
215 193 207
215 193 206
216 193 205
217 193 205
218 193 204
218 193 203
219 193 202
219 193 202
220 193 201
221 193 200
221 193 199
222 193 198
223 193 198
224 193 197
224 193 196
225 193 195
225 193 194
226 193 193
227 193 193
228 193 192
228 193 191
229 193 190
230 193 189
230 193 188
231 193 187
232 193 186
232 193 185
233 193 184
234 193 183
235 193 182
235 193 181
236 193 180
236 193 179
237 193 178
238 193 177
238 193 176
239 193 176
240 193 175
240 193 174
241 193 173
241 193 172
242 193 171
242 193 170
243 193 169
243 193 168
244 193 168
244 193 167
245 193 166
245 193 165
245 193 165
246 193 164
246 193 163
246 193 163
247 193 162
247 193 161
247 193 161
248 193 160
248 193 160
248 193 159
249 193 159
249 193 158
249 193 158
249 193 157
249 193 157
250 193 156
250 193 156
250 193 156
250 193 155
250 193 155
250 193 155
251 193 155
251 193 154
251 193 154
251 193 154
251 193 154
251 193 153
251 193 153
251 193 153
251 193 153
251 193 153
251 193 153
251 193 153
252 193 152
252 193 152
252 193 152
252 193 152
208 193 214
208 193 213
209 193 213
209 193 213
210 193 212
210 193 212
211 193 211
211 193 210
212 193 210
212 193 209
213 193 209
213 193 208
214 193 207
215 193 207
215 193 206
216 193 206
217 193 205
217 193 204
218 193 203
218 193 203
219 193 202
220 193 201
221 193 200
221 193 200
222 193 199
222 193 198
223 193 197
224 193 196
225 193 196
225 193 195
226 193 194
227 193 193
227 193 192
228 193 191
229 193 190
229 193 189
230 193 188
231 193 187
232 193 186
232 193 185
233 193 184
233 193 184
234 193 183
235 193 182
235 193 181
236 193 180
237 193 179
237 193 178
238 193 177
239 193 176
239 193 175
240 193 174
240 193 174
241 193 172
241 193 171
242 193 171
242 193 170
243 193 169
243 193 168
244 193 167
244 193 166
245 193 166
245 193 165
246 193 164
246 193 163
246 193 163
247 193 162
247 193 161
247 193 161
248 193 160
248 193 160
248 193 159
249 193 159
249 193 158
249 193 158
249 193 157
249 193 157
250 193 156
250 193 156
250 193 156
250 193 155
250 193 155
251 193 155
251 193 154
251 193 154
251 193 154
251 193 154
251 193 153
251 193 153
251 193 153
251 193 153
251 193 153
252 193 152
252 193 152
252 193 152
252 193 152
252 193 152
252 193 152
252 193 152
252 193 152
208 193 214
208 193 213
209 193 213
210 193 212
210 193 212
211 193 211
211 193 210
212 193 210
212 193 209
213 193 209
213 193 208
214 193 208
214 193 207
215 193 207
216 193 206
216 193 205
217 193 204
218 193 204
218 193 203
219 193 202
219 193 202
220 193 201
221 193 200
221 193 199
222 193 199
223 193 198
223 193 197
224 193 196
225 193 195
226 193 194
226 193 194
227 193 193
228 193 192
228 193 191
229 193 190
230 193 189
231 193 188
231 193 187
232 193 186
232 193 185
233 193 184
234 193 183
235 193 182
235 193 181
236 193 180
237 193 179
237 193 178
238 193 177
238 193 177
239 193 175
240 193 174
240 193 174
241 193 173
241 193 172
242 193 171
242 193 170
243 193 169
243 193 168
244 193 168
244 193 167
245 193 166
245 193 165
245 193 164
246 193 164
246 193 163
247 193 162
247 193 161
247 193 161
248 193 160
248 193 160
248 193 159
249 193 159
249 193 158
249 193 158
249 193 157
250 193 157
250 193 156
250 193 156
250 193 156
250 193 155
250 193 155
251 193 154
251 193 154
251 193 154
251 193 153
251 193 153
251 193 153
251 193 153
251 193 153
252 193 152
252 193 152
252 193 152
252 193 152
252 193 152
252 193 152
252 193 152
252 193 152
252 193 151
252 193 151
252 193 151
208 193 213
209 193 213
209 193 212
210 193 212
210 193 211
211 193 211
211 193 210
212 193 210
212 193 209
213 193 208
214 193 208
214 193 207
215 193 207
215 193 206
216 193 205
217 193 205
217 193 204
218 193 203
218 193 203
219 193 202
220 193 201
220 193 200
221 193 200
222 193 199
222 193 198
223 193 197
224 193 196
225 193 196
225 193 195
226 193 194
227 193 193
227 193 192
228 193 191
229 193 190
229 193 189
230 193 188
231 193 187
231 193 187
232 193 186
233 193 185
233 193 184
234 193 183
235 193 182
235 193 181
236 193 180
237 193 179
237 193 178
238 193 177
239 193 176
239 193 175
240 193 174
240 193 173
241 193 172
241 193 172
242 193 170
242 193 170
243 193 169
243 193 168
244 193 167
244 193 166
245 193 165
245 193 165
246 193 164
246 193 163
246 193 163
247 193 162
247 193 161
248 193 161
248 193 160
248 193 159
249 193 159
249 193 158
249 193 158
249 193 157
249 193 157
250 193 156
250 193 156
250 193 155
250 193 155
251 193 155
251 193 154
251 193 154
251 193 154
251 193 153
251 193 153
251 193 153
251 193 153
252 193 153
252 193 152
252 193 152
252 193 152
252 193 152
252 193 152
252 193 151
252 193 151
252 193 151
252 193 151
252 193 151
252 193 151
252 193 151
209 193 213
209 193 212
210 193 212
210 193 211
211 193 211
211 193 210
212 193 210
212 193 209
213 193 209
213 193 208
214 193 208
215 193 207
215 193 206
216 193 206
216 193 205
217 193 204
217 193 204
218 193 203
219 193 202
219 193 202
220 193 201
221 193 200
221 193 199
222 193 198
223 193 198
223 193 197
224 193 196
225 193 195
225 193 194
226 193 193
227 193 193
228 193 192
228 193 191
229 193 190
230 193 189
230 193 188
231 193 187
232 193 186
232 193 185
233 193 184
234 193 183
235 193 182
235 193 181
236 193 180
236 193 179
237 193 179
238 193 177
238 193 176
239 193 176
240 193 175
240 193 174
241 193 173
241 193 172
242 193 171
242 193 170
243 193 169
243 193 168
244 193 167
244 193 167
245 193 166
245 193 165
246 193 164
246 193 163
246 193 163
247 193 162
247 193 161
248 193 161
248 193 160
248 193 160
248 193 159
249 193 158
249 193 158
249 193 157
250 193 157
250 193 156
250 193 156
250 193 155
250 193 155
251 193 155
251 193 154
251 193 154
251 193 154
251 193 153
251 193 153
251 193 153
252 193 153
252 193 152
252 193 152
252 193 152
252 193 152
252 193 152
252 193 151
252 193 151
252 193 151
252 193 151
252 193 151
252 193 151
252 193 151
252 193 151
252 193 151
209 193 213
209 193 212
210 193 212
210 193 211
211 193 211
212 193 210
212 193 210
213 193 209
213 193 208
214 193 208
214 193 207
215 193 207
215 193 206
216 193 206
217 193 205
217 193 204
218 193 204
218 193 203
219 193 202
220 193 201
221 193 200
221 193 200
222 193 199
222 193 198
223 193 197
224 193 196
224 193 196
225 193 195
226 193 194
226 193 193
227 193 193
228 193 191
228 193 191
229 193 190
230 193 189
231 193 188
231 193 187
232 193 186
233 193 185
234 193 184
234 193 183
235 193 182
235 193 181
236 193 180
237 193 179
237 193 178
238 193 177
239 193 176
239 193 175
240 193 174
240 193 173
241 193 172
241 193 172
242 193 171
243 193 170
243 193 169
244 193 168
244 193 167
245 193 166
245 193 165
245 193 164
246 193 164
246 193 163
247 193 162
247 193 162
247 193 161
248 193 160
248 193 160
248 193 159
249 193 158
249 193 158
249 193 157
249 193 157
250 193 156
250 193 156
250 193 155
250 193 155
251 193 155
251 193 154
251 193 154
251 193 153
251 193 153
251 193 153
252 193 152
252 193 152
252 193 152
252 193 152
252 193 152
252 193 151
252 193 151
252 193 151
252 193 151
252 193 151
252 193 151
252 193 151
252 193 151
252 193 150
253 193 150
253 193 150
253 193 150
209 193 212
210 193 212
210 193 211
211 193 211
211 193 210
212 193 210
212 193 209
213 193 209
214 193 208
214 193 208
215 193 207
215 193 206
216 193 206
216 193 205
217 193 205
217 193 204
218 193 203
219 193 202
219 193 202
220 193 201
221 193 200
221 193 199
222 193 199
223 193 198
223 193 197
224 193 196
225 193 195
225 193 195
226 193 194
227 193 193
227 193 192
228 193 191
229 193 190
229 193 189
230 193 188
231 193 187
232 193 186
232 193 186
233 193 184
233 193 184
234 193 183
235 193 182
236 193 181
236 193 180
237 193 178
238 193 178
238 193 177
239 193 176
240 193 175
240 193 174
241 193 173
241 193 172
242 193 171
242 193 170
243 193 169
243 193 168
244 193 168
244 193 167
245 193 166
245 193 165
246 193 164
246 193 163
246 193 163
247 193 162
247 193 161
248 193 161
248 193 160
248 193 159
248 193 159
249 193 158
249 193 157
249 193 157
250 193 157
250 193 156
250 193 155
250 193 155
251 193 155
251 193 154
251 193 154
251 193 153
251 193 153
251 193 153
252 193 152
252 193 152
252 193 152
252 193 152
252 193 151
252 193 151
252 193 151
252 193 151
252 193 151
252 193 151
252 193 150
253 193 150
253 193 150
253 193 150
253 193 150
253 193 150
253 193 150
253 193 150
209 193 212
210 193 212
210 193 211
211 193 211
212 193 210
212 193 209
213 193 209
213 193 208
214 193 208
214 193 207
215 193 207
215 193 206
216 193 205
217 193 205
217 193 204
218 193 203
218 193 203
219 193 202
220 193 201
220 193 201
221 193 200
222 193 199
222 193 198
223 193 197
224 193 197
224 193 196
225 193 195
226 193 194
226 193 193
227 193 193
228 193 191
229 193 190
229 193 190
230 193 189
230 193 188
231 193 187
232 193 186
233 193 185
233 193 184
234 193 183
235 193 182
235 193 181
236 193 180
236 193 179
237 193 178
238 193 177
238 193 177
239 193 175
240 193 174
240 193 173
241 193 172
241 193 172
242 193 171
242 193 170
243 193 169
244 193 168
244 193 167
244 193 166
245 193 165
245 193 165
246 193 164
246 193 163
247 193 162
247 193 161
247 193 161
248 193 160
248 193 159
248 193 159
249 193 158
249 193 158
249 193 157
250 193 157
250 193 156
250 193 156
250 193 155
250 193 155
251 193 154
251 193 154
251 193 153
251 193 153
251 193 153
252 193 152
252 193 152
252 193 152
252 193 152
252 193 151
252 193 151
252 193 151
252 193 151
252 193 151
252 193 150
253 193 150
253 193 150
253 193 150
253 193 150
253 193 150
253 193 150
253 193 150
253 193 150
253 193 150
210 193 212
210 193 212
211 193 211
211 193 210
212 193 210
212 193 209
213 193 209
213 193 208
214 193 208
215 193 207
215 193 206
216 193 206
216 193 205
217 193 205
218 193 204
218 193 203
219 193 203
219 193 202
220 193 201
221 193 200
221 193 199
222 193 199
222 193 198
223 193 197
224 193 196
225 193 196
225 193 195
226 193 194
227 193 193
227 193 192
228 193 191
229 193 190
229 193 189
230 193 189
231 193 188
232 193 186
232 193 186
233 193 185
233 193 184
234 193 183
235 193 182
235 193 181
236 193 180
237 193 179
237 193 178
238 193 177
238 193 176
239 193 175
240 193 174
241 193 173
241 193 172
242 193 171
242 193 170
243 193 169
243 193 169
244 193 167
244 193 167
245 193 166
245 193 165
246 193 164
246 193 163
246 193 163
247 193 162
247 193 161
247 193 161
248 193 160
248 193 159
248 193 159
249 193 158
249 193 157
249 193 157
250 193 156
250 193 156
250 193 155
250 193 155
251 193 154
251 193 154
251 193 154
251 193 153
251 193 153
252 193 153
252 193 152
252 193 152
252 193 152
252 193 151
252 193 151
252 193 151
252 193 151
252 193 151
253 193 150
253 193 150
253 193 150
253 193 150
253 193 150
253 193 150
253 193 149
253 193 150
253 193 149
253 193 149
253 193 149
210 193 212
211 193 211
211 193 210
212 193 210
212 193 209
213 193 209
213 193 208
214 193 208
214 193 207
215 193 207
215 193 206
216 193 205
217 193 205
217 193 204
218 193 203
219 193 203
219 193 202
220 193 201
220 193 200
221 193 200
222 193 199
222 193 199
223 193 197
224 193 197
224 193 196
225 193 195
226 193 194
226 193 193
227 193 192
228 193 192
228 193 191
229 193 190
230 193 189
230 193 188
231 193 187
232 193 186
232 193 185
233 193 184
234 193 183
234 193 182
235 193 182
236 193 180
236 193 180
237 193 178
238 193 177
238 193 177
239 193 175
239 193 175
240 193 174
241 193 173
241 193 172
242 193 171
242 193 170
243 193 169
243 193 168
244 193 167
244 193 166
245 193 165
245 193 165
246 193 164
246 193 163
247 193 162
247 193 162
247 193 161
248 193 160
248 193 160
248 193 159
249 193 158
249 193 158
249 193 157
250 193 156
250 193 156
250 193 155
250 193 155
251 193 154
251 193 154
251 193 154
251 193 153
251 193 153
252 193 153
252 193 152
252 193 152
252 193 152
252 193 151
252 193 151
252 193 151
252 193 151
253 193 150
253 193 150
253 193 150
253 193 150
253 193 150
253 193 150
253 193 149
253 193 149
253 193 149
253 193 149
253 193 149
253 193 149
253 193 149
210 193 211
211 193 211
211 193 210
212 193 210
213 193 209
213 193 209
214 193 208
214 193 207
215 193 207
215 193 206
216 193 206
216 193 205
217 193 204
218 193 204
218 193 203
219 193 202
219 193 202
220 193 201
221 193 200
221 193 200
222 193 199
222 193 198
223 193 197
224 193 196
225 193 196
225 193 195
226 193 194
227 193 193
227 193 192
228 193 191
228 193 191
229 193 190
230 193 189
230 193 188
231 193 187
232 193 186
233 193 185
233 193 184
234 193 183
235 193 182
235 193 181
236 193 180
237 193 179
237 193 178
238 193 177
239 193 176
239 193 175
240 193 174
240 193 173
241 193 172
241 193 172
242 193 170
242 193 170
243 193 169
244 193 168
244 193 167
245 193 166
245 193 165
245 193 165
246 193 164
246 193 163
247 193 162
247 193 161
247 193 161
248 193 160
248 193 159
248 193 159
249 193 158
249 193 157
250 193 157
250 193 156
250 193 156
250 193 155
250 193 155
251 193 154
251 193 154
251 193 153
251 193 153
252 193 153
252 193 152
252 193 152
252 193 152
252 193 151
252 193 151
252 193 151
252 193 150
253 193 150
253 193 150
253 193 150
253 193 150
253 193 150
253 193 149
253 193 149
253 193 149
253 193 149
253 193 149
253 193 149
253 193 149
253 193 149
253 193 149
211 193 211
211 193 210
212 193 210
212 193 209
213 193 209
213 193 208
214 193 208
214 193 207
215 193 206
215 193 206
216 193 205
217 193 205
217 193 204
218 193 203
218 193 203
219 193 202
220 193 201
220 193 201
221 193 200
222 193 199
222 193 198
223 193 198
223 193 197
224 193 196
225 193 195
225 193 195
226 193 194
227 193 193
227 193 192
228 193 191
229 193 190
230 193 189
230 193 188
231 193 187
232 193 186
232 193 186
233 193 185
234 193 184
234 193 183
235 193 182
235 193 181
236 193 180
237 193 179
237 193 178
238 193 177
239 193 176
239 193 175
240 193 174
240 193 173
241 193 172
242 193 171
242 193 170
243 193 169
243 193 168
244 193 168
244 193 166
245 193 166
245 193 165
246 193 164
246 193 163
246 193 163
247 193 162
247 193 161
248 193 160
248 193 160
248 193 159
249 193 158
249 193 158
249 193 157
250 193 156
250 193 156
250 193 155
250 193 155
251 193 154
251 193 154
251 193 154
251 193 153
251 193 153
252 193 152
252 193 152
252 193 152
252 193 151
252 193 151
252 193 151
252 193 151
253 193 150
253 193 150
253 193 150
253 193 150
253 193 149
253 193 149
253 193 149
253 193 149
253 193 149
253 193 149
253 193 149
253 193 149
253 193 149
253 193 148
253 193 148
211 193 211
211 193 210
212 193 210
212 193 209
213 193 209
213 193 208
214 193 207
215 193 207
215 193 206
216 193 206
216 193 205
217 193 205
218 193 204
218 193 203
219 193 202
219 193 202
220 193 201
220 193 200
221 193 200
222 193 199
222 193 198
223 193 197
224 193 197
224 193 196
225 193 195
226 193 194
226 193 193
227 193 193
228 193 191
228 193 191
229 193 190
230 193 189
230 193 188
231 193 187
232 193 186
233 193 185
233 193 184
234 193 183
235 193 182
235 193 181
236 193 181
236 193 179
237 193 178
238 193 177
238 193 177
239 193 175
239 193 175
240 193 174
240 193 173
241 193 172
242 193 171
242 193 170
243 193 169
243 193 168
244 193 167
244 193 167
245 193 166
245 193 165
246 193 164
246 193 163
247 193 162
247 193 161
247 193 161
248 193 160
248 193 159
248 193 159
249 193 158
249 193 157
249 193 157
250 193 156
250 193 156
250 193 155
250 193 155
251 193 154
251 193 154
251 193 153
251 193 153
252 193 152
252 193 152
252 193 152
252 193 151
252 193 151
252 193 151
252 193 150
253 193 150
253 193 150
253 193 150
253 193 150
253 193 149
253 193 149
253 193 149
253 193 149
253 193 149
253 193 149
253 193 149
253 193 148
253 193 148
253 193 148
254 193 148
254 193 148
211 193 210
212 193 210
212 193 209
213 193 209
213 193 208
214 193 208
214 193 207
215 193 207
215 193 206
216 193 205
217 193 205
217 193 204
218 193 204
218 193 203
219 193 202
220 193 201
220 193 201
221 193 200
221 193 199
222 193 199
223 193 198
223 193 197
224 193 196
225 193 195
225 193 195
226 193 194
226 193 193
227 193 192
228 193 191
229 193 190
229 193 189
230 193 189
230 193 188
231 193 187
232 193 186
233 193 185
233 193 184
234 193 183
235 193 182
235 193 181
236 193 180
237 193 179
237 193 178
238 193 177
238 193 176
239 193 175
240 193 174
240 193 173
241 193 173
241 193 171
242 193 171
243 193 169
243 193 169
244 193 168
244 193 167
245 193 166
245 193 165
245 193 164
246 193 164
246 193 163
247 193 162
247 193 161
247 193 161
248 193 160
248 193 159
249 193 159
249 193 158
249 193 157
250 193 157
250 193 156
250 193 155
250 193 155
251 193 154
251 193 154
251 193 153
251 193 153
251 193 153
252 193 152
252 193 152
252 193 152
252 193 151
252 193 151
252 193 151
253 193 150
253 193 150
253 193 150
253 193 150
253 193 149
253 193 149
253 193 149
253 193 149
253 193 149
253 193 148
253 193 148
253 193 148
253 193 148
254 193 148
254 193 148
254 193 148
254 193 148
212 193 210
212 193 210
213 193 209
213 193 209
214 193 208
214 193 207
215 193 207
215 193 206
216 193 205
216 193 205
217 193 204
217 193 204
218 193 203
219 193 203
219 193 202
220 193 201
221 193 200
221 193 200
222 193 199
222 193 198
223 193 198
224 193 197
224 193 196
225 193 195
225 193 194
226 193 193
227 193 192
227 193 192
228 193 191
229 193 190
230 193 189
230 193 189
231 193 187
231 193 187
232 193 186
233 193 185
234 193 184
234 193 183
235 193 182
235 193 181
236 193 180
237 193 179
237 193 178
238 193 177
239 193 176
239 193 175
240 193 174
240 193 173
241 193 172
241 193 171
242 193 170
243 193 169
243 193 169
244 193 168
244 193 167
245 193 166
245 193 165
246 193 164
246 193 163
246 193 163
247 193 162
247 193 161
248 193 160
248 193 160
248 193 159
249 193 158
249 193 158
249 193 157
250 193 157
250 193 156
250 193 155
251 193 155
251 193 154
251 193 154
251 193 153
251 193 153
252 193 152
252 193 152
252 193 152
252 193 151
252 193 151
252 193 151
253 193 150
253 193 150
253 193 150
253 193 150
253 193 149
253 193 149
253 193 149
253 193 149
253 193 149
253 193 148
253 193 148
254 193 148
254 193 148
254 193 148
254 193 148
254 193 148
254 193 148
254 193 148
212 193 210
212 193 209
213 193 209
213 193 208
214 193 208
214 193 207
215 193 207
216 193 206
216 193 205
217 193 205
217 193 204
218 193 204
218 193 203
219 193 202
219 193 202
220 193 201
221 193 200
221 193 199
222 193 199
223 193 198
223 193 197
224 193 196
225 193 196
225 193 195
226 193 194
226 193 193
227 193 192
228 193 191
228 193 191
229 193 189
230 193 189
230 193 188
231 193 187
232 193 186
232 193 185
233 193 184
234 193 183
234 193 182
235 193 182
236 193 181
236 193 179
237 193 179
238 193 178
238 193 177
239 193 176
239 193 175
240 193 174
240 193 173
241 193 172
242 193 171
242 193 170
243 193 169
243 193 168
244 193 167
244 193 167
245 193 166
245 193 165
246 193 164
246 193 163
247 193 162
247 193 162
247 193 161
248 193 160
248 193 159
249 193 159
249 193 158
249 193 157
249 193 157
250 193 156
250 193 156
250 193 155
250 193 155
251 193 154
251 193 154
251 193 153
251 193 153
252 193 152
252 193 152
252 193 151
252 193 151
252 193 151
252 193 151
253 193 150
253 193 150
253 193 150
253 193 149
253 193 149
253 193 149
253 193 149
253 193 149
253 193 148
253 193 148
254 193 148
254 193 148
254 193 148
254 193 148
254 193 148
254 193 148
254 193 148
254 193 148
212 193 209
213 193 209
213 193 208
214 193 208
214 193 207
215 193 207
215 193 206
216 193 206
216 193 205
217 193 204
218 193 204
218 193 203
219 193 203
219 193 202
220 193 201
221 193 200
221 193 200
222 193 199
222 193 198
223 193 198
223 193 197
224 193 196
225 193 195
225 193 194
226 193 194
227 193 193
227 193 192
228 193 191
229 193 190
229 193 189
230 193 189
231 193 188
231 193 187
232 193 186
233 193 185
233 193 184
234 193 183
234 193 182
235 193 181
236 193 180
236 193 179
237 193 178
238 193 177
238 193 176
239 193 176
239 193 175
240 193 174
241 193 173
241 193 172
242 193 171
242 193 170
243 193 169
243 193 168
244 193 167
244 193 166
245 193 166
245 193 165
246 193 164
246 193 163
247 193 162
247 193 162
247 193 161
248 193 160
248 193 159
248 193 159
249 193 158
249 193 157
249 193 157
250 193 156
250 193 156
250 193 155
251 193 154
251 193 154
251 193 153
251 193 153
252 193 152
252 193 152
252 193 152
252 193 151
252 193 151
252 193 151
253 193 150
253 193 150
253 193 150
253 193 149
253 193 149
253 193 149
253 193 149
253 193 149
253 193 148
253 193 148
254 193 148
254 193 148
254 193 148
254 193 148
254 193 148
254 193 148
254 193 148
254 193 147
254 193 147
212 193 209
213 193 209
213 193 208
214 193 208
214 193 207
215 193 207
215 193 206
216 193 205
217 193 205
217 193 204
218 193 204
218 193 203
219 193 202
219 193 202
220 193 201
220 193 200
221 193 199
222 193 199
222 193 198
223 193 197
224 193 197
224 193 196
225 193 195
226 193 194
226 193 193
227 193 193
228 193 192
228 193 191
229 193 190
229 193 189
230 193 188
231 193 187
232 193 186
232 193 185
233 193 185
233 193 184
234 193 183
235 193 182
235 193 181
236 193 180
237 193 179
237 193 178
238 193 177
238 193 176
239 193 175
240 193 174
240 193 174
241 193 173
241 193 172
242 193 171
242 193 170
243 193 169
243 193 168
244 193 167
244 193 166
245 193 165
245 193 165
246 193 164
246 193 163
247 193 162
247 193 161
247 193 161
248 193 160
248 193 159
249 193 159
249 193 158
249 193 157
250 193 156
250 193 156
250 193 155
250 193 155
251 193 154
251 193 154
251 193 153
251 193 153
252 193 152
252 193 152
252 193 151
252 193 151
252 193 151
252 193 150
253 193 150
253 193 150
253 193 149
253 193 149
253 193 149
253 193 149
253 193 149
253 193 148
254 193 148
254 193 148
254 193 148
254 193 148
254 193 148
254 193 148
254 193 147
254 193 147
254 193 147
254 193 147
254 193 147
213 193 209
213 193 208
214 193 208
214 193 207
215 193 207
215 193 206
216 193 206
216 193 205
217 193 204
217 193 204
218 193 203
218 193 203
219 193 202
220 193 201
220 193 201
221 193 200
221 193 199
222 193 199
223 193 198
223 193 197
224 193 196
225 193 196
225 193 195
226 193 194
227 193 193
227 193 192
228 193 192
228 193 191
229 193 190
230 193 189
230 193 188
231 193 187
232 193 186
232 193 185
233 193 184
234 193 184
234 193 183
235 193 182
235 193 181
236 193 180
237 193 179
237 193 178
238 193 177
239 193 176
239 193 175
240 193 174
240 193 173
241 193 172
241 193 171
242 193 171
242 193 170
243 193 169
244 193 168
244 193 167
244 193 166
245 193 165
245 193 164
246 193 164
246 193 163
247 193 162
247 193 161
248 193 160
248 193 160
248 193 159
249 193 158
249 193 158
249 193 157
250 193 156
250 193 156
250 193 155
250 193 155
251 193 154
251 193 154
251 193 153
251 193 153
252 193 152
252 193 152
252 193 151
252 193 151
252 193 151
253 193 150
253 193 150
253 193 150
253 193 149
253 193 149
253 193 149
253 193 149
253 193 148
253 193 148
254 193 148
254 193 148
254 193 148
254 193 148
254 193 148
254 193 147
254 193 147
254 193 147
254 193 147
254 193 147
254 193 147
213 193 209
213 193 208
214 193 208
214 193 207
215 193 206
215 193 206
216 193 206
217 193 205
217 193 204
218 193 204
218 193 203
219 193 202
219 193 202
220 193 201
221 193 200
221 193 200
222 193 199
222 193 198
223 193 197
224 193 197
224 193 196
225 193 195
225 193 195
226 193 194
227 193 193
227 193 192
228 193 191
229 193 190
229 193 190
230 193 189
230 193 188
231 193 187
232 193 186
232 193 185
233 193 184
234 193 183
234 193 183
235 193 181
236 193 180
236 193 180
237 193 179
238 193 178
238 193 177
239 193 176
239 193 175
240 193 174
240 193 173
241 193 172
241 193 171
242 193 170
243 193 169
243 193 169
244 193 168
244 193 166
245 193 166
245 193 165
246 193 164
246 193 163
246 193 163
247 193 162
247 193 161
248 193 160
248 193 160
248 193 159
249 193 158
249 193 158
249 193 157
250 193 156
250 193 156
250 193 155
251 193 155
251 193 154
251 193 154
251 193 153
251 193 153
252 193 152
252 193 152
252 193 151
252 193 151
252 193 150
253 193 150
253 193 150
253 193 150
253 193 149
253 193 149
253 193 149
253 193 149
253 193 148
254 193 148
254 193 148
254 193 148
254 193 148
254 193 148
254 193 147
254 193 147
254 193 147
254 193 147
254 193 147
254 193 147
254 193 147
213 193 208
214 193 208
214 193 207
215 193 207
215 193 206
216 193 206
216 193 205
217 193 205
217 193 204
218 193 203
218 193 203
219 193 202
220 193 201
220 193 201
221 193 200
221 193 199
222 193 199
223 193 198
223 193 197
224 193 196
225 193 196
225 193 195
226 193 194
226 193 193
227 193 192
228 193 192
228 193 191
229 193 190
229 193 189
230 193 188
231 193 187
231 193 187
232 193 186
233 193 185
233 193 184
234 193 183
235 193 182
235 193 181
236 193 180
236 193 179
237 193 178
238 193 177
238 193 177
239 193 175
239 193 175
240 193 174
240 193 173
241 193 172
242 193 171
242 193 170
243 193 169
243 193 168
244 193 168
244 193 167
245 193 166
245 193 165
246 193 164
246 193 163
247 193 162
247 193 162
247 193 161
248 193 160
248 193 159
249 193 159
249 193 158
249 193 157
249 193 157
250 193 156
250 193 156
250 193 155
251 193 154
251 193 154
251 193 153
251 193 153
252 193 152
252 193 152
252 193 152
252 193 151
252 193 151
252 193 150
253 193 150
253 193 150
253 193 150
253 193 149
253 193 149
253 193 149
253 193 148
253 193 148
254 193 148
254 193 148
254 193 148
254 193 148
254 193 147
254 193 147
254 193 147
254 193 147
254 193 147
254 193 147
254 193 147
254 193 147
213 193 208
214 193 208
214 193 207
215 193 206
215 193 206
216 193 205
217 193 205
217 193 204
218 193 204
218 193 203
219 193 202
219 193 202
220 193 201
220 193 200
221 193 200
221 193 199
222 193 199
223 193 198
223 193 197
224 193 196
224 193 196
225 193 195
226 193 194
227 193 193
227 193 192
228 193 192
228 193 191
229 193 190
230 193 189
230 193 188
231 193 187
232 193 186
232 193 186
233 193 185
233 193 184
234 193 183
235 193 182
235 193 181
236 193 180
237 193 179
237 193 178
238 193 177
238 193 177
239 193 176
239 193 175
240 193 174
241 193 173
241 193 172
242 193 171
242 193 170
243 193 169
243 193 168
244 193 168
244 193 167
245 193 166
245 193 165
246 193 164
246 193 163
247 193 162
247 193 161
247 193 161
248 193 160
248 193 159
248 193 159
249 193 158
249 193 157
249 193 157
250 193 156
250 193 155
250 193 155
251 193 154
251 193 154
251 193 153
251 193 153
252 193 152
252 193 152
252 193 152
252 193 151
252 193 151
253 193 150
253 193 150
253 193 150
253 193 149
253 193 149
253 193 149
253 193 149
253 193 148
254 193 148
254 193 148
254 193 148
254 193 148
254 193 147
254 193 147
254 193 147
254 193 147
254 193 147
254 193 147
254 193 147
254 193 147
254 193 147
214 193 208
214 193 207
215 193 207
215 193 206
216 193 205
216 193 205
217 193 205
217 193 204
218 193 203
218 193 203
219 193 202
220 193 201
220 193 201
221 193 200
221 193 200
222 193 199
222 193 198
223 193 197
224 193 197
224 193 196
225 193 195
225 193 194
226 193 194
227 193 193
227 193 192
228 193 191
229 193 190
229 193 190
230 193 189
231 193 188
231 193 187
232 193 186
232 193 185
233 193 184
234 193 184
234 193 183
235 193 182
235 193 181
236 193 180
237 193 179
237 193 178
238 193 177
238 193 176
239 193 176
240 193 174
240 193 173
241 193 173
241 193 172
242 193 171
242 193 170
243 193 169
243 193 168
244 193 167
244 193 166
245 193 165
245 193 165
246 193 164
246 193 163
247 193 162
247 193 162
247 193 161
248 193 160
248 193 159
248 193 159
249 193 158
249 193 157
250 193 157
250 193 156
250 193 156
250 193 155
251 193 154
251 193 154
251 193 153
251 193 153
252 193 152
252 193 152
252 193 152
252 193 151
252 193 151
253 193 150
253 193 150
253 193 150
253 193 149
253 193 149
253 193 149
253 193 149
253 193 148
254 193 148
254 193 148
254 193 148
254 193 148
254 193 147
254 193 147
254 193 147
254 193 147
254 193 147
254 193 147
254 193 147
254 193 147
254 193 147
214 193 208
214 193 207
215 193 207
215 193 206
216 193 205
216 193 205
217 193 204
218 193 204
218 193 203
218 193 203
219 193 202
220 193 201
220 193 201
221 193 200
222 193 199
222 193 199
223 193 198
223 193 197
224 193 196
224 193 196
225 193 195
226 193 194
226 193 194
227 193 193
228 193 192
228 193 191
229 193 190
229 193 189
230 193 189
231 193 188
231 193 187
232 193 186
232 193 185
233 193 184
234 193 183
234 193 183
235 193 181
236 193 180
236 193 180
237 193 179
237 193 178
238 193 177
239 193 176
239 193 175
240 193 174
240 193 173
241 193 172
241 193 172
242 193 171
243 193 170
243 193 169
243 193 168
244 193 167
244 193 166
245 193 165
245 193 165
246 193 164
246 193 163
247 193 162
247 193 162
247 193 161
248 193 160
248 193 159
249 193 159
249 193 158
249 193 157
249 193 157
250 193 156
250 193 155
250 193 155
251 193 154
251 193 154
251 193 153
251 193 153
252 193 152
252 193 152
252 193 151
252 193 151
252 193 151
253 193 150
253 193 150
253 193 150
253 193 149
253 193 149
253 193 149
253 193 149
253 193 148
254 193 148
254 193 148
254 193 148
254 193 148
254 193 147
254 193 147
254 193 147
254 193 147
254 193 147
254 193 147
254 193 147
254 193 147
254 193 147
214 193 207
215 193 207
215 193 206
216 193 206
216 193 205
217 193 205
217 193 204
218 193 204
218 193 203
219 193 202
219 193 202
220 193 201
220 193 200
221 193 200
222 193 199
222 193 198
223 193 198
224 193 197
224 193 196
225 193 196
225 193 195
226 193 194
226 193 193
227 193 192
228 193 192
228 193 191
229 193 190
229 193 189
230 193 188
231 193 187
231 193 187
232 193 186
233 193 185
233 193 184
234 193 183
235 193 182
235 193 182
236 193 181
236 193 180
237 193 179
237 193 178
238 193 177
239 193 176
239 193 175
240 193 174
240 193 173
241 193 172
241 193 171
242 193 170
243 193 170
243 193 169
243 193 168
244 193 167
244 193 166
245 193 165
245 193 165
246 193 164
246 193 163
247 193 162
247 193 162
247 193 161
248 193 160
248 193 159
248 193 159
249 193 158
249 193 157
249 193 157
250 193 156
250 193 155
250 193 155
251 193 154
251 193 154
251 193 153
251 193 153
252 193 152
252 193 152
252 193 151
252 193 151
252 193 151
252 193 150
253 193 150
253 193 150
253 193 149
253 193 149
253 193 149
253 193 149
253 193 148
254 193 148
254 193 148
254 193 148
254 193 148
254 193 147
254 193 147
254 193 147
254 193 147
254 193 147
254 193 147
254 193 147
254 193 147
254 193 146
214 193 207
215 193 207
215 193 206
216 193 205
216 193 205
217 193 204
217 193 204
218 193 203
218 193 203
219 193 202
220 193 201
220 193 201
221 193 200
221 193 200
222 193 199
223 193 198
223 193 198
224 193 197
224 193 196
225 193 195
226 193 194
226 193 194
226 193 193
227 193 192
228 193 191
229 193 190
229 193 190
230 193 189
230 193 188
231 193 187
232 193 186
232 193 186
233 193 184
233 193 184
234 193 183
235 193 182
235 193 181
236 193 180
237 193 179
237 193 179
238 193 178
238 193 177
239 193 176
239 193 175
240 193 174
240 193 173
241 193 172
241 193 171
242 193 170
243 193 170
243 193 169
244 193 168
244 193 167
244 193 166
245 193 165
245 193 165
246 193 164
246 193 163
247 193 162
247 193 161
247 193 161
248 193 160
248 193 159
249 193 158
249 193 158
249 193 157
250 193 157
250 193 156
250 193 156
250 193 155
251 193 154
251 193 154
251 193 153
251 193 153
252 193 152
252 193 152
252 193 152
252 193 151
252 193 151
253 193 150
253 193 150
253 193 150
253 193 149
253 193 149
253 193 149
253 193 149
253 193 148
254 193 148
254 193 148
254 193 148
254 193 147
254 193 147
254 193 147
254 193 147
254 193 147
254 193 147
254 193 147
254 193 147
254 193 146
254 193 146
215 193 207
215 193 206
216 193 206
216 193 205
217 193 205
217 193 204
218 193 204
218 193 203
219 193 202
219 193 202
220 193 201
220 193 201
221 193 200
221 193 199
222 193 199
223 193 198
223 193 197
224 193 196
225 193 196
225 193 195
226 193 194
226 193 193
227 193 193
228 193 192
228 193 191
228 193 191
229 193 189
230 193 189
230 193 188
231 193 187
232 193 186
232 193 185
233 193 185
234 193 184
234 193 183
235 193 182
235 193 181
236 193 180
236 193 179
237 193 179
238 193 178
238 193 177
239 193 176
239 193 175
240 193 174
240 193 173
241 193 172
242 193 171
242 193 170
243 193 170
243 193 169
244 193 168
244 193 167
245 193 166
245 193 165
245 193 165
246 193 164
246 193 163
247 193 162
247 193 162
247 193 161
248 193 160
248 193 159
249 193 159
249 193 158
249 193 157
250 193 157
250 193 156
250 193 155
250 193 155
251 193 154
251 193 154
251 193 153
251 193 153
252 193 152
252 193 152
252 193 152
252 193 151
252 193 151
253 193 150
253 193 150
253 193 150
253 193 149
253 193 149
253 193 149
253 193 149
253 193 148
254 193 148
254 193 148
254 193 148
254 193 148
254 193 147
254 193 147
254 193 147
254 193 147
254 193 147
254 193 147
254 193 147
254 193 146
254 193 146
215 193 207
215 193 206
216 193 205
217 193 205
217 193 204
217 193 204
218 193 203
219 193 203
219 193 202
219 193 202
220 193 201
221 193 200
221 193 199
222 193 199
222 193 198
223 193 198
224 193 197
224 193 196
225 193 196
225 193 195
226 193 194
226 193 193
227 193 192
228 193 192
228 193 191
229 193 190
229 193 189
230 193 189
230 193 188
231 193 187
232 193 186
232 193 185
233 193 184
234 193 183
234 193 183
235 193 182
235 193 181
236 193 180
237 193 179
237 193 178
238 193 177
238 193 177
239 193 176
239 193 175
240 193 174
241 193 173
241 193 172
242 193 171
242 193 170
243 193 170
243 193 169
244 193 168
244 193 167
244 193 166
245 193 165
245 193 164
246 193 164
246 193 163
247 193 162
247 193 161
248 193 161
248 193 160
248 193 159
249 193 159
249 193 158
249 193 157
250 193 157
250 193 156
250 193 155
250 193 155
251 193 155
251 193 154
251 193 153
251 193 153
252 193 153
252 193 152
252 193 151
252 193 151
252 193 151
253 193 150
253 193 150
253 193 150
253 193 149
253 193 149
253 193 149
253 193 149
253 193 148
254 193 148
254 193 148
254 193 148
254 193 147
254 193 147
254 193 147
254 193 147
254 193 147
254 193 147
254 193 147
254 193 147
254 193 146
254 193 146
215 193 206
216 193 206
216 193 205
217 193 205
217 193 204
218 193 204
218 193 203
219 193 202
219 193 202
220 193 201
220 193 201
221 193 200
221 193 199
222 193 199
223 193 198
223 193 197
224 193 197
224 193 196
225 193 195
225 193 195
226 193 194
227 193 193
227 193 192
228 193 191
228 193 191
229 193 190
229 193 189
230 193 189
231 193 187
231 193 187
232 193 186
233 193 185
233 193 184
234 193 183
234 193 182
235 193 182
236 193 181
236 193 180
237 193 179
237 193 178
238 193 177
238 193 176
239 193 175
239 193 175
240 193 174
241 193 173
241 193 172
242 193 171
242 193 170
243 193 170
243 193 168
244 193 168
244 193 167
245 193 166
245 193 165
245 193 165
246 193 164
246 193 163
247 193 162
247 193 161
247 193 161
248 193 160
248 193 159
248 193 159
249 193 158
249 193 157
249 193 157
250 193 156
250 193 156
250 193 155
251 193 154
251 193 154
251 193 153
251 193 153
252 193 152
252 193 152
252 193 152
252 193 151
252 193 151
253 193 150
253 193 150
253 193 150
253 193 149
253 193 149
253 193 149
253 193 149
253 193 148
254 193 148
254 193 148
254 193 148
254 193 148
254 193 147
254 193 147
254 193 147
254 193 147
254 193 147
254 193 147
254 193 147
254 193 146
254 193 146
215 193 206
216 193 205
216 193 205
217 193 204
217 193 204
218 193 203
218 193 203
219 193 202
219 193 202
220 193 201
221 193 200
221 193 200
222 193 199
222 193 199
223 193 198
223 193 197
224 193 196
224 193 196
225 193 195
226 193 194
226 193 194
227 193 193
227 193 192
228 193 191
228 193 191
229 193 190
230 193 189
230 193 188
231 193 187
232 193 186
232 193 186
233 193 185
233 193 184
234 193 183
234 193 183
235 193 181
236 193 181
236 193 179
237 193 179
237 193 178
238 193 177
239 193 176
239 193 175
239 193 175
240 193 174
241 193 173
241 193 172
242 193 171
242 193 170
243 193 169
243 193 168
244 193 168
244 193 167
244 193 166
245 193 165
245 193 165
246 193 164
246 193 163
247 193 162
247 193 162
247 193 161
248 193 160
248 193 159
249 193 159
249 193 158
249 193 157
249 193 157
250 193 156
250 193 156
250 193 155
250 193 155
251 193 154
251 193 154
251 193 153
251 193 153
252 193 152
252 193 152
252 193 151
252 193 151
252 193 151
253 193 150
253 193 150
253 193 150
253 193 149
253 193 149
253 193 149
253 193 148
254 193 148
254 193 148
254 193 148
254 193 148
254 193 147
254 193 147
254 193 147
254 193 147
254 193 147
254 193 147
254 193 147
254 193 146
254 193 146
216 193 206
216 193 205
217 193 205
217 193 204
218 193 204
218 193 203
218 193 203
219 193 202
220 193 201
220 193 201
221 193 200
221 193 200
222 193 199
222 193 198
223 193 197
224 193 197
224 193 196
225 193 195
225 193 195
226 193 194
226 193 193
227 193 193
227 193 192
228 193 191
229 193 190
229 193 189
230 193 189
230 193 188
231 193 187
232 193 186
232 193 186
233 193 185
233 193 184
234 193 183
235 193 182
235 193 181
236 193 180
236 193 180
237 193 179
237 193 178
238 193 177
239 193 176
239 193 175
239 193 175
240 193 174
241 193 173
241 193 172
242 193 171
242 193 170
243 193 169
243 193 169
244 193 168
244 193 167
244 193 166
245 193 165
245 193 165
246 193 164
246 193 163
247 193 162
247 193 162
247 193 161
248 193 160
248 193 159
248 193 159
249 193 158
249 193 157
249 193 157
250 193 156
250 193 156
250 193 155
250 193 155
251 193 154
251 193 154
251 193 153
251 193 153
252 193 152
252 193 152
252 193 151
252 193 151
252 193 151
253 193 150
253 193 150
253 193 150
253 193 149
253 193 149
253 193 149
253 193 148
254 193 148
254 193 148
254 193 148
254 193 148
254 193 147
254 193 147
254 193 147
254 193 147
254 193 147
254 193 147
254 193 147
254 193 146
254 193 146
216 193 206
216 193 205
217 193 205
217 193 204
218 193 204
218 193 203
219 193 202
219 193 202
220 193 201
220 193 201
221 193 200
222 193 199
222 193 199
223 193 198
223 193 197
224 193 197
224 193 196
225 193 195
225 193 195
226 193 194
226 193 193
227 193 192
228 193 192
228 193 191
229 193 190
229 193 189
230 193 188
231 193 188
231 193 187
232 193 186
232 193 185
233 193 184
233 193 184
234 193 183
235 193 182
235 193 181
236 193 180
236 193 179
237 193 179
238 193 178
238 193 177
239 193 176
239 193 175
240 193 175
240 193 174
241 193 173
241 193 172
242 193 171
242 193 170
243 193 169
243 193 169
244 193 168
244 193 167
245 193 166
245 193 165
245 193 165
246 193 164
246 193 163
247 193 162
247 193 162
247 193 161
248 193 160
248 193 160
248 193 159
249 193 158
249 193 158
249 193 157
250 193 156
250 193 156
250 193 155
251 193 155
251 193 154
251 193 154
251 193 153
251 193 153
252 193 152
252 193 152
252 193 151
252 193 151
252 193 151
253 193 150
253 193 150
253 193 150
253 193 149
253 193 149
253 193 149
253 193 149
253 193 148
254 193 148
254 193 148
254 193 148
254 193 147
254 193 147
254 193 147
254 193 147
254 193 147
254 193 147
254 193 147
254 193 147
254 193 146
216 193 205
216 193 205
217 193 204
218 193 204
218 193 203
218 193 203
219 193 202
220 193 201
220 193 201
221 193 200
221 193 200
222 193 199
222 193 198
223 193 198
223 193 197
224 193 196
224 193 196
225 193 195
226 193 194
226 193 194
227 193 193
227 193 192
228 193 192
228 193 191
229 193 190
229 193 189
230 193 188
231 193 188
231 193 187
232 193 186
233 193 185
233 193 185
234 193 183
234 193 183
235 193 182
235 193 181
236 193 180
236 193 179
237 193 178
238 193 178
238 193 177
239 193 176
239 193 175
240 193 174
240 193 174
241 193 173
241 193 172
242 193 171
242 193 170
243 193 169
243 193 169
244 193 168
244 193 167
245 193 166
245 193 166
245 193 165
246 193 164
246 193 163
247 193 162
247 193 162
247 193 161
248 193 160
248 193 160
248 193 159
249 193 158
249 193 158
249 193 157
250 193 156
250 193 156
250 193 155
250 193 155
251 193 154
251 193 154
251 193 153
251 193 153
252 193 152
252 193 152
252 193 151
252 193 151
252 193 151
252 193 150
253 193 150
253 193 150
253 193 150
253 193 149
253 193 149
253 193 149
253 193 148
254 193 148
254 193 148
254 193 148
254 193 148
254 193 147
254 193 147
254 193 147
254 193 147
254 193 147
254 193 147
254 193 147
254 193 146
216 193 205
217 193 205
217 193 204
218 193 203
218 193 203
219 193 202
219 193 202
220 193 201
220 193 201
221 193 200
221 193 199
222 193 199
222 193 198
223 193 198
224 193 197
224 193 196
225 193 195
225 193 195
226 193 194
226 193 193
227 193 193
227 193 192
228 193 191
228 193 191
229 193 190
230 193 189
230 193 188
231 193 188
231 193 187
232 193 186
232 193 185
233 193 184
234 193 183
234 193 183
235 193 182
235 193 181
236 193 180
236 193 179
237 193 179
238 193 178
238 193 177
239 193 176
239 193 175
240 193 174
240 193 173
241 193 173
241 193 172
242 193 171
242 193 170
243 193 169
243 193 168
244 193 168
244 193 167
245 193 166
245 193 165
245 193 165
246 193 164
246 193 163
247 193 162
247 193 162
247 193 161
248 193 160
248 193 160
248 193 159
249 193 158
249 193 158
249 193 157
250 193 157
250 193 156
250 193 155
250 193 155
251 193 154
251 193 154
251 193 153
251 193 153
252 193 153
252 193 152
252 193 152
252 193 151
252 193 151
252 193 151
253 193 150
253 193 150
253 193 150
253 193 149
253 193 149
253 193 149
253 193 148
253 193 148
254 193 148
254 193 148
254 193 148
254 193 147
254 193 147
254 193 147
254 193 147
254 193 147
254 193 147
254 193 147
254 193 147
217 193 205
217 193 204
217 193 204
218 193 203
218 193 203
219 193 202
219 193 202
220 193 201
221 193 200
221 193 200
221 193 199
222 193 199
223 193 198
223 193 197
224 193 197
224 193 196
225 193 195
225 193 194
226 193 194
226 193 193
227 193 192
227 193 192
228 193 191
229 193 190
229 193 190
230 193 189
230 193 188
231 193 187
232 193 186
232 193 186
233 193 185
233 193 184
234 193 183
234 193 183
235 193 182
235 193 181
236 193 180
237 193 179
237 193 179
238 193 177
238 193 177
239 193 176
239 193 175
240 193 174
240 193 173
241 193 173
241 193 172
242 193 171
242 193 170
243 193 170
243 193 169
244 193 168
244 193 167
244 193 166
245 193 165
245 193 165
246 193 164
246 193 163
246 193 163
247 193 162
247 193 161
248 193 160
248 193 160
248 193 159
249 193 158
249 193 158
249 193 157
249 193 157
250 193 156
250 193 156
250 193 155
251 193 154
251 193 154
251 193 154
251 193 153
251 193 153
252 193 152
252 193 152
252 193 151
252 193 151
252 193 151
253 193 150
253 193 150
253 193 150
253 193 149
253 193 149
253 193 149
253 193 149
253 193 148
254 193 148
254 193 148
254 193 148
254 193 148
254 193 147
254 193 147
254 193 147
254 193 147
254 193 147
254 193 147
254 193 147
217 193 205
217 193 204
218 193 204
218 193 203
219 193 202
219 193 202
220 193 201
220 193 201
221 193 200
221 193 199
222 193 199
222 193 198
223 193 198
223 193 197
224 193 196
224 193 196
225 193 195
225 193 194
226 193 194
227 193 193
227 193 192
228 193 192
228 193 191
229 193 190
229 193 189
230 193 189
231 193 188
231 193 187
232 193 186
232 193 186
233 193 185
233 193 184
234 193 183
234 193 183
235 193 182
236 193 181
236 193 180
236 193 179
237 193 178
238 193 177
238 193 176
239 193 176
239 193 175
240 193 174
240 193 174
241 193 172
241 193 172
242 193 171
242 193 170
243 193 169
243 193 169
244 193 168
244 193 167
245 193 166
245 193 166
245 193 165
246 193 164
246 193 163
246 193 163
247 193 162
247 193 161
248 193 160
248 193 160
248 193 159
249 193 159
249 193 158
249 193 157
249 193 157
250 193 156
250 193 156
250 193 155
251 193 155
251 193 154
251 193 154
251 193 153
251 193 153
252 193 152
252 193 152
252 193 152
252 193 151
252 193 151
253 193 150
253 193 150
253 193 150
253 193 150
253 193 149
253 193 149
253 193 149
253 193 148
253 193 148
254 193 148
254 193 148
254 193 148
254 193 147
254 193 147
254 193 147
254 193 147
254 193 147
254 193 147
254 193 147
217 193 204
217 193 204
218 193 203
218 193 203
219 193 202
219 193 202
220 193 201
220 193 201
221 193 200
221 193 199
222 193 199
222 193 198
223 193 197
223 193 197
224 193 196
225 193 196
225 193 195
226 193 194
226 193 193
227 193 193
227 193 192
228 193 192
228 193 191
229 193 190
229 193 189
230 193 189
231 193 188
231 193 187
232 193 186
232 193 185
233 193 184
233 193 184
234 193 183
234 193 182
235 193 181
236 193 181
236 193 180
237 193 179
237 193 178
238 193 177
238 193 177
239 193 176
239 193 175
240 193 174
240 193 173
241 193 173
241 193 172
242 193 171
242 193 170
243 193 169
243 193 169
243 193 168
244 193 167
245 193 166
245 193 166
245 193 165
246 193 164
246 193 163
246 193 163
247 193 162
247 193 161
248 193 160
248 193 160
248 193 159
249 193 159
249 193 158
249 193 157
249 193 157
250 193 156
250 193 156
250 193 155
250 193 155
251 193 154
251 193 154
251 193 153
251 193 153
252 193 153
252 193 152
252 193 152
252 193 151
252 193 151
252 193 151
253 193 150
253 193 150
253 193 150
253 193 149
253 193 149
253 193 149
253 193 149
253 193 148
254 193 148
254 193 148
254 193 148
254 193 148
254 193 147
254 193 147
254 193 147
254 193 147
254 193 147
254 193 147
217 193 204
218 193 204
218 193 203
219 193 203
219 193 202
220 193 201
220 193 201
220 193 200
221 193 200
222 193 199
222 193 198
223 193 198
223 193 197
224 193 197
224 193 196
225 193 195
225 193 195
226 193 194
226 193 193
227 193 193
227 193 192
228 193 191
228 193 191
229 193 190
230 193 189
230 193 188
231 193 188
231 193 187
232 193 186
232 193 185
233 193 185
233 193 184
234 193 183
234 193 182
235 193 181
236 193 180
236 193 180
237 193 179
237 193 178
238 193 177
238 193 177
239 193 176
239 193 175
240 193 174
240 193 173
241 193 173
241 193 172
242 193 171
242 193 170
243 193 169
243 193 169
243 193 168
244 193 167
244 193 166
245 193 166
245 193 165
246 193 164
246 193 163
246 193 163
247 193 162
247 193 161
247 193 161
248 193 160
248 193 159
248 193 159
249 193 158
249 193 158
249 193 157
250 193 156
250 193 156
250 193 155
250 193 155
251 193 154
251 193 154
251 193 153
251 193 153
251 193 153
252 193 152
252 193 152
252 193 151
252 193 151
252 193 151
253 193 150
253 193 150
253 193 150
253 193 149
253 193 149
253 193 149
253 193 149
253 193 148
253 193 148
254 193 148
254 193 148
254 193 148
254 193 147
254 193 147
254 193 147
254 193 147
254 193 147
254 193 147
217 193 204
218 193 203
218 193 203
219 193 202
219 193 202
220 193 201
220 193 201
221 193 200
221 193 200
222 193 199
222 193 198
223 193 198
223 193 197
224 193 196
224 193 196
225 193 195
225 193 195
226 193 194
226 193 193
227 193 192
228 193 192
228 193 191
229 193 190
229 193 190
230 193 189
230 193 188
231 193 188
231 193 187
232 193 186
232 193 185
233 193 184
233 193 184
234 193 183
235 193 182
235 193 181
236 193 181
236 193 180
237 193 179
237 193 178
238 193 177
238 193 177
239 193 176
239 193 175
240 193 174
240 193 174
241 193 173
241 193 172
242 193 171
242 193 170
243 193 169
243 193 169
243 193 168
244 193 167
244 193 166
245 193 166
245 193 165
246 193 164
246 193 164
246 193 163
247 193 162
247 193 162
247 193 161
248 193 160
248 193 160
248 193 159
249 193 158
249 193 158
249 193 157
250 193 157
250 193 156
250 193 156
250 193 155
251 193 155
251 193 154
251 193 154
251 193 153
251 193 153
252 193 152
252 193 152
252 193 152
252 193 151
252 193 151
252 193 151
253 193 150
253 193 150
253 193 150
253 193 149
253 193 149
253 193 149
253 193 149
253 193 148
254 193 148
254 193 148
254 193 148
254 193 148
254 193 147
254 193 147
254 193 147
254 193 147
254 193 147
218 193 204
218 193 203
219 193 203
219 193 202
219 193 202
220 193 201
220 193 200
221 193 200
221 193 199
222 193 199
222 193 198
223 193 198
223 193 197
224 193 196
225 193 196
225 193 195
225 193 194
226 193 194
227 193 193
227 193 192
228 193 192
228 193 191
229 193 190
229 193 189
230 193 189
230 193 188
231 193 188
231 193 187
232 193 186
233 193 185
233 193 184
234 193 183
234 193 183
235 193 182
235 193 181
236 193 180
236 193 180
237 193 179
237 193 178
238 193 177
238 193 177
239 193 176
239 193 175
240 193 174
240 193 173
241 193 172
241 193 172
242 193 171
242 193 170
243 193 170
243 193 169
243 193 168
244 193 167
244 193 166
245 193 166
245 193 165
245 193 164
246 193 164
246 193 163
247 193 162
247 193 162
247 193 161
248 193 160
248 193 160
248 193 159
249 193 159
249 193 158
249 193 157
249 193 157
250 193 156
250 193 156
250 193 155
250 193 155
251 193 154
251 193 154
251 193 153
251 193 153
251 193 153
252 193 152
252 193 152
252 193 151
252 193 151
252 193 151
253 193 150
253 193 150
253 193 150
253 193 150
253 193 149
253 193 149
253 193 149
253 193 149
253 193 148
254 193 148
254 193 148
254 193 148
254 193 148
254 193 147
254 193 147
254 193 147
254 193 147
218 193 203
218 193 203
219 193 202
219 193 202
220 193 201
220 193 201
221 193 200
221 193 200
222 193 199
222 193 199
223 193 198
223 193 197
224 193 197
224 193 196
225 193 195
225 193 195
226 193 194
226 193 193
227 193 193
227 193 192
228 193 192
228 193 191
229 193 190
229 193 189
230 193 189
230 193 188
231 193 187
231 193 187
232 193 186
233 193 185
233 193 184
234 193 184
234 193 183
235 193 182
235 193 181
236 193 180
236 193 180
237 193 179
237 193 178
238 193 177
238 193 176
239 193 176
239 193 175
240 193 174
240 193 173
241 193 173
241 193 172
242 193 171
242 193 170
243 193 169
243 193 169
243 193 168
244 193 167
244 193 167
245 193 166
245 193 165
245 193 164
246 193 164
246 193 163
247 193 162
247 193 162
247 193 161
248 193 160
248 193 160
248 193 159
249 193 159
249 193 158
249 193 157
249 193 157
250 193 156
250 193 156
250 193 155
250 193 155
251 193 154
251 193 154
251 193 153
251 193 153
251 193 153
252 193 152
252 193 152
252 193 152
252 193 151
252 193 151
252 193 150
253 193 150
253 193 150
253 193 150
253 193 149
253 193 149
253 193 149
253 193 149
253 193 148
254 193 148
254 193 148
254 193 148
254 193 148
254 193 148
254 193 147
254 193 147
254 193 147
218 193 203
218 193 203
219 193 202
219 193 202
220 193 201
220 193 201
221 193 200
221 193 199
222 193 199
222 193 198
223 193 198
223 193 197
224 193 196
224 193 196
225 193 195
225 193 195
226 193 194
226 193 193
227 193 193
227 193 192
228 193 191
228 193 191
229 193 190
229 193 189
230 193 188
230 193 188
231 193 187
232 193 186
232 193 185
233 193 185
233 193 184
234 193 183
234 193 183
235 193 182
235 193 181
236 193 180
236 193 179
237 193 179
237 193 178
238 193 177
238 193 176
239 193 176
239 193 175
240 193 174
240 193 173
241 193 173
241 193 172
242 193 171
242 193 170
242 193 170
243 193 169
243 193 168
244 193 167
244 193 167
244 193 166
245 193 165
245 193 165
246 193 164
246 193 163
246 193 163
247 193 162
247 193 161
247 193 161
248 193 160
248 193 159
248 193 159
249 193 158
249 193 158
249 193 157
249 193 157
250 193 156
250 193 156
250 193 155
250 193 155
251 193 154
251 193 154
251 193 153
251 193 153
252 193 152
252 193 152
252 193 152
252 193 151
252 193 151
252 193 151
253 193 150
253 193 150
253 193 150
253 193 150
253 193 149
253 193 149
253 193 149
253 193 149
253 193 148
254 193 148
254 193 148
254 193 148
254 193 148
254 193 147
254 193 147
254 193 147
218 193 203
219 193 202
219 193 202
220 193 201
220 193 201
220 193 201
221 193 200
221 193 199
222 193 199
222 193 198
223 193 198
223 193 197
224 193 196
225 193 196
225 193 195
225 193 194
226 193 194
227 193 193
227 193 193
228 193 192
228 193 191
229 193 190
229 193 190
230 193 189
230 193 188
231 193 188
231 193 187
232 193 186
232 193 186
233 193 185
233 193 184
234 193 183
234 193 183
235 193 182
235 193 181
236 193 180
236 193 179
237 193 179
237 193 178
238 193 177
238 193 177
239 193 176
239 193 175
240 193 174
240 193 173
241 193 173
241 193 172
242 193 171
242 193 170
242 193 170
243 193 169
243 193 168
244 193 168
244 193 167
245 193 166
245 193 165
245 193 165
246 193 164
246 193 163
246 193 163
247 193 162
247 193 161
247 193 161
248 193 160
248 193 160
248 193 159
249 193 158
249 193 158
249 193 157
249 193 157
250 193 156
250 193 156
250 193 155
250 193 155
251 193 154
251 193 154
251 193 153
251 193 153
252 193 152
252 193 152
252 193 152
252 193 151
252 193 151
252 193 151
252 193 151
253 193 150
253 193 150
253 193 150
253 193 149
253 193 149
253 193 149
253 193 149
253 193 149
253 193 148
254 193 148
254 193 148
254 193 148
254 193 148
254 193 147
254 193 147
218 193 203
219 193 202
219 193 202
220 193 201
220 193 201
221 193 200
221 193 200
222 193 199
222 193 199
223 193 198
223 193 197
224 193 197
224 193 196
225 193 195
225 193 195
226 193 194
226 193 194
227 193 193
227 193 192
228 193 192
228 193 191
229 193 190
229 193 190
230 193 189
230 193 188
231 193 187
231 193 187
232 193 186
232 193 185
233 193 185
233 193 184
234 193 183
234 193 183
235 193 182
235 193 181
236 193 180
236 193 180
237 193 179
237 193 178
238 193 177
238 193 177
239 193 176
239 193 175
240 193 174
240 193 173
241 193 173
241 193 172
241 193 171
242 193 171
242 193 170
243 193 169
243 193 168
244 193 168
244 193 167
244 193 166
245 193 166
245 193 165
246 193 164
246 193 163
246 193 163
247 193 162
247 193 162
247 193 161
248 193 160
248 193 160
248 193 159
249 193 159
249 193 158
249 193 158
249 193 157
250 193 156
250 193 156
250 193 155
250 193 155
251 193 155
251 193 154
251 193 154
251 193 153
251 193 153
252 193 153
252 193 152
252 193 152
252 193 151
252 193 151
252 193 151
252 193 150
253 193 150
253 193 150
253 193 150
253 193 149
253 193 149
253 193 149
253 193 149
253 193 149
253 193 148
254 193 148
254 193 148
254 193 148
254 193 148
254 193 148
219 193 203
219 193 202
219 193 202
220 193 201
220 193 200
221 193 200
221 193 200
222 193 199
222 193 198
223 193 198
223 193 197
224 193 197
224 193 196
225 193 195
225 193 195
226 193 194
226 193 194
227 193 193
227 193 192
228 193 192
228 193 191
229 193 190
229 193 190
230 193 189
230 193 188
231 193 188
231 193 187
232 193 186
232 193 185
233 193 185
233 193 184
234 193 183
234 193 182
235 193 182
235 193 181
236 193 180
236 193 179
237 193 179
237 193 178
238 193 177
238 193 176
239 193 176
239 193 175
240 193 174
240 193 174
241 193 173
241 193 172
242 193 171
242 193 171
242 193 170
243 193 169
243 193 168
244 193 168
244 193 167
244 193 166
245 193 166
245 193 165
246 193 164
246 193 164
246 193 163
246 193 162
247 193 162
247 193 161
248 193 161
248 193 160
248 193 159
248 193 159
249 193 158
249 193 158
249 193 157
250 193 157
250 193 156
250 193 156
250 193 155
250 193 155
251 193 154
251 193 154
251 193 153
251 193 153
251 193 153
252 193 152
252 193 152
252 193 152
252 193 151
252 193 151
252 193 151
253 193 150
253 193 150
253 193 150
253 193 150
253 193 149
253 193 149
253 193 149
253 193 149
253 193 148
253 193 148
254 193 148
254 193 148
254 193 148
254 193 148
219 193 202
219 193 202
220 193 202
220 193 201
220 193 200
221 193 200
221 193 199
222 193 199
222 193 198
223 193 198
223 193 197
224 193 196
224 193 196
225 193 195
225 193 195
226 193 194
226 193 193
227 193 193
227 193 192
228 193 191
228 193 191
229 193 190
229 193 189
230 193 189
230 193 188
231 193 187
231 193 187
232 193 186
232 193 185
233 193 184
233 193 184
234 193 183
234 193 182
235 193 182
235 193 181
236 193 180
236 193 179
237 193 179
237 193 178
238 193 177
238 193 176
239 193 176
239 193 175
240 193 174
240 193 174
241 193 173
241 193 172
242 193 171
242 193 171
242 193 170
243 193 169
243 193 168
244 193 168
244 193 167
244 193 166
245 193 166
245 193 165
246 193 164
246 193 164
246 193 163
247 193 162
247 193 162
247 193 161
247 193 161
248 193 160
248 193 160
248 193 159
249 193 158
249 193 158
249 193 157
249 193 157
250 193 156
250 193 156
250 193 155
250 193 155
251 193 154
251 193 154
251 193 154
251 193 153
251 193 153
252 193 152
252 193 152
252 193 152
252 193 151
252 193 151
252 193 151
252 193 150
253 193 150
253 193 150
253 193 150
253 193 149
253 193 149
253 193 149
253 193 149
253 193 149
253 193 148
253 193 148
254 193 148
254 193 148
254 193 148
219 193 202
219 193 202
220 193 201
220 193 201
221 193 200
221 193 200
222 193 199
222 193 199
223 193 198
223 193 197
223 193 197
224 193 196
224 193 196
225 193 195
225 193 194
226 193 194
226 193 193
227 193 193
227 193 192
228 193 191
228 193 191
229 193 190
229 193 189
230 193 189
230 193 188
231 193 187
231 193 187
232 193 186
232 193 185
233 193 184
233 193 184
234 193 183
235 193 182
235 193 181
235 193 181
236 193 180
236 193 179
237 193 179
237 193 178
238 193 177
238 193 176
239 193 176
239 193 175
240 193 174
240 193 174
241 193 173
241 193 172
241 193 171
242 193 171
242 193 170
243 193 169
243 193 169
243 193 168
244 193 167
244 193 167
245 193 166
245 193 165
245 193 165
246 193 164
246 193 163
246 193 163
247 193 162
247 193 161
247 193 161
248 193 160
248 193 160
248 193 159
249 193 159
249 193 158
249 193 157
249 193 157
250 193 156
250 193 156
250 193 156
250 193 155
251 193 155
251 193 154
251 193 154
251 193 153
251 193 153
251 193 153
252 193 152
252 193 152
252 193 152
252 193 151
252 193 151
252 193 151
253 193 150
253 193 150
253 193 150
253 193 150
253 193 149
253 193 149
253 193 149
253 193 149
253 193 149
253 193 148
253 193 148
254 193 148
254 193 148
