P3
240 135
255
185 212 252
185 212 252
185 212 252
185 212 252
185 212 252
185 212 252
185 212 252
185 212 252
185 212 252
185 212 252
185 212 252
185 212 252
185 212 252
185 212 252
185 212 252
185 212 252
185 212 252
185 212 252
185 212 252
185 212 252
185 212 252
185 212 252
185 212 252
185 212 252
185 212 252
185 212 252
185 212 252
185 212 252
185 212 252
185 212 252
185 212 252
185 212 252
185 212 252
185 212 252
185 212 252
185 212 252
185 212 252
185 212 252
185 212 252
185 212 252
185 212 252
185 212 252
185 212 252
185 212 252
185 212 252
185 212 252
185 212 252
185 212 252
185 212 252
185 212 252
185 212 252
185 212 252
185 212 252
185 212 252
185 212 252
185 212 252
185 212 252
185 212 252
185 212 252
185 212 252
185 212 252
185 212 252
185 212 252
185 212 252
185 212 252
185 212 252
185 212 252
185 212 252
185 212 252
185 212 252
185 212 252
185 212 252
185 212 252
185 212 252
185 212 252
185 212 252
185 212 252
185 212 252
185 212 252
185 212 252
185 212 252
185 212 252
185 212 252
185 212 252
185 212 252
185 212 252
185 212 252
185 212 252
185 212 252
185 212 252
185 212 252
185 212 252
185 212 252
185 212 252
185 212 252
185 212 252
185 212 252
185 212 252
185 212 252
185 212 252
185 212 252
185 212 252
185 212 252
185 212 252
185 212 252
185 212 252
185 212 252
185 212 252
185 212 252
185 212 252
185 212 252
185 212 252
185 212 252
185 212 252
185 212 252
185 212 252
185 212 252
185 212 252
185 212 252
185 212 252
185 212 252
185 212 252
185 212 252
185 212 252
185 212 252
185 212 252
185 212 252
185 212 252
185 212 252
185 212 252
185 212 252
185 212 252
158 155 221
141 0 222
150 0 254
159 0 221
156 113 253
185 212 252
185 212 252
185 212 252
185 212 252
185 212 252
185 212 252
185 212 252
185 212 252
185 212 252
185 212 252
185 212 252
185 212 252
185 212 252
185 212 252
185 212 252
185 212 252
185 212 252
185 212 252
185 212 252
185 212 252
185 212 252
185 212 252
185 212 252
185 212 252
185 212 252
185 212 252
185 212 252
185 212 252
185 212 252
185 212 252
185 212 252
185 212 252
185 212 252
185 212 252
185 212 252
185 212 252
185 212 252
185 212 252
185 212 252
185 212 252
185 212 252
185 212 252
185 212 252
185 212 252
185 212 252
185 212 252
185 212 252
185 212 252
185 212 252
185 212 252
185 212 252
185 212 252
185 212 252
185 212 252
185 212 252
185 212 252
185 212 252
185 212 252
185 212 252
185 212 252
185 212 252
185 212 252
185 212 252
185 212 252
185 212 252
185 212 252
185 212 252
185 212 252
185 212 252
185 212 252
185 212 252
185 212 252
185 212 252
185 212 252
185 212 252
185 212 252
185 212 252
185 212 252
185 212 252
185 212 252
185 212 252
185 212 252
185 212 252
185 212 252
185 212 252
185 212 252
185 212 252
185 212 252
185 212 252
185 212 252
185 212 252
185 212 252
185 212 252
185 212 252
185 212 252
185 212 252
185 212 252
185 212 252
185 212 252
185 212 252
185 212 252
185 212 252
185 212 252
185 212 252
185 212 252
185 212 252
185 212 252
185 212 252
185 212 252
185 212 252
185 212 252
185 212 252
185 212 252
185 212 252
185 212 252
185 212 252
185 212 252
185 212 252
185 212 252
185 212 252
185 212 252
185 212 252
185 212 252
185 212 252
185 212 252
185 212 252
185 212 252
185 212 252
185 212 252
185 212 252
185 212 252
185 212 252
185 212 252
185 212 252
185 212 252
185 212 252
185 212 252
185 212 252
185 212 252
185 212 252
185 212 252
185 212 252
185 212 252
185 212 252
185 212 252
185 212 252
185 212 252
185 212 252
185 212 252
185 212 252
185 212 252
185 212 252
185 212 252
185 212 252
185 212 252
185 212 252
185 212 252
185 212 252
185 212 252
185 212 252
185 212 252
185 212 252
185 212 252
185 212 252
185 212 252
185 212 252
185 212 252
185 212 252
185 212 252
185 212 252
185 212 252
185 212 252
185 212 252
185 212 252
185 212 252
185 212 252
185 212 252
185 212 252
185 212 252
185 212 252
185 212 252
185 212 252
185 212 252
185 212 252
185 212 252
185 212 252
185 212 252
185 212 252
185 212 252
185 212 252
185 212 252
185 212 252
185 212 252
185 212 252
185 212 252
185 212 252
185 212 252
185 212 252
185 212 252
185 212 252
185 212 252
185 212 252
185 212 252
185 212 252
185 212 252
185 212 252
185 212 252
185 212 252
185 212 252
185 212 252
185 212 252
185 212 252
185 212 252
185 212 252
185 212 252
185 212 252
185 212 252
185 212 252
185 212 252
185 212 252
185 212 252
185 212 252
185 212 252
185 212 252
185 212 252
185 212 252
185 212 252
185 212 252
185 212 252
185 212 252
185 212 252
185 212 252
185 212 252
185 212 252
133 0 222
87 0 134
76 0 135
131 0 184
119 0 185
126 0 184
185 212 252
185 212 252
185 212 252
185 212 252
185 212 252
185 212 252
185 212 252
185 212 252
185 212 252
185 212 252
185 212 252
185 212 252
185 212 252
185 212 252
185 212 252
185 212 252
185 212 252
185 212 252
185 212 252
185 212 252
185 212 252
185 212 252
185 212 252
185 212 252
185 212 252
185 212 252
185 212 252
185 212 252
185 212 252
185 212 252
185 212 252
185 212 252
185 212 252
185 212 252
185 212 252
185 212 252
185 212 252
185 212 252
185 212 252
185 212 252
185 212 252
185 212 252
185 212 252
185 212 252
185 212 252
185 212 252
185 212 252
185 212 252
185 212 252
185 212 252
185 212 252
185 212 252
185 212 252
185 212 252
185 212 252
185 212 252
185 212 252
185 212 252
185 212 252
185 212 252
185 212 252
185 212 252
185 212 252
185 212 252
185 212 252
185 212 252
185 212 252
185 212 252
185 212 252
185 212 252
185 212 252
185 212 252
185 212 252
185 212 252
185 212 252
185 212 252
185 212 252
185 212 252
185 212 252
185 212 252
185 212 252
185 212 252
185 212 252
185 212 252
185 212 252
185 212 252
185 212 252
185 212 252
185 212 252
185 212 252
185 212 252
185 212 252
185 212 252
185 212 252
185 212 252
185 212 252
185 212 252
185 212 252
185 212 252
185 212 252
185 212 252
185 212 252
185 212 252
185 212 252
185 212 252
185 212 252
185 212 252
185 212 252
185 212 252
185 212 252
185 212 252
185 212 252
185 212 252
185 212 252
185 212 252
185 212 252
185 212 252
185 212 252
185 212 252
185 212 252
185 212 252
185 212 252
185 212 252
185 212 252
185 212 252
185 212 252
185 212 252
185 212 252
185 212 252
185 212 252
185 212 252
185 212 252
185 212 252
185 212 252
185 212 252
185 212 252
185 212 252
185 212 252
185 212 252
185 212 252
185 212 252
185 212 252
185 212 252
185 212 252
185 212 252
185 212 252
185 212 252
185 212 252
185 212 252
185 212 252
185 212 252
185 212 252
185 212 252
185 212 252
185 212 252
185 212 252
185 212 252
185 212 252
185 212 252
185 212 252
185 212 252
185 212 252
185 212 252
185 212 252
185 212 252
185 212 252
185 212 252
185 212 252
185 212 252
185 212 252
185 212 252
185 212 252
185 212 252
185 212 252
185 212 252
185 212 252
185 212 252
185 212 252
185 212 252
185 212 252
185 212 252
185 212 252
185 212 252
185 212 252
185 212 252
185 212 252
185 212 252
185 212 252
185 212 252
185 212 252
185 212 252
185 212 252
185 212 252
185 212 252
185 212 252
185 212 252
185 212 252
185 212 252
185 212 252
185 212 252
185 212 252
185 212 252
185 212 252
185 212 252
185 212 252
185 212 252
185 212 252
185 212 252
185 212 252
185 212 252
185 212 252
185 212 252
185 212 252
185 212 252
185 212 252
185 212 252
185 212 252
185 212 252
185 212 252
185 212 252
185 212 252
185 212 252
185 212 252
185 212 252
185 212 252
185 212 252
185 212 252
185 212 252
185 212 252
185 212 252
185 212 252
185 212 252
177 186 252
124 113 184
150 0 204
111 0 185
122 0 184
125 0 184
0 0 0
116 0 162
170 113 253
177 186 252
185 212 252
185 212 252
185 212 252
185 212 252
185 212 252
185 212 252
185 212 252
185 212 252
185 212 252
185 212 252
185 212 252
185 212 252
185 212 252
185 212 252
185 212 252
185 212 252
185 212 252
185 212 252
185 212 252
185 212 252
185 212 252
185 212 252
185 212 252
185 212 252
185 212 252
185 212 252
185 212 252
185 212 252
185 212 252
185 212 252
185 212 252
185 212 252
185 212 252
185 212 252
185 212 252
185 212 252
185 212 252
185 212 252
185 212 252
185 212 252
185 212 252
185 212 252
185 212 252
185 212 252
185 212 252
185 212 252
185 212 252
185 212 252
185 212 252
185 212 252
185 212 252
185 212 252
185 212 252
185 212 252
185 212 252
185 212 252
185 212 252
185 212 252
185 212 252
185 212 252
185 212 252
185 212 252
185 212 252
185 212 252
185 212 252
185 212 252
185 212 252
185 212 252
185 212 252
185 212 252
185 212 252
185 212 252
185 212 252
185 212 252
185 212 252
185 212 252
185 212 252
185 212 252
185 212 252
185 212 252
185 212 252
185 212 252
185 212 252
185 212 252
185 212 252
185 212 252
185 212 252
185 212 252
185 212 252
185 212 252
185 212 252
185 212 252
185 212 252
185 212 252
185 212 252
185 212 252
185 212 252
185 212 252
185 212 252
185 212 252
185 212 252
185 212 252
185 212 252
185 212 252
185 212 252
185 212 252
185 212 252
185 212 252
185 212 252
185 212 252
185 212 252
185 212 252
185 212 252
185 212 252
185 212 252
185 212 252
185 212 252
185 212 252
185 212 252
185 212 252
185 212 252
185 212 252
185 212 252
185 212 252
185 212 252
185 212 252
185 212 252
185 212 252
185 212 252
185 212 252
185 212 252
185 212 252
185 212 252
185 212 252
185 212 252
185 212 252
185 212 252
185 212 252
185 212 252
185 212 252
185 212 252
185 212 252
185 212 252
185 212 252
185 212 252
185 212 252
185 212 252
185 212 252
185 212 252
185 212 252
185 212 252
185 212 252
185 212 252
185 212 252
185 212 252
185 212 252
185 212 252
185 212 252
185 212 252
185 212 252
185 212 252
185 212 252
185 212 252
185 212 252
185 212 252
185 212 252
185 212 252
185 212 252
185 212 252
185 212 252
185 212 252
185 212 252
185 212 252
185 212 252
185 212 252
185 212 252
185 212 252
185 212 252
185 212 252
185 212 252
185 212 252
185 212 252
185 212 252
185 212 252
185 212 252
185 212 252
185 212 252
185 212 252
185 212 252
185 212 252
185 212 252
185 212 252
185 212 252
185 212 252
185 212 252
185 212 252
185 212 252
185 212 252
185 212 252
185 212 252
185 212 252
185 212 252
185 212 252
185 212 252
185 212 252
185 212 252
185 212 252
185 212 252
185 212 252
185 212 252
185 212 252
185 212 252
185 212 252
185 212 252
185 212 252
185 212 252
185 212 252
185 212 252
185 212 252
185 212 252
185 212 252
185 212 252
185 212 252
185 212 252
185 212 252
185 212 252
185 212 252
185 212 252
185 212 252
159 155 221
140 0 222
98 0 134
0 0 0
157 0 221
88 0 134
122 0 184
100 0 134
0 0 0
139 0 222
135 155 183
185 212 252
185 212 252
185 212 252
185 212 252
185 212 252
185 212 252
185 212 252
185 212 252
185 212 252
185 212 252
185 212 252
185 212 252
185 212 252
185 212 252
185 212 252
185 212 252
185 212 252
185 212 252
185 212 252
185 212 252
185 212 252
185 212 252
185 212 252
185 212 252
185 212 252
185 212 252
185 212 252
185 212 252
185 212 252
185 212 252
185 212 252
185 212 252
185 212 252
185 212 252
185 212 252
185 212 252
185 212 252
185 212 252
185 212 252
185 212 252
185 212 252
185 212 252
185 212 252
185 212 252
185 212 252
185 212 252
185 212 252
185 212 252
185 212 252
185 212 252
185 212 252
185 212 252
185 212 252
185 212 252
185 212 252
185 212 252
185 212 252
185 212 252
185 212 252
185 212 252
185 212 252
185 212 252
185 212 252
185 212 252
185 212 252
185 212 252
185 212 252
185 212 252
185 212 252
185 212 252
185 212 252
185 212 252
185 212 252
185 212 252
185 212 252
185 212 252
185 212 252
185 212 252
185 212 252
185 212 252
185 212 252
185 212 252
185 212 252
185 212 252
185 212 252
185 212 252
185 212 252
185 212 252
185 212 252
185 212 252
185 212 252
185 212 252
185 212 252
185 212 252
185 212 252
185 212 252
185 212 252
185 212 252
185 212 252
185 212 252
185 212 252
185 212 252
185 212 252
185 212 252
185 212 252
185 212 252
185 212 252
185 212 252
185 212 252
185 212 252
185 212 252
185 212 252
185 212 252
185 212 252
185 212 252
185 212 252
185 212 252
185 212 252
185 212 252
185 212 252
185 212 252
185 212 252
185 212 252
185 212 252
185 212 252
185 212 252
185 212 252
185 212 252
185 212 252
185 212 252
185 212 252
185 212 252
185 212 252
185 212 252
185 212 252
185 212 252
185 212 252
185 212 252
185 212 252
185 212 252
185 212 252
185 212 252
185 212 252
185 212 252
185 212 252
185 212 252
185 212 252
185 212 252
185 212 252
185 212 252
185 212 252
185 212 252
185 212 252
185 212 252
185 212 252
185 212 252
185 212 252
185 212 252
185 212 252
185 212 252
185 212 252
185 212 252
185 212 252
185 212 252
185 212 252
185 212 252
185 212 252
185 212 252
185 212 252
185 212 252
185 212 252
185 212 252
185 212 252
185 212 252
185 212 252
185 212 252
185 212 252
185 212 252
185 212 252
185 212 252
185 212 252
185 212 252
185 212 252
185 212 252
185 212 252
185 212 252
185 212 252
185 212 252
185 212 252
185 212 252
185 212 252
185 212 252
185 212 252
185 212 252
185 212 252
185 212 252
185 212 252
185 212 252
185 212 252
185 212 252
185 212 252
185 212 252
185 212 252
185 212 252
185 212 252
185 212 252
185 212 252
185 212 252
185 212 252
185 212 252
185 212 252
185 212 252
185 212 252
185 212 252
185 212 252
185 212 252
185 212 252
185 212 252
185 212 252
185 212 252
185 212 252
185 212 252
185 212 252
185 212 252
185 212 252
185 212 252
185 212 252
176 186 252
162 186 221
89 0 134
162 0 221
125 0 184
96 0 134
136 0 183
114 0 185
0 0 0
76 0 135
130 0 184
116 0 185
141 0 204
135 155 183
185 212 252
185 212 252
185 212 252
185 212 252
185 212 252
185 212 252
185 212 252
185 212 252
185 212 252
185 212 252
185 212 252
185 212 252
185 212 252
185 212 252
185 212 252
185 212 252
185 212 252
185 212 252
185 212 252
185 212 252
185 212 252
185 212 252
185 212 252
185 212 252
185 212 252
185 212 252
185 212 252
185 212 252
185 212 252
185 212 252
185 212 252
185 212 252
185 212 252
185 212 252
185 212 252
185 212 252
185 212 252
185 212 252
185 212 252
185 212 252
185 212 252
185 212 252
185 212 252
185 212 252
185 212 252
185 212 252
185 212 252
185 212 252
185 212 252
185 212 252
185 212 252
185 212 252
185 212 252
185 212 252
185 212 252
185 212 252
185 212 252
185 212 252
185 212 252
185 212 252
185 212 252
185 212 252
185 212 252
185 212 252
185 212 252
185 212 252
185 212 252
185 212 252
185 212 252
185 212 252
185 212 252
185 212 252
185 212 252
185 212 252
185 212 252
185 212 252
185 212 252
185 212 252
185 212 252
185 212 252
185 212 252
185 212 252
185 212 252
185 212 252
185 212 252
185 212 252
185 212 252
185 212 252
185 212 252
185 212 252
185 212 252
185 212 252
185 212 252
185 212 252
185 212 252
185 212 252
185 212 252
185 212 252
185 212 252
185 212 252
185 212 252
185 212 252
185 212 252
185 212 252
185 213 252
185 212 252
185 213 252
185 212 252
185 212 252
185 212 252
185 212 252
185 213 252
185 212 252
185 212 252
185 213 252
185 212 252
185 212 252
185 213 252
185 212 252
185 212 252
185 212 252
185 212 252
185 213 252
185 212 252
185 212 252
185 212 252
185 212 252
185 212 252
185 212 252
185 212 252
185 212 252
185 212 252
185 212 252
185 213 252
185 213 252
185 212 252
185 213 252
185 212 252
185 213 252
185 212 252
185 212 252
185 213 252
185 212 252
185 212 252
185 213 252
185 212 252
185 212 252
185 212 252
185 212 252
185 212 252
185 212 252
185 212 252
185 213 252
185 212 252
185 213 252
185 213 252
185 212 252
185 212 252
185 213 252
185 212 252
185 212 252
185 212 252
185 212 252
185 212 252
185 212 252
185 212 252
185 212 252
185 212 252
185 212 252
185 213 252
185 212 252
185 212 252
185 212 252
185 212 252
185 212 252
185 212 252
185 212 252
185 212 252
185 212 252
185 212 252
185 212 252
185 212 252
185 212 252
185 212 252
185 212 252
185 212 252
185 212 252
185 212 252
185 212 252
185 212 252
185 213 252
185 212 252
185 212 252
185 212 252
185 212 252
185 212 252
185 212 252
185 212 252
185 212 252
185 212 252
185 212 252
185 212 252
185 212 252
185 212 252
185 213 252
185 212 252
185 212 252
185 212 252
185 212 252
185 212 252
185 213 252
185 212 252
185 212 252
185 212 252
185 212 252
185 212 252
185 212 252
185 212 252
185 212 252
185 212 252
185 212 252
185 212 252
185 212 252
185 212 252
185 212 252
134 113 184
130 0 184
141 0 222
144 0 222
122 0 184
101 0 185
132 0 223
164 0 221
133 0 184
0 0 0
100 0 134
126 0 184
117 0 161
95 0 134
150 155 222
185 212 252
185 212 252
185 212 252
185 212 252
185 212 252
185 212 252
185 212 252
185 212 252
185 212 252
185 212 252
185 212 252
185 212 252
185 213 252
185 212 252
185 212 252
185 212 252
185 212 252
185 213 252
185 212 252
185 212 252
185 213 252
185 212 252
185 213 252
185 212 252
185 212 252
185 212 252
185 212 252
185 212 252
185 212 252
185 212 252
185 212 252
185 212 252
185 212 252
185 212 252
185 212 252
185 212 252
185 212 252
185 212 252
185 212 252
185 212 252
185 212 252
185 212 252
185 212 252
185 213 252
185 212 252
185 212 252
185 212 252
185 212 252
185 213 252
185 212 252
185 212 252
185 212 252
185 212 252
185 212 252
185 212 252
185 212 252
185 212 252
185 212 252
185 212 252
185 213 252
185 212 252
185 213 252
185 212 252
185 212 252
185 212 252
185 212 252
185 212 252
185 212 252
185 212 252
185 212 252
185 212 252
185 212 252
185 212 252
185 212 252
185 213 252
185 212 252
185 212 252
185 212 252
185 213 252
185 212 252
185 212 252
185 212 252
185 212 252
185 212 252
185 212 252
185 212 252
185 212 252
185 212 252
185 213 252
185 213 252
185 212 252
185 213 252
185 212 252
185 212 252
185 212 252
185 213 252
185 212 252
185 213 252
185 213 252
185 213 252
185 213 252
185 213 252
185 213 252
185 213 252
185 213 252
185 213 252
185 213 252
185 213 252
185 213 252
185 213 252
185 213 252
185 213 252
185 213 252
185 213 252
185 213 252
185 213 252
185 213 252
185 213 252
185 213 252
185 213 252
185 213 252
185 213 252
185 213 252
185 213 252
185 213 252
185 213 252
185 213 252
185 213 252
185 213 252
185 213 252
185 213 252
185 213 252
185 213 252
185 213 252
185 213 252
185 213 252
185 213 252
185 213 252
185 213 252
185 213 252
185 213 252
185 213 252
185 213 252
185 213 252
185 213 252
185 213 252
185 213 252
185 213 252
185 213 252
185 213 252
185 213 252
185 213 252
185 213 252
185 213 252
185 213 252
185 213 252
185 213 252
185 213 252
185 213 252
185 213 252
185 213 252
185 213 252
185 213 252
185 213 252
185 213 252
185 213 252
185 213 252
185 213 252
185 213 252
185 213 252
185 213 252
185 213 252
185 213 252
185 213 252
185 213 252
185 213 252
185 213 252
185 213 252
185 213 252
185 213 252
185 213 252
185 213 252
185 213 252
185 213 252
185 213 252
185 213 252
185 213 252
185 213 252
185 213 252
185 213 252
185 213 252
185 213 252
185 213 252
185 213 252
185 213 252
185 213 252
185 213 252
185 213 252
185 213 252
185 213 252
185 213 252
185 213 252
185 213 252
185 213 252
185 213 252
185 213 252
185 213 252
185 213 252
185 213 252
185 213 252
185 213 252
185 213 252
185 213 252
185 213 252
185 213 252
185 213 252
185 213 252
185 213 252
185 213 252
185 213 252
185 213 252
185 213 252
185 213 252
185 213 252
181 113 252
86 0 135
162 0 253
120 0 184
152 0 221
73 0 98
123 0 184
98 0 134
129 0 184
118 0 185
110 0 185
143 0 222
113 0 162
142 0 204
155 0 203
0 0 0
185 213 252
185 213 252
185 213 252
185 213 252
185 213 252
185 213 252
185 213 252
185 213 252
185 213 252
185 213 252
185 213 252
185 213 252
185 213 252
185 213 252
185 213 252
185 213 252
185 213 252
185 213 252
185 213 252
185 213 252
185 213 252
185 213 252
185 213 252
185 213 252
185 213 252
185 213 252
185 213 252
185 213 252
185 213 252
185 213 252
185 213 252
185 213 252
185 213 252
185 213 252
185 213 252
185 213 252
185 213 252
185 213 252
185 213 252
185 213 252
185 213 252
185 213 252
185 213 252
185 213 252
185 213 252
185 213 252
185 213 252
185 213 252
185 213 252
185 213 252
185 213 252
185 213 252
185 213 252
185 213 252
185 213 252
185 213 252
185 213 252
185 213 252
185 213 252
185 213 252
185 213 252
185 213 252
185 213 252
185 213 252
185 213 252
185 213 252
185 213 252
185 213 252
185 213 252
185 213 252
185 213 252
185 213 252
185 213 252
185 213 252
185 213 252
185 213 252
185 213 252
185 213 252
185 213 252
185 213 252
185 213 252
185 213 252
185 213 252
185 213 252
185 213 252
185 213 252
185 213 252
185 213 252
185 213 252
185 213 252
185 213 252
185 213 252
185 213 252
185 213 252
185 213 252
185 213 252
185 213 252
185 213 252
185 213 252
185 213 252
185 213 252
185 213 252
185 213 252
185 213 252
185 213 252
185 213 252
185 213 252
185 213 252
185 213 252
185 213 252
185 213 252
185 213 252
185 213 252
185 213 252
185 213 252
185 213 252
185 213 252
185 213 252
185 213 252
185 213 252
185 213 252
185 213 252
185 213 252
185 213 252
185 213 252
185 213 252
185 213 252
185 213 252
185 213 252
185 213 252
185 213 252
185 213 252
185 213 252
185 213 252
185 213 252
185 213 252
185 213 252
185 213 252
185 213 252
185 213 252
185 213 252
185 213 252
185 213 252
185 213 252
185 213 252
185 213 252
185 213 252
185 213 252
185 213 252
185 213 252
185 213 252
185 213 252
185 213 252
185 213 252
185 213 252
185 213 252
185 213 252
185 213 252
185 213 252
185 213 252
185 213 252
185 213 252
185 213 252
185 213 252
185 213 252
185 213 252
185 213 252
185 213 252
185 213 252
185 213 252
185 213 252
185 213 252
185 213 252
185 213 252
185 213 252
185 213 252
185 213 252
185 213 252
185 213 252
185 213 252
185 213 252
185 213 252
185 213 252
185 213 252
185 213 252
185 213 252
185 213 252
185 213 252
185 213 252
185 213 252
185 213 252
185 213 252
185 213 252
185 213 252
185 213 252
185 213 252
185 213 252
185 213 252
185 213 252
185 213 252
185 213 252
185 213 252
185 213 252
185 213 252
185 213 252
185 213 252
185 213 252
185 213 252
185 213 252
185 213 252
185 213 252
185 213 252
185 213 252
185 213 252
185 213 252
185 213 252
185 213 252
185 213 252
185 213 252
185 213 252
185 213 252
185 213 252
166 113 253
133 0 223
160 0 221
118 0 185
74 0 135
80 0 135
79 0 135
78 0 135
83 0 135
112 0 185
161 0 221
157 0 238
111 0 185
153 0 221
115 0 162
80 0 135
148 113 222
174 186 237
185 213 252
185 213 252
185 213 252
185 213 252
185 213 252
185 213 252
185 213 252
185 213 252
185 213 252
185 213 252
185 213 252
185 213 252
185 213 252
185 213 252
185 213 252
185 213 252
185 213 252
185 213 252
185 213 252
185 213 252
185 213 252
185 213 252
185 213 252
185 213 252
185 213 252
185 213 252
185 213 252
185 213 252
185 213 252
185 213 252
185 213 252
185 213 252
185 213 252
185 213 252
185 213 252
185 213 252
185 213 252
185 213 252
185 213 252
185 213 252
185 213 252
185 213 252
185 213 252
185 213 252
185 213 252
185 213 252
185 213 252
185 213 252
185 213 252
185 213 252
185 213 252
185 213 252
185 213 252
185 213 252
185 213 252
185 213 252
185 213 252
185 213 252
185 213 252
185 213 252
185 213 252
185 213 252
185 213 252
185 213 252
185 213 252
185 213 252
185 213 252
185 213 252
185 213 252
185 213 252
185 213 252
185 213 252
185 213 252
185 213 252
185 213 252
185 213 252
185 213 252
185 213 252
185 213 252
185 213 252
185 213 252
185 213 252
185 213 252
185 213 252
185 213 252
185 213 252
185 213 252
185 213 252
185 213 252
185 213 252
185 213 252
185 213 252
185 213 252
185 213 252
185 213 252
185 213 252
185 213 252
185 213 252
185 213 252
185 213 252
185 213 252
185 213 252
185 213 252
185 213 252
185 213 252
185 213 252
185 213 252
185 213 252
185 213 252
185 213 252
185 213 252
185 213 252
185 213 252
185 213 252
185 213 252
185 213 252
185 213 252
185 213 252
185 213 252
185 213 252
185 213 252
185 213 252
185 213 252
185 213 252
185 213 252
185 213 252
185 213 252
185 213 252
185 213 252
185 213 252
185 213 252
185 213 252
185 213 252
185 213 252
185 213 252
185 213 252
185 213 252
185 213 252
185 213 252
185 213 252
185 213 252
185 213 252
185 213 252
185 213 252
185 213 252
185 213 252
185 213 252
185 213 252
185 213 252
185 213 252
185 213 252
185 213 252
185 213 252
185 213 252
185 213 252
185 213 252
185 213 252
185 213 252
185 213 252
185 213 252
185 213 252
185 213 252
185 213 252
185 213 252
185 213 252
185 213 252
185 213 252
185 213 252
185 213 252
185 213 252
185 213 252
185 213 252
185 213 252
185 213 252
185 213 252
185 213 252
185 213 252
185 213 252
185 213 252
185 213 252
185 213 252
185 213 252
185 213 252
185 213 252
185 213 252
185 213 252
185 213 252
185 213 252
185 213 252
185 213 252
185 213 252
185 213 252
185 213 252
185 213 252
185 213 252
185 213 252
185 213 252
185 213 252
185 213 252
185 213 252
185 213 252
185 213 252
185 213 252
185 213 252
185 213 252
185 213 252
185 213 252
185 213 252
185 213 252
185 213 252
185 213 252
185 213 252
185 213 252
185 213 252
185 213 252
185 213 252
185 213 252
185 213 252
185 213 252
185 213 252
185 213 252
171 113 253
138 0 222
91 0 134
113 0 185
96 0 134
0 0 0
84 0 135
139 0 222
81 0 135
121 0 184
117 0 185
126 0 184
128 0 184
69 0 98
153 0 238
102 0 133
144 113 204
185 213 252
185 213 252
185 213 252
185 213 252
185 213 252
185 213 252
185 213 252
185 213 252
185 213 252
185 213 252
185 213 252
185 213 252
185 213 252
185 213 252
185 213 252
185 213 252
185 213 252
185 213 252
185 213 252
185 213 252
185 213 252
185 213 252
185 213 252
185 213 252
185 213 252
185 213 252
185 213 252
185 213 252
185 213 252
185 213 252
185 213 252
185 213 252
185 213 252
185 213 252
185 213 252
185 213 252
185 213 252
185 213 252
185 213 252
185 213 252
185 213 252
185 213 252
185 213 252
185 213 252
185 213 252
185 213 252
185 213 252
185 213 252
185 213 252
185 213 252
185 213 252
185 213 252
185 213 252
185 213 252
185 213 252
185 213 252
185 213 252
185 213 252
185 213 252
185 213 252
185 213 252
185 213 252
185 213 252
185 213 252
185 213 252
185 213 252
185 213 252
185 213 252
185 213 252
185 213 252
185 213 252
185 213 252
185 213 252
185 213 252
185 213 252
185 213 252
185 213 252
185 213 252
185 213 252
185 213 252
185 213 252
185 213 252
185 213 252
185 213 252
185 213 252
185 213 252
185 213 252
185 213 252
185 213 252
185 213 252
185 213 252
185 213 252
185 213 252
185 213 252
185 213 252
185 213 252
185 213 252
185 213 252
185 213 252
185 213 252
185 213 252
185 213 252
186 213 252
185 213 252
186 213 252
186 213 252
186 213 252
186 213 252
186 213 252
186 213 252
186 213 252
186 213 252
186 213 252
186 213 252
186 213 252
185 213 252
186 213 252
186 213 252
186 213 252
186 213 252
186 213 252
186 213 252
186 213 252
186 213 252
186 213 252
186 213 252
186 213 252
186 213 252
186 213 252
185 213 252
186 213 252
186 213 252
186 213 252
185 213 252
186 213 252
186 213 252
186 213 252
186 213 252
186 213 252
186 213 252
186 213 252
186 213 252
186 213 252
186 213 252
186 213 252
186 213 252
186 213 252
186 213 252
186 213 252
186 213 252
186 213 252
186 213 252
186 213 252
186 213 252
185 213 252
186 213 252
186 213 252
186 213 252
186 213 252
186 213 252
185 213 252
186 213 252
186 213 252
185 213 252
186 213 252
186 213 252
186 213 252
186 213 252
186 213 252
186 213 252
186 213 252
186 213 252
186 213 252
186 213 252
186 213 252
186 213 252
186 213 252
186 213 252
186 213 252
186 213 252
186 213 252
186 213 252
186 213 252
186 213 252
186 213 252
186 213 252
186 213 252
186 213 252
186 213 252
186 213 252
186 213 252
186 213 252
186 213 252
185 213 252
186 213 252
186 213 252
186 213 252
186 213 252
186 213 252
186 213 252
185 213 252
186 213 252
186 213 252
186 213 252
186 213 252
186 213 252
186 213 252
186 213 252
186 213 252
185 213 252
186 213 252
186 213 252
186 213 252
186 213 252
186 213 252
186 213 252
186 213 252
186 213 252
186 213 252
186 213 252
185 213 252
186 155 252
154 113 221
99 0 134
0 0 0
144 0 222
73 0 135
146 0 222
109 0 185
134 0 222
125 0 184
92 0 134
87 0 134
86 0 98
182 0 252
124 0 184
107 0 162
164 0 238
163 187 221
186 213 252
186 213 252
186 213 252
186 213 252
186 213 252
186 213 252
186 213 252
186 213 252
186 213 252
186 213 252
186 213 252
186 213 252
186 213 252
186 213 252
186 213 252
186 213 252
186 213 252
186 213 252
186 213 252
186 213 252
186 213 252
186 213 252
186 213 252
186 213 252
186 213 252
186 213 252
186 213 252
186 213 252
186 213 252
186 213 252
186 213 252
186 213 252
186 213 252
186 213 252
186 213 252
186 213 252
186 213 252
185 213 252
186 213 252
186 213 252
186 213 252
186 213 252
186 213 252
186 213 252
186 213 252
186 213 252
186 213 252
186 213 252
186 213 252
186 213 252
186 213 252
186 213 252
186 213 252
185 213 252
186 213 252
186 213 252
185 213 252
186 213 252
186 213 252
186 213 252
186 213 252
186 213 252
186 213 252
186 213 252
186 213 252
186 213 252
186 213 252
186 213 252
186 213 252
186 213 252
186 213 252
186 213 252
186 213 252
186 213 252
186 213 252
185 213 252
186 213 252
186 213 252
186 213 252
186 213 252
186 213 252
186 213 252
186 213 252
186 213 252
186 213 252
186 213 252
186 213 252
186 213 252
186 213 252
186 213 252
186 213 252
186 213 252
186 213 252
186 213 252
186 213 252
186 213 252
186 213 252
185 213 252
186 213 252
186 213 252
186 213 252
186 213 252
186 213 252
186 213 252
186 213 252
186 213 252
186 213 252
186 213 252
186 213 252
186 213 252
186 213 252
186 213 252
186 213 252
186 213 252
186 213 252
186 213 252
186 213 252
186 213 252
186 213 252
186 213 252
186 213 252
186 213 252
186 213 252
186 213 252
186 213 252
186 213 252
186 213 252
186 213 252
186 213 252
186 213 252
186 213 252
186 213 252
186 213 252
186 213 252
186 213 252
186 213 252
186 213 252
186 213 252
186 213 252
186 213 252
186 213 252
186 213 252
186 213 252
186 213 252
186 213 252
186 213 252
186 213 252
186 213 252
186 213 252
186 213 252
186 213 252
186 213 252
186 213 252
186 213 252
186 213 252
186 213 252
186 213 252
186 213 252
186 213 252
186 213 252
186 213 252
186 213 252
186 213 252
186 213 252
186 213 252
186 213 252
186 213 252
186 213 252
186 213 252
186 213 252
186 213 252
186 213 252
186 213 252
186 213 252
186 213 252
186 213 252
186 213 252
186 213 252
186 213 252
186 213 252
186 213 252
186 213 252
186 213 252
186 213 252
186 213 252
186 213 252
186 213 252
186 213 252
186 213 252
186 213 252
186 213 252
186 213 252
186 213 252
186 213 252
186 213 252
186 213 252
186 213 252
186 213 252
186 213 252
186 213 252
186 213 252
186 213 252
186 213 252
186 213 252
186 213 252
186 213 252
186 213 252
186 213 252
186 213 252
186 213 252
186 213 252
186 213 252
186 213 252
186 213 252
186 213 252
186 213 252
186 213 252
186 213 252
186 213 252
186 213 252
186 213 252
175 155 252
149 0 222
138 0 222
107 0 185
146 0 222
111 0 185
153 0 203
86 0 135
75 0 135
0 0 0
84 0 135
128 0 184
126 0 184
163 0 238
85 0 135
111 0 162
135 155 183
186 213 252
186 213 252
186 213 252
186 213 252
186 213 252
186 213 252
186 213 252
186 213 252
186 213 252
186 213 252
186 213 252
186 213 252
186 213 252
186 213 252
186 213 252
186 213 252
186 213 252
186 213 252
186 213 252
186 213 252
186 213 252
186 213 252
186 213 252
186 213 252
186 213 252
186 213 252
186 213 252
186 213 252
186 213 252
186 213 252
186 213 252
186 213 252
186 213 252
186 213 252
186 213 252
186 213 252
186 213 252
186 213 252
186 213 252
186 213 252
186 213 252
186 213 252
186 213 252
186 213 252
186 213 252
186 213 252
186 213 252
186 213 252
186 213 252
186 213 252
186 213 252
186 213 252
186 213 252
186 213 252
186 213 252
186 213 252
186 213 252
186 213 252
186 213 252
186 213 252
186 213 252
186 213 252
186 213 252
186 213 252
186 213 252
186 213 252
186 213 252
186 213 252
186 213 252
186 213 252
186 213 252
186 213 252
186 213 252
186 213 252
186 213 252
186 213 252
186 213 252
186 213 252
186 213 252
186 213 252
186 213 252
186 213 252
186 213 252
186 213 252
186 213 252
186 213 252
186 213 252
186 213 252
186 213 252
186 213 252
186 213 252
186 213 252
186 213 252
186 213 252
186 213 252
186 213 252
186 213 252
186 213 252
186 213 252
186 213 252
186 213 252
186 213 252
186 213 252
186 213 252
186 213 252
186 213 252
186 213 252
186 213 252
186 213 252
186 213 252
186 213 252
186 213 252
186 213 252
186 213 252
186 213 252
186 213 252
186 213 252
186 213 252
186 213 252
186 213 252
186 213 252
186 213 252
186 213 252
186 213 252
186 213 252
186 213 252
186 213 252
186 213 252
186 213 252
186 213 252
186 213 252
186 213 252
186 213 252
186 213 252
186 213 252
186 213 252
186 213 252
186 213 252
186 213 252
186 213 252
186 213 252
186 213 252
186 213 252
186 213 252
186 213 252
186 213 252
186 213 252
186 213 252
186 213 252
186 213 252
186 213 252
186 213 252
186 213 252
186 213 252
186 213 252
186 213 252
186 213 252
186 213 252
186 213 252
186 213 252
186 213 252
186 213 252
186 213 252
186 213 252
186 213 252
186 213 252
186 213 252
186 213 252
186 213 252
186 213 252
186 213 252
186 213 252
186 213 252
186 213 252
186 213 252
186 213 252
186 213 252
186 213 252
186 213 252
186 213 252
186 213 252
186 213 252
186 213 252
186 213 252
186 213 252
186 213 252
186 213 252
186 213 252
186 213 252
186 213 252
186 213 252
186 213 252
186 213 252
186 213 252
186 213 252
186 213 252
186 213 252
186 213 252
186 213 252
186 213 252
186 213 252
186 213 252
186 213 252
186 213 252
186 213 252
186 213 252
186 213 252
186 213 252
186 213 252
186 213 252
186 213 252
186 213 252
186 213 252
186 213 252
186 213 252
186 213 252
186 213 252
186 213 252
186 213 252
186 213 252
186 213 252
186 213 252
99 113 134
0 0 0
122 0 184
135 0 183
120 0 184
143 0 222
93 0 134
94 0 134
135 0 183
121 0 184
122 0 184
0 0 0
83 0 135
168 0 221
0 0 0
87 0 134
147 155 219
186 213 252
186 213 252
186 213 252
186 213 252
186 213 252
186 213 252
186 213 252
186 213 252
186 213 252
186 213 252
186 213 252
186 213 252
186 213 252
186 213 252
186 213 252
186 213 252
186 213 252
186 213 252
186 213 252
186 213 252
186 213 252
186 213 252
186 213 252
186 213 252
186 213 252
186 213 252
186 213 252
186 213 252
186 213 252
186 213 252
186 213 252
186 213 252
186 213 252
186 213 252
186 213 252
186 213 252
186 213 252
186 213 252
186 213 252
186 213 252
186 213 252
186 213 252
186 213 252
186 213 252
186 213 252
186 213 252
186 213 252
186 213 252
186 213 252
186 213 252
186 213 252
186 213 252
186 213 252
186 213 252
186 213 252
186 213 252
186 213 252
186 213 252
186 213 252
186 213 252
186 213 252
186 213 252
186 213 252
186 213 252
186 213 252
186 213 252
186 213 252
186 213 252
186 213 252
186 213 252
186 213 252
186 213 252
186 213 252
186 213 252
186 213 252
186 213 252
186 213 252
186 213 252
186 213 252
186 213 252
186 213 252
186 213 252
186 213 252
186 213 252
186 213 252
186 213 252
186 213 252
186 213 252
186 213 252
186 213 252
186 213 252
186 213 252
186 213 252
186 213 252
186 213 252
186 213 252
186 213 252
186 213 252
186 213 252
186 213 252
186 213 252
186 213 252
186 213 252
186 213 252
186 213 252
186 213 252
186 213 252
186 213 252
186 213 252
186 213 252
186 213 252
186 213 252
186 213 252
186 213 252
186 213 252
186 213 252
186 213 252
186 213 252
186 213 252
186 213 252
186 213 252
186 213 252
186 213 252
186 213 252
186 213 252
186 213 252
186 213 252
186 213 252
186 213 252
186 213 252
186 213 252
186 213 252
186 213 252
186 213 252
186 213 252
186 213 252
186 213 252
186 213 252
186 213 252
186 213 252
186 213 252
186 213 252
186 213 252
186 213 252
186 213 252
186 213 252
186 213 252
186 213 252
186 213 252
186 213 252
186 213 252
186 213 252
186 213 252
186 213 252
186 213 252
186 213 252
186 213 252
186 213 252
186 213 252
186 213 252
186 213 252
186 213 252
186 213 252
186 213 252
186 213 252
186 213 252
186 213 252
186 213 252
186 213 252
186 213 252
186 213 252
186 213 252
186 213 252
186 213 252
186 213 252
186 213 252
186 213 252
186 213 252
186 213 252
186 213 252
186 213 252
186 213 252
186 213 252
186 213 252
186 213 252
186 213 252
186 213 252
186 213 252
186 213 252
186 213 252
186 213 252
186 213 252
186 213 252
186 213 252
186 213 252
186 213 252
186 213 252
186 213 252
186 213 252
186 213 252
186 213 252
186 213 252
186 213 252
186 213 252
186 213 252
186 213 252
186 213 252
186 213 252
186 213 252
186 213 252
186 213 252
186 213 252
186 213 252
186 213 252
186 213 252
186 213 252
186 213 252
186 213 252
186 213 252
186 213 252
186 213 252
135 155 183
137 0 222
84 0 135
126 0 184
120 0 184
92 0 134
160 0 253
96 0 134
117 0 185
119 0 185
129 0 184
80 0 135
118 0 185
148 0 222
80 0 98
130 0 205
183 155 252
186 213 252
186 213 252
186 213 252
186 213 252
186 213 252
186 213 252
186 213 252
186 213 252
186 213 252
186 213 252
186 213 252
186 213 252
186 213 252
186 213 252
186 213 252
186 213 252
186 213 252
186 213 252
186 213 252
186 213 252
186 213 252
186 213 252
186 213 252
186 213 252
186 213 252
186 213 252
186 213 252
186 213 252
186 213 252
186 213 252
186 213 252
186 213 252
186 213 252
186 213 252
186 213 252
186 213 252
186 213 252
186 213 252
186 213 252
186 213 252
186 213 252
186 213 252
186 213 252
186 213 252
186 213 252
186 213 252
186 213 252
186 213 252
186 213 252
186 213 252
186 213 252
186 213 252
186 213 252
186 213 252
186 213 252
186 213 252
186 213 252
186 213 252
186 213 252
186 213 252
186 213 252
186 213 252
186 213 252
186 213 252
186 213 252
186 213 252
186 213 252
186 213 252
186 213 252
186 213 252
186 213 252
186 213 252
186 213 252
186 213 252
186 213 252
186 213 252
186 213 252
186 213 252
186 213 252
186 213 252
186 213 252
186 213 252
186 213 252
186 213 252
186 213 252
186 213 252
186 213 252
186 213 252
186 213 252
186 213 252
186 213 252
186 213 252
186 213 252
186 213 252
186 213 252
186 213 252
186 213 252
186 213 252
186 213 252
186 213 252
186 213 252
186 213 252
186 213 252
186 213 252
186 213 252
186 213 252
186 213 252
186 213 252
186 213 252
186 213 252
186 213 252
186 213 252
186 213 252
186 213 252
186 213 252
186 213 252
186 213 252
186 213 252
186 213 252
186 213 252
186 213 252
186 213 252
186 213 252
186 213 252
186 213 252
186 213 252
186 213 252
186 213 252
186 213 252
186 213 252
186 213 252
186 213 252
186 213 252
186 213 252
186 213 252
186 213 252
186 213 252
186 213 252
186 213 252
186 213 252
186 213 252
186 213 252
186 213 252
186 213 252
186 213 252
186 213 252
186 213 252
186 213 252
186 213 252
186 213 252
186 213 252
186 213 252
186 213 252
186 213 252
186 213 252
186 213 252
186 213 252
186 213 252
186 213 252
186 213 252
186 213 252
186 213 252
186 213 252
186 213 252
186 213 252
186 213 252
186 213 252
186 213 252
186 213 252
186 213 252
186 213 252
186 213 252
186 213 252
186 213 252
186 213 252
186 213 252
186 213 252
186 213 252
186 213 252
186 213 252
186 213 252
186 213 252
186 213 252
186 213 252
186 213 252
186 213 252
186 213 252
186 213 252
186 213 252
186 213 252
186 213 252
186 213 252
186 213 252
186 213 252
186 213 252
186 213 252
186 213 252
186 213 252
186 213 252
186 213 252
186 213 252
186 213 252
186 213 252
186 213 252
186 213 252
186 213 252
186 213 252
186 213 252
186 213 252
186 213 252
186 213 252
186 213 252
186 213 252
186 213 252
186 213 252
186 213 252
186 213 252
186 213 252
186 213 252
186 213 252
186 213 252
186 213 252
143 0 222
123 0 184
78 0 135
113 0 185
118 0 185
149 0 222
94 0 134
0 0 0
148 0 222
158 0 221
143 0 222
87 0 98
129 0 184
136 0 183
144 0 222
98 0 163
155 155 203
186 213 252
186 213 252
186 213 252
186 213 252
186 213 252
186 213 252
186 213 252
186 213 252
186 213 252
186 213 252
186 213 252
186 213 252
186 213 252
186 213 252
186 213 252
186 213 252
186 213 252
186 213 252
186 213 252
186 213 252
186 213 252
186 213 252
186 213 252
186 213 252
186 213 252
186 213 252
186 213 252
186 213 252
186 213 252
186 213 252
186 213 252
186 213 252
186 213 252
186 213 252
186 213 252
186 213 252
186 213 252
186 213 252
186 213 252
186 213 252
186 213 252
186 213 252
186 213 252
186 213 252
186 213 252
186 213 252
186 213 252
186 213 252
186 213 252
186 213 252
186 213 252
186 213 252
186 213 252
186 213 252
186 213 252
186 213 252
186 213 252
186 213 252
186 213 252
186 213 252
186 213 252
186 213 252
186 213 252
186 213 252
186 213 252
186 213 252
186 213 252
186 213 252
186 213 252
186 213 252
186 213 252
186 213 252
186 213 252
186 213 252
186 213 252
186 213 252
186 213 252
186 213 252
186 213 252
186 213 252
186 213 252
186 213 252
186 213 252
186 213 252
186 213 252
186 213 252
186 213 252
186 213 252
186 213 252
186 213 252
186 213 252
186 213 252
186 213 252
186 213 252
186 213 252
186 213 252
186 213 252
186 213 252
186 213 252
186 213 252
186 213 252
186 213 252
186 213 252
186 213 252
186 213 252
186 213 252
186 213 252
186 213 252
186 213 252
186 213 252
186 213 252
186 213 252
186 213 252
186 213 252
186 213 252
186 213 252
186 213 252
186 213 252
186 213 252
186 213 252
186 213 252
186 213 252
186 213 252
186 213 252
186 213 252
186 213 252
186 213 252
186 213 252
186 213 252
186 213 252
186 213 252
186 213 252
186 213 252
186 213 252
186 213 252
186 213 252
186 213 252
186 213 252
186 213 252
186 213 252
186 213 252
186 213 252
186 213 252
186 213 252
186 213 252
186 213 252
186 213 252
186 213 252
186 213 252
186 213 252
186 213 252
186 213 252
186 213 252
186 213 252
186 213 252
186 213 252
186 213 252
186 213 252
186 213 252
186 213 252
186 213 252
186 213 252
186 213 252
186 213 252
186 213 252
186 213 252
186 213 252
186 213 252
186 213 252
186 213 252
186 213 252
186 213 252
186 213 252
186 213 252
186 213 252
186 213 252
186 213 252
186 213 252
186 213 252
186 213 252
186 213 252
186 213 252
186 213 252
186 213 252
186 213 252
186 213 252
186 213 252
186 213 252
186 213 252
186 213 252
186 213 252
186 213 252
186 213 252
186 213 252
186 213 252
186 213 252
186 213 252
186 213 252
186 213 252
186 213 252
186 213 252
186 213 252
186 213 252
186 213 252
186 213 252
186 213 252
186 213 252
186 213 252
186 213 252
186 213 252
186 213 252
186 213 252
186 213 252
186 213 252
186 213 252
186 213 252
186 213 252
186 213 252
186 213 252
186 213 252
186 213 252
186 213 252
186 213 252
136 155 183
128 0 161
96 0 134
89 0 134
78 0 135
135 0 183
148 0 222
0 0 0
130 0 223
166 0 253
99 0 135
103 0 162
97 0 134
128 0 185
175 113 252
186 213 252
186 213 252
186 213 252
186 213 252
186 213 252
186 213 252
186 213 252
186 213 252
186 213 252
186 213 252
186 213 252
186 213 252
186 213 252
186 213 252
186 213 252
186 213 252
186 213 252
186 213 252
186 213 252
186 213 252
186 213 252
186 213 252
186 213 252
186 213 252
186 213 252
186 213 252
186 213 252
186 213 252
186 213 252
186 213 252
186 213 252
186 213 252
186 213 252
186 213 252
186 213 252
186 213 252
186 213 252
186 213 252
186 213 252
186 213 252
186 213 252
186 213 252
186 213 252
186 213 252
186 213 252
186 213 252
186 213 252
186 213 252
186 213 252
186 213 252
186 213 252
186 213 252
186 213 252
186 213 252
186 213 252
186 213 252
186 213 252
186 213 252
186 213 252
186 213 252
186 213 252
186 213 252
186 213 252
186 213 252
186 213 252
186 213 252
186 213 252
186 213 252
186 213 252
186 213 252
186 213 252
186 213 252
186 213 252
186 213 252
186 213 252
186 213 252
186 213 252
186 213 252
186 213 252
186 213 252
186 213 252
186 213 252
186 213 252
186 213 252
186 213 252
186 213 252
186 213 252
186 213 252
186 213 252
186 213 252
186 213 252
186 213 252
186 213 252
186 213 252
186 213 252
186 213 252
186 213 252
186 213 252
186 213 252
186 213 252
186 213 252
186 213 252
186 213 252
186 213 252
186 213 252
186 213 252
186 213 252
186 213 252
186 213 252
186 213 252
186 213 252
186 213 252
186 213 252
186 213 252
186 213 252
186 213 252
186 213 252
186 213 252
186 213 252
186 213 252
186 213 252
186 213 252
186 213 252
186 213 252
186 213 252
186 213 252
186 213 252
186 213 252
186 213 252
186 213 252
186 213 252
186 213 252
186 213 252
186 213 252
186 213 252
186 213 252
186 213 252
186 213 252
186 213 252
186 213 252
186 213 252
186 213 252
186 213 252
186 213 252
186 213 252
186 213 252
186 213 252
186 213 252
186 213 252
186 213 252
186 213 252
186 213 252
186 213 252
186 213 252
186 213 252
186 213 252
186 213 252
186 213 252
186 213 252
186 213 252
186 213 252
186 213 252
186 213 252
186 213 252
186 213 252
186 213 252
186 213 252
186 213 252
186 213 252
186 213 252
186 213 252
186 213 252
186 213 252
186 213 252
186 213 252
186 213 252
186 213 252
186 213 252
186 213 252
186 213 252
186 213 252
186 213 252
186 213 252
186 213 252
186 213 252
186 213 252
186 213 252
186 213 252
186 213 252
186 213 252
186 213 252
186 213 252
186 213 252
186 213 252
186 213 252
186 213 252
186 213 252
186 213 252
186 213 252
186 213 252
186 213 252
186 213 252
186 213 252
186 213 252
186 213 252
186 213 252
186 213 252
186 213 252
186 213 252
186 213 252
186 213 252
186 213 252
186 213 252
186 213 252
186 213 252
186 213 252
186 213 252
186 213 252
186 213 252
186 213 252
186 213 252
186 213 252
186 213 252
186 213 252
186 213 252
175 155 252
154 0 254
121 0 184
123 0 184
126 0 184
109 0 185
90 0 134
93 0 134
97 0 135
167 0 221
121 0 184
94 0 134
78 0 98
155 155 221
186 213 252
186 213 252
186 213 252
186 213 252
186 213 252
186 213 252
186 213 252
186 213 252
186 213 252
186 213 252
186 213 252
186 213 252
186 213 252
186 213 252
186 213 252
186 213 252
186 213 252
186 213 252
186 213 252
186 213 252
186 213 252
186 213 252
186 213 252
186 213 252
186 213 252
186 213 252
186 213 252
186 213 252
186 213 252
186 213 252
186 213 252
186 213 252
186 213 252
186 213 252
186 213 252
186 213 252
186 213 252
186 213 252
186 213 252
186 213 252
186 213 252
186 213 252
186 213 252
186 213 252
186 213 252
186 213 252
186 213 252
186 213 252
186 213 252
186 213 252
186 213 252
186 213 252
186 213 252
186 213 252
186 213 252
186 213 252
186 213 252
186 213 252
186 213 252
186 213 252
186 213 252
186 213 252
186 213 252
186 213 252
186 213 252
186 213 252
186 213 252
186 213 252
186 213 252
186 213 252
186 213 252
186 213 252
186 213 252
186 213 252
186 213 252
186 213 252
186 213 252
186 213 252
186 213 252
186 213 252
186 213 252
186 213 252
186 213 252
186 213 252
186 213 252
186 213 252
186 213 252
186 213 252
186 213 252
186 213 252
186 213 252
186 213 252
186 213 252
186 213 252
186 213 252
186 213 252
186 213 252
186 213 252
186 213 252
186 213 252
186 213 252
186 213 252
186 213 252
186 213 252
186 213 252
186 213 252
186 213 252
186 213 252
186 213 252
186 213 252
186 213 252
186 213 252
186 213 252
186 213 252
186 213 252
186 213 252
186 213 252
186 213 252
186 213 252
186 213 252
186 213 252
186 213 252
186 213 252
186 213 252
186 213 252
186 213 252
186 213 252
186 213 252
186 213 252
186 213 252
186 213 252
186 213 252
186 213 252
186 213 252
186 213 252
186 213 252
186 213 252
186 213 252
186 213 252
186 213 252
186 213 252
186 213 252
186 213 252
186 213 252
186 213 252
186 213 252
186 213 252
186 213 252
186 213 252
186 213 252
186 213 252
186 213 252
186 213 252
186 213 252
186 213 252
186 213 252
186 213 252
186 213 252
186 213 252
186 213 252
186 213 252
186 213 252
186 213 252
186 213 252
186 213 252
186 213 252
186 213 252
186 213 252
186 213 252
186 213 252
186 213 252
186 213 252
186 213 252
186 213 252
186 213 252
186 213 252
186 213 252
186 213 252
186 213 252
186 213 252
186 213 252
186 213 252
186 213 252
186 213 252
186 213 252
186 213 252
186 213 252
186 213 252
186 213 252
186 213 252
186 213 252
186 213 252
186 213 252
186 213 252
186 213 252
186 213 252
186 213 252
186 213 252
186 213 252
186 213 252
186 213 252
186 213 252
186 213 252
186 213 252
186 213 252
186 213 252
186 213 252
186 213 252
186 213 252
186 213 252
186 213 252
186 213 252
186 213 252
186 213 252
186 213 252
186 213 252
186 213 252
186 213 252
186 213 252
186 213 252
186 213 252
186 213 252
186 213 252
186 213 252
186 213 252
186 213 252
186 213 252
136 155 183
100 0 134
0 0 0
83 0 135
112 0 185
83 0 135
170 0 237
136 0 204
136 0 183
141 0 204
144 113 222
185 187 252
186 213 252
186 213 252
186 213 252
186 213 252
186 213 252
186 213 252
186 213 252
186 213 252
186 213 252
186 213 252
186 213 252
186 213 252
186 213 252
186 213 252
186 213 252
186 213 252
186 213 252
186 213 252
186 213 252
186 213 252
186 213 252
186 213 252
186 213 252
186 213 252
186 213 252
186 213 252
186 213 252
186 213 252
186 213 252
186 213 252
186 213 252
186 213 252
186 213 252
186 213 252
186 213 252
186 213 252
186 213 252
186 213 252
186 213 252
186 213 252
186 213 252
186 213 252
186 213 252
186 213 252
186 213 252
186 213 252
186 213 252
186 213 252
186 213 252
186 213 252
186 213 252
186 213 252
186 213 252
186 213 252
186 213 252
186 213 252
186 213 252
186 213 252
186 213 252
186 213 252
186 213 252
186 213 252
186 213 252
186 213 252
186 213 252
186 213 252
186 213 252
186 213 252
186 213 252
186 213 252
186 213 252
186 213 252
186 213 252
186 213 252
186 213 252
186 213 252
186 213 252
186 213 252
186 213 252
186 213 252
186 213 252
186 213 252
186 213 252
186 213 252
186 213 252
186 213 252
186 213 252
186 213 252
186 213 252
186 213 252
186 213 252
186 213 252
186 213 252
186 213 252
186 213 252
186 213 252
186 213 252
186 213 252
186 213 252
186 213 252
186 213 252
186 213 252
186 213 252
186 213 252
186 213 252
186 213 252
186 213 252
186 213 252
186 213 252
186 213 252
186 213 252
186 213 252
186 213 252
186 213 252
186 213 252
186 213 252
186 213 252
186 213 252
186 213 252
186 213 252
186 213 252
186 213 252
186 213 252
186 213 252
186 213 252
186 213 252
186 213 252
186 213 252
186 213 252
186 213 252
186 213 252
186 213 252
186 213 252
186 213 252
186 213 252
186 213 252
186 213 252
186 213 252
186 213 252
186 213 252
186 213 252
186 213 252
186 213 252
186 213 252
186 213 252
186 213 252
186 213 252
186 213 252
186 213 252
186 213 252
186 213 252
186 213 252
186 213 252
186 213 252
186 213 252
186 213 252
186 213 252
186 213 252
186 213 252
186 213 252
186 213 252
186 213 252
186 213 252
186 213 252
186 213 252
186 213 252
186 213 252
186 213 252
186 213 252
186 213 252
186 213 252
186 213 252
186 213 252
186 213 252
186 213 252
186 213 252
186 213 252
186 213 252
186 213 252
186 213 252
186 213 252
186 213 252
186 213 252
186 213 252
186 213 252
186 213 252
186 213 252
186 213 252
186 213 252
186 213 252
186 213 252
186 213 252
186 213 252
186 213 252
186 213 252
186 213 252
186 213 252
186 213 252
186 213 252
186 213 252
186 213 252
186 213 252
186 213 252
186 213 252
186 213 252
186 213 252
186 213 252
186 213 252
186 213 252
186 213 252
186 213 252
186 213 252
186 213 252
186 213 252
186 213 252
186 213 252
186 213 252
186 213 252
186 213 252
186 213 252
186 213 252
186 213 252
186 213 252
186 213 252
186 213 252
186 213 252
186 213 252
186 213 252
186 213 252
97 0 134
78 0 135
85 0 135
116 0 185
114 0 185
161 0 221
72 0 98
81 0 135
87 0 134
186 213 252
186 213 252
186 213 252
186 213 252
186 213 252
186 213 252
186 213 252
186 213 252
186 213 252
186 213 252
186 213 252
186 213 252
186 213 252
186 213 252
186 213 252
186 213 252
186 213 252
186 213 252
186 213 252
186 213 252
186 213 252
186 213 252
186 213 252
186 213 252
186 213 252
186 213 252
186 213 252
186 213 252
186 213 252
186 213 252
186 213 252
186 213 252
186 213 252
186 213 252
186 213 252
186 213 252
186 213 252
186 213 252
186 213 252
186 213 252
186 213 252
186 213 252
186 213 252
186 213 252
186 213 252
186 213 252
186 213 252
186 213 252
186 213 252
186 213 252
186 213 252
186 213 252
186 213 252
186 213 252
186 213 252
186 213 252
186 213 252
186 213 252
186 213 252
186 213 252
186 213 252
186 213 252
186 213 252
186 213 252
186 213 252
186 213 252
186 213 252
186 213 252
186 213 252
186 213 252
186 213 252
186 213 252
186 213 252
186 213 252
186 213 252
186 213 252
186 213 252
186 213 252
186 213 252
186 213 252
186 213 252
186 213 252
186 213 252
186 213 252
186 213 252
186 213 252
186 213 252
186 213 252
186 213 252
186 213 252
186 213 252
186 213 252
186 213 252
186 213 252
186 213 252
186 213 252
186 213 252
186 213 252
186 213 252
186 213 252
186 213 252
186 213 252
186 213 252
186 213 252
186 213 252
186 213 252
186 213 252
186 213 252
186 213 252
186 213 252
186 213 252
186 213 252
186 213 252
186 213 252
186 213 252
186 213 252
186 213 252
186 213 252
186 213 252
186 213 252
186 213 252
186 213 252
186 213 252
186 213 252
186 213 252
186 213 252
186 213 252
186 213 252
186 213 252
186 213 252
186 213 252
186 213 252
186 213 252
186 213 252
186 213 252
186 213 252
186 213 252
186 213 252
186 213 252
186 213 252
186 213 252
186 213 252
186 213 252
186 213 252
186 213 252
186 213 252
186 213 252
186 213 252
186 213 252
186 213 252
186 213 252
186 213 252
186 213 252
186 213 252
186 213 252
186 213 252
186 213 252
186 213 252
186 213 252
186 213 252
186 213 252
186 213 252
186 213 252
186 213 252
186 213 252
186 213 252
186 213 252
186 213 252
186 213 252
186 213 252
186 213 252
186 213 252
186 213 252
187 213 252
187 213 252
186 213 252
187 213 252
186 213 252
186 213 252
187 213 252
186 213 252
186 213 252
187 213 252
186 213 252
186 213 252
186 213 252
186 213 252
186 213 252
186 213 252
186 213 252
186 213 252
186 213 252
186 213 252
186 213 252
186 213 252
186 213 252
186 213 252
186 213 252
186 213 252
186 213 252
186 213 252
187 213 252
186 213 252
186 213 252
187 213 252
186 213 252
186 213 252
186 213 252
186 213 252
186 213 252
186 213 252
186 213 252
186 213 252
187 213 252
186 213 252
186 213 252
187 213 252
187 213 252
186 213 252
186 213 252
186 213 252
187 213 252
187 213 252
186 213 252
187 213 252
186 213 252
186 213 252
186 213 252
186 213 252
186 213 252
186 213 252
164 187 221
107 0 162
96 0 134
174 0 252
132 0 205
122 0 184
140 0 222
185 187 252
186 213 252
187 213 252
186 213 252
186 213 252
186 213 252
187 213 252
186 213 252
187 213 252
186 213 252
187 213 252
186 213 252
186 213 252
186 213 252
186 213 252
186 213 252
186 213 252
186 213 252
186 213 252
186 213 252
186 213 252
186 213 252
186 213 252
186 213 252
186 213 252
186 213 252
186 213 252
186 213 252
186 213 252
186 213 252
186 213 252
186 213 252
187 213 252
186 213 252
186 213 252
187 213 252
186 213 252
186 213 252
186 213 252
186 213 252
187 213 252
186 213 252
186 213 252
186 213 252
186 213 252
186 213 252
187 213 252
186 213 252
186 213 252
186 213 252
187 213 252
186 213 252
186 213 252
186 213 252
186 213 252
186 213 252
186 213 252
186 213 252
186 213 252
186 213 252
186 213 252
186 213 252
186 213 252
186 213 252
186 213 252
186 213 252
186 213 252
186 213 252
186 213 252
186 213 252
186 213 252
186 213 252
186 213 252
186 213 252
186 213 252
186 213 252
186 213 252
186 213 252
186 213 252
186 213 252
186 213 252
186 213 252
186 213 252
186 213 252
186 213 252
186 213 252
186 213 252
186 213 252
186 213 252
186 213 252
186 213 252
186 213 252
186 213 252
186 213 252
186 213 252
186 213 252
186 213 252
186 213 252
186 213 252
186 213 252
186 213 252
186 213 252
186 213 252
186 213 252
186 213 252
186 213 252
186 213 252
186 213 252
186 213 252
186 213 252
186 213 252
186 213 252
186 213 252
186 213 252
186 213 252
186 213 252
186 213 252
187 213 252
187 213 252
187 213 252
187 213 252
187 213 252
187 213 252
187 213 252
187 213 252
187 213 252
187 213 252
187 213 252
187 213 252
187 213 252
187 213 252
187 213 252
187 213 252
187 213 252
187 213 252
187 213 252
187 213 252
187 213 252
187 213 252
187 213 252
187 213 252
187 213 252
187 213 252
187 213 252
187 213 252
187 213 252
187 213 252
187 213 252
187 213 252
187 213 252
187 213 252
187 213 252
187 213 252
187 213 252
187 213 252
187 213 252
187 213 252
187 213 252
187 213 252
187 213 252
187 213 252
187 213 252
187 213 252
187 213 252
187 213 252
187 213 252
187 213 252
187 213 252
187 213 252
187 213 252
187 213 252
187 213 252
187 213 252
187 213 252
187 213 252
187 213 252
187 213 252
187 213 252
187 213 252
187 213 252
187 213 252
187 213 252
187 213 252
187 213 252
187 213 252
187 213 252
187 213 252
187 213 252
187 213 252
187 213 252
187 213 252
187 213 252
187 213 252
187 213 252
187 213 252
187 213 252
187 213 252
187 213 252
187 213 252
187 213 252
187 213 252
187 213 252
187 213 252
187 213 252
187 213 252
187 213 252
187 213 252
187 213 252
187 213 252
187 213 252
187 213 252
187 213 252
187 213 252
187 213 252
187 213 252
187 213 252
187 213 252
187 213 252
187 213 252
187 213 252
187 213 252
187 213 252
187 213 252
187 213 252
187 213 252
187 213 252
187 213 252
187 213 252
187 213 252
187 213 252
187 213 252
187 213 252
187 213 252
187 213 252
116 0 185
90 0 97
142 0 222
134 0 204
120 113 161
174 187 237
187 213 252
187 213 252
187 213 252
187 213 252
187 213 252
187 213 252
187 213 252
187 213 252
187 213 252
187 213 252
187 213 252
187 213 252
187 213 252
187 213 252
187 213 252
187 213 252
187 213 252
187 213 252
187 213 252
187 213 252
187 213 252
187 213 252
187 213 252
187 213 252
187 213 252
187 213 252
187 213 252
187 213 252
187 213 252
187 213 252
187 213 252
187 213 252
187 213 252
187 213 252
187 213 252
187 213 252
187 213 252
187 213 252
187 213 252
187 213 252
187 213 252
187 213 252
187 213 252
187 213 252
187 213 252
187 213 252
187 213 252
187 213 252
187 213 252
187 213 252
187 213 252
187 213 252
187 213 252
187 213 252
187 213 252
187 213 252
187 213 252
187 213 252
187 213 252
187 213 252
187 213 252
187 213 252
187 213 252
187 213 252
187 213 252
187 213 252
187 213 252
187 213 252
187 213 252
187 213 252
187 213 252
187 213 252
187 213 252
187 213 252
187 213 252
187 213 252
187 213 252
187 213 252
187 213 252
187 213 252
187 213 252
187 213 252
187 213 252
187 213 252
187 213 252
187 213 252
187 213 252
187 213 252
187 213 252
187 213 252
187 213 252
187 213 252
187 213 252
187 213 252
187 213 252
187 213 252
187 213 252
187 213 252
187 213 252
187 213 252
187 213 252
187 213 252
187 213 252
187 213 252
187 213 252
187 213 252
187 213 252
187 213 252
187 213 252
187 213 252
187 213 252
187 213 252
187 213 252
187 213 252
187 213 252
187 213 252
187 213 252
187 213 252
187 213 252
187 213 252
187 213 252
187 213 252
187 213 252
187 213 252
187 213 252
187 213 252
187 213 252
187 213 252
187 213 252
187 213 252
187 213 252
187 213 252
187 213 252
187 213 252
187 213 252
187 213 252
187 213 252
187 213 252
187 213 252
187 213 252
187 213 252
187 213 252
187 213 252
187 213 252
187 213 252
187 213 252
187 213 252
187 213 252
187 213 252
187 213 252
187 213 252
187 213 252
187 213 252
187 213 252
187 213 252
187 213 252
187 213 252
187 213 252
187 213 252
187 213 252
187 213 252
187 213 252
187 213 252
187 213 252
187 213 252
187 213 252
187 213 252
187 213 252
187 213 252
187 213 252
187 213 252
187 213 252
187 213 252
187 213 252
187 213 252
187 213 252
187 213 252
187 213 252
187 213 252
187 213 252
187 213 252
187 213 252
187 213 252
187 213 252
187 213 252
187 213 252
187 213 252
187 213 252
187 213 252
187 213 252
187 213 252
187 213 252
187 213 252
187 213 252
187 213 252
187 213 252
187 213 252
187 213 252
187 213 252
187 213 252
187 213 252
187 213 252
187 213 252
187 213 252
187 213 252
187 213 252
187 213 252
187 213 252
187 213 252
187 213 252
187 213 252
187 213 252
187 213 252
187 213 252
187 213 252
187 213 252
187 213 252
187 213 252
187 213 252
187 213 252
187 213 252
187 213 252
187 213 252
187 213 252
187 213 252
187 213 252
187 213 252
187 213 252
187 213 252
187 213 252
187 213 252
187 213 252
187 213 252
187 213 252
187 213 252
128 113 184
149 0 222
187 213 252
187 213 252
187 213 252
187 213 252
187 213 252
187 213 252
187 213 252
187 213 252
187 213 252
187 213 252
187 213 252
187 213 252
187 213 252
187 213 252
187 213 252
187 213 252
187 213 252
187 213 252
187 213 252
187 213 252
187 213 252
187 213 252
187 213 252
187 213 252
187 213 252
187 213 252
187 213 252
187 213 252
187 213 252
187 213 252
187 213 252
187 213 252
187 213 252
187 213 252
187 213 252
187 213 252
187 213 252
187 213 252
187 213 252
187 213 252
187 213 252
187 213 252
187 213 252
187 213 252
187 213 252
187 213 252
187 213 252
187 213 252
187 213 252
187 213 252
187 213 252
187 213 252
187 213 252
187 213 252
187 213 252
187 213 252
187 213 252
187 213 252
187 213 252
187 213 252
187 213 252
187 213 252
187 213 252
187 213 252
187 213 252
187 213 252
187 213 252
187 213 252
187 213 252
187 213 252
187 213 252
187 213 252
187 213 252
187 213 252
187 213 252
187 213 252
187 213 252
187 213 252
187 213 252
187 213 252
187 213 252
187 213 252
187 213 252
187 213 252
187 213 252
187 213 252
187 213 252
187 213 252
187 213 252
187 213 252
187 213 252
187 213 252
187 213 252
187 213 252
187 213 252
187 213 252
187 213 252
187 213 252
187 213 252
187 213 252
187 213 252
187 213 252
187 213 252
187 213 252
187 213 252
187 213 252
187 213 252
187 213 252
187 213 252
187 213 252
187 213 252
187 213 252
187 213 252
187 213 252
187 213 252
187 213 252
187 213 252
187 213 252
187 213 252
187 213 252
187 213 252
187 213 252
187 213 252
187 213 252
187 213 252
187 213 251
187 213 251
187 213 252
187 213 251
187 213 251
187 213 251
187 213 252
187 213 251
187 213 251
187 213 251
187 213 251
187 213 252
187 213 251
187 213 251
187 213 251
187 213 251
187 213 252
187 213 252
187 213 252
187 213 251
187 213 252
187 213 251
187 213 252
187 213 251
187 214 251
187 213 252
187 213 251
187 213 251
187 214 251
187 213 251
187 213 251
187 213 251
187 213 251
187 214 251
187 214 251
187 213 251
187 214 251
187 213 251
187 213 251
187 213 251
187 214 251
187 214 251
187 213 251
187 214 251
187 213 251
187 214 251
187 213 251
187 214 251
187 214 251
187 213 251
187 214 251
187 213 251
187 213 251
187 214 251
187 214 251
187 214 251
187 214 251
187 214 251
187 214 251
187 214 251
187 214 251
187 214 251
187 214 251
187 214 251
187 214 251
187 214 251
187 214 251
187 214 251
187 214 251
187 213 251
187 214 251
187 213 251
187 214 251
187 214 251
187 214 251
187 214 251
187 214 251
187 214 251
187 214 251
187 214 251
187 214 251
187 214 251
187 214 251
187 214 251
187 214 251
187 214 251
187 214 251
187 214 251
187 214 251
187 214 251
187 214 251
187 213 251
187 214 251
187 214 251
187 214 251
187 214 251
187 214 251
187 214 251
187 214 251
187 214 251
187 214 251
187 214 251
187 214 251
187 214 251
187 213 251
187 214 251
187 214 251
187 214 251
187 214 251
187 214 251
187 214 251
187 214 251
187 214 251
187 214 251
187 214 251
187 214 251
187 214 251
187 214 251
187 214 251
187 214 251
187 214 251
187 214 251
187 214 251
187 214 251
187 214 251
187 213 251
187 214 251
187 214 251
187 214 251
187 214 251
187 214 251
187 214 251
187 214 251
187 214 251
187 214 251
187 214 251
187 214 251
187 214 251
187 214 251
187 214 251
187 214 251
187 214 251
187 214 251
187 214 251
187 213 251
187 214 251
187 214 251
187 214 251
187 214 251
187 214 251
187 214 251
187 213 251
187 214 251
187 214 251
187 214 251
187 214 251
187 214 251
187 214 251
187 213 251
187 214 251
187 214 251
187 214 251
187 214 251
187 214 251
187 214 251
187 214 251
187 214 251
187 214 251
187 214 251
187 213 251
187 214 251
187 214 251
187 214 251
187 213 251
187 214 251
187 214 251
187 214 251
187 213 251
187 213 251
187 214 251
187 213 251
187 214 251
187 213 251
187 214 251
187 213 251
187 213 251
187 213 251
187 213 251
187 214 251
187 214 251
187 213 251
187 214 251
187 213 251
187 214 251
187 213 251
187 213 251
187 213 251
187 214 251
187 213 251
187 213 251
187 213 251
187 213 251
187 213 251
187 213 251
187 213 251
187 214 251
187 213 251
187 213 251
187 214 251
187 214 251
187 213 251
187 214 251
187 213 251
187 213 251
187 213 251
187 213 251
187 214 251
187 213 251
187 213 251
187 213 251
187 213 251
187 213 251
187 213 251
187 213 251
187 213 251
187 213 252
187 213 252
187 213 252
187 213 251
187 213 252
187 213 252
187 213 252
187 213 252
187 213 251
187 213 251
187 214 251
187 214 251
187 214 251
187 214 251
187 214 251
187 214 251
187 214 251
187 214 251
187 214 251
187 214 251
187 214 251
187 214 251
187 214 251
187 214 251
187 214 251
187 214 251
187 214 251
187 214 251
187 214 251
187 214 251
187 214 251
187 214 251
187 214 251
187 214 251
187 214 251
187 214 251
187 214 251
187 214 251
187 214 251
187 214 251
187 214 251
187 214 251
187 214 251
187 214 251
187 214 251
187 214 251
187 214 251
187 214 251
187 214 251
187 214 251
187 214 251
187 214 251
187 214 251
187 214 251
187 214 251
187 214 251
187 214 251
187 214 251
187 214 251
187 214 251
187 214 251
187 214 251
187 214 251
187 214 251
187 214 251
187 214 251
187 214 251
187 214 251
187 214 251
187 214 251
187 214 251
187 214 251
187 214 251
187 214 251
187 214 251
187 214 251
187 214 251
187 214 251
187 214 251
187 214 251
187 214 251
187 214 251
187 214 251
187 214 251
187 214 251
187 214 251
187 214 251
187 214 251
187 214 251
187 214 251
187 214 251
187 214 251
187 214 251
187 214 251
187 214 251
187 214 251
187 214 251
187 214 251
187 214 251
187 214 251
187 214 251
187 214 251
187 214 251
187 214 251
187 214 251
187 214 251
187 214 251
187 214 251
187 214 251
187 214 251
187 214 251
187 214 251
187 214 251
187 214 251
187 214 251
187 214 251
187 214 251
187 214 251
187 214 251
187 214 251
187 214 251
187 214 251
187 214 251
187 214 251
187 214 251
187 214 251
187 214 251
187 214 251
187 214 251
187 214 251
187 214 251
187 214 251
187 214 251
187 214 251
187 214 251
187 214 251
187 214 251
187 214 251
187 214 251
187 214 251
187 214 251
187 214 251
187 214 251
187 214 251
187 214 251
187 214 251
187 214 251
187 214 251
187 214 251
187 214 251
187 214 251
187 214 251
187 214 251
187 214 251
187 214 251
187 214 251
187 214 251
187 214 251
187 214 251
187 214 251
187 214 251
187 214 251
187 214 251
187 214 251
187 214 251
187 214 251
187 214 251
187 214 251
187 214 251
187 214 251
187 214 251
187 214 251
187 214 251
187 214 251
187 214 251
187 214 251
187 214 251
187 214 251
187 214 251
187 214 251
187 214 251
187 214 251
187 214 251
187 214 251
187 214 251
187 214 251
187 214 251
187 214 251
187 214 251
187 214 251
187 214 251
187 214 251
187 214 251
187 214 251
187 214 251
187 214 251
187 214 251
187 214 251
187 214 251
187 214 251
187 214 251
187 214 251
187 214 251
187 214 251
187 214 251
187 214 251
187 214 251
187 214 251
187 214 251
187 214 251
187 214 251
187 214 251
187 214 251
187 214 251
187 214 251
187 214 251
187 214 251
187 214 251
187 214 251
187 214 251
187 214 251
187 214 251
187 214 251
187 214 251
187 214 251
187 214 251
187 214 251
187 214 251
187 214 251
187 214 251
187 214 251
187 214 251
187 214 251
187 214 251
187 214 251
187 214 251
187 214 251
187 214 251
187 214 251
187 214 251
187 214 251
187 214 251
187 214 251
187 214 251
187 214 251
187 214 251
187 214 251
187 214 251
187 214 251
187 214 251
187 214 251
187 214 251
187 214 251
187 214 251
187 214 251
187 214 251
187 214 251
187 214 251
187 214 251
187 214 251
187 214 251
187 214 251
187 214 251
187 214 251
187 214 251
187 214 251
187 214 251
187 214 251
187 214 251
187 214 251
187 214 251
187 214 251
187 214 251
187 214 251
187 214 251
187 214 251
187 214 251
187 214 251
187 214 251
187 214 251
187 214 251
187 214 251
187 214 251
187 214 251
187 214 251
187 214 251
187 214 251
187 214 251
187 214 251
187 214 251
187 214 251
187 214 251
187 214 251
187 214 251
187 214 251
187 214 251
187 214 251
187 214 251
187 214 251
187 214 251
187 214 251
187 214 251
187 214 251
187 214 251
187 214 251
187 214 251
187 214 251
187 214 251
187 214 251
187 214 251
187 214 251
187 214 251
187 214 251
187 214 251
187 214 251
187 214 251
187 214 251
187 214 251
187 214 251
187 214 251
187 214 251
187 214 251
187 214 251
187 214 251
187 214 251
187 214 251
187 214 251
187 214 251
187 214 251
187 214 251
187 214 251
187 214 251
187 214 251
187 214 251
187 214 251
187 214 251
187 214 251
187 214 251
187 214 251
187 214 251
187 214 251
187 214 251
187 214 251
187 214 251
187 214 251
187 214 251
187 214 251
187 214 251
187 214 251
187 214 251
187 214 251
187 214 251
187 214 251
187 214 251
187 214 251
187 214 251
187 214 251
187 214 251
187 214 251
187 214 251
187 214 251
187 214 251
187 214 251
187 214 251
187 214 251
187 214 251
187 214 251
187 214 251
187 214 251
187 214 251
187 214 251
187 214 251
187 214 251
187 214 251
187 214 251
187 214 251
187 214 251
187 214 251
187 214 251
187 214 251
187 214 251
187 214 251
187 214 251
187 214 251
187 214 251
187 214 251
187 214 251
187 214 251
187 214 251
187 214 251
187 214 251
187 214 251
187 214 251
187 214 251
187 214 251
187 214 251
187 214 251
187 214 251
187 214 251
187 214 251
187 214 251
187 214 251
187 214 251
187 214 251
187 214 251
187 214 251
187 214 251
187 214 251
187 214 251
187 214 251
187 214 251
187 214 251
187 214 251
187 214 251
187 214 251
187 214 251
187 214 251
187 214 251
187 214 251
187 214 251
187 214 251
187 214 251
187 214 251
187 214 251
187 214 251
187 214 251
187 214 251
187 214 251
187 214 251
187 214 251
187 214 251
187 214 251
187 214 251
187 214 251
187 214 251
187 214 251
187 214 251
187 214 251
187 214 251
187 214 251
187 214 251
187 214 251
187 214 251
187 214 251
187 214 251
187 214 251
187 214 251
187 214 251
187 214 251
187 214 251
187 214 251
187 214 251
187 214 251
187 214 251
187 214 251
187 214 251
187 214 251
187 214 251
187 214 251
187 214 251
187 214 251
187 214 251
187 214 251
187 214 251
187 214 251
187 214 251
187 214 251
187 214 251
187 214 251
187 214 251
187 214 251
187 214 251
187 214 251
187 214 251
187 214 251
187 214 251
187 214 251
187 214 251
187 214 251
187 214 251
187 214 251
187 214 251
187 214 251
187 214 251
187 214 251
187 214 251
187 214 251
187 214 251
187 214 251
187 214 251
187 214 251
187 214 251
187 214 251
187 214 251
187 214 251
187 214 251
187 214 251
187 214 251
187 214 251
187 214 251
187 214 251
187 214 251
187 214 251
187 214 251
187 214 251
187 214 251
187 214 251
187 214 251
187 214 251
187 214 251
187 214 251
187 214 251
187 214 251
187 214 251
187 214 251
187 214 251
187 214 251
187 214 251
187 214 251
187 214 251
187 214 251
187 214 251
187 214 251
187 214 251
187 214 251
187 214 251
187 214 251
187 214 251
187 214 251
187 214 251
187 214 251
187 214 251
187 214 251
187 214 251
187 214 251
187 214 251
187 214 251
187 214 251
187 214 251
187 214 251
187 214 251
187 214 251
187 214 251
187 214 251
187 214 251
187 214 251
187 214 251
187 214 251
187 214 251
187 214 251
187 214 251
187 214 251
187 214 251
187 214 251
187 214 251
187 214 251
187 214 251
187 214 251
187 214 251
187 214 251
187 214 251
187 214 251
187 214 251
187 214 251
187 214 251
187 214 251
187 214 251
187 214 251
187 214 251
187 214 251
187 214 251
187 214 251
187 214 251
187 214 251
187 214 251
187 214 251
187 214 251
187 214 251
187 214 251
187 214 251
187 214 251
187 214 251
187 214 251
187 214 251
187 214 251
187 214 251
187 214 251
187 214 251
187 214 251
187 214 251
187 214 251
187 214 251
187 214 251
187 214 251
187 214 251
187 214 251
187 214 251
187 214 251
187 214 251
187 214 251
187 214 251
187 214 251
187 214 251
187 214 251
187 214 251
187 214 251
187 214 251
187 214 251
187 214 251
187 214 251
187 214 251
187 214 251
187 214 251
187 214 251
187 214 251
187 214 251
187 214 251
187 214 251
187 214 251
187 214 251
187 214 251
187 214 251
187 214 251
187 214 251
187 214 251
187 214 251
187 214 251
187 214 251
187 214 251
187 214 251
187 214 251
187 214 251
187 214 251
187 214 251
187 214 251
187 214 251
187 214 251
187 214 251
187 214 251
187 214 251
187 214 251
187 214 251
187 214 251
187 214 251
187 214 251
187 214 251
187 214 251
187 214 251
187 214 251
187 214 251
187 214 251
187 214 251
187 214 251
187 214 251
187 214 251
187 214 251
187 214 251
187 214 251
187 214 251
187 214 251
187 214 251
187 214 251
187 214 251
187 214 251
187 214 251
187 214 251
187 214 251
187 214 251
187 214 251
187 214 251
187 214 251
187 214 251
187 214 251
187 214 251
187 214 251
187 214 251
187 214 251
187 214 251
187 214 251
187 214 251
187 214 251
187 214 251
187 214 251
187 214 251
187 214 251
187 214 251
187 214 251
187 214 251
187 214 251
187 214 251
187 214 251
187 214 251
187 214 251
187 214 251
187 214 251
187 214 251
187 214 251
187 214 251
187 214 251
187 214 251
187 214 251
187 214 251
187 214 251
187 214 251
187 214 251
187 214 251
187 214 251
187 214 251
187 214 251
187 214 251
187 214 251
187 214 251
187 214 251
187 214 251
187 214 251
187 214 251
187 214 251
187 214 251
187 214 251
187 214 251
187 214 251
187 214 251
187 214 251
187 214 251
187 214 251
187 214 251
187 214 251
187 214 251
187 214 251
187 214 251
187 214 251
187 214 251
187 214 251
187 214 251
187 214 251
187 214 251
187 214 251
187 214 251
187 214 251
187 214 251
187 214 251
187 214 251
187 214 251
187 214 251
187 214 251
187 214 251
187 214 251
187 214 251
187 214 251
187 214 251
187 214 251
187 214 251
187 214 251
187 214 251
187 214 251
187 214 251
187 214 251
187 214 251
187 214 251
187 214 251
187 214 251
187 214 251
187 214 251
187 214 251
187 214 251
187 214 251
187 214 251
187 214 251
187 214 251
187 214 251
187 214 251
187 214 251
187 214 251
187 214 251
187 214 251
187 214 251
187 214 251
187 214 251
187 214 251
187 214 251
187 214 251
187 214 251
187 214 251
187 214 251
187 214 251
187 214 251
187 214 251
187 214 251
187 214 251
187 214 251
187 214 251
187 214 251
187 214 251
187 214 251
187 214 251
187 214 251
187 214 251
187 214 251
187 214 251
187 214 251
187 214 251
187 214 251
187 214 251
187 214 251
187 214 251
187 214 251
187 214 251
187 214 251
187 214 251
187 214 251
187 214 251
187 214 251
187 214 251
187 214 251
187 214 251
187 214 251
187 214 251
187 214 251
187 214 251
187 214 251
187 214 251
187 214 251
187 214 251
187 214 251
187 214 251
187 214 251
187 214 251
187 214 251
187 214 251
187 214 251
187 214 251
187 214 251
187 214 251
187 214 251
187 214 251
187 214 251
187 214 251
187 214 251
187 214 251
187 214 251
187 214 251
187 214 251
187 214 251
187 214 251
187 214 251
187 214 251
187 214 251
187 214 251
187 214 251
187 214 251
187 214 251
187 214 251
187 214 251
187 214 251
187 214 251
187 214 251
187 214 251
187 214 251
187 214 251
187 214 251
187 214 251
187 214 251
187 214 251
187 214 251
187 214 251
187 214 251
187 214 251
187 214 251
187 214 251
187 214 251
187 214 251
187 214 251
187 214 251
187 214 251
187 214 251
187 214 251
187 214 251
187 214 251
187 214 251
187 214 251
187 214 251
187 214 251
187 214 251
187 214 251
187 214 251
187 214 251
187 214 251
187 214 251
187 214 251
187 214 251
187 214 251
187 214 251
187 214 251
187 214 251
187 214 251
187 214 251
187 214 251
187 214 251
187 214 251
187 214 251
187 214 251
187 214 251
187 214 251
187 214 251
187 214 251
187 214 251
187 214 251
187 214 251
187 214 251
187 214 251
187 214 251
187 214 251
187 214 251
187 214 251
187 214 251
187 214 251
187 214 251
187 214 251
187 214 251
187 214 251
187 214 251
187 214 251
187 214 251
187 214 251
187 214 251
187 214 251
187 214 251
187 214 251
187 214 251
187 214 251
187 214 251
187 214 251
187 214 251
187 214 251
187 214 251
187 214 251
187 214 251
187 214 251
187 214 251
187 214 251
187 214 251
187 214 251
187 214 251
187 214 251
187 214 251
187 214 251
187 214 251
187 214 251
187 214 251
187 214 251
187 214 251
187 214 251
187 214 251
187 214 251
187 214 251
187 214 251
187 214 251
187 214 251
187 214 251
187 214 251
187 214 251
187 214 251
187 214 251
187 214 251
187 214 251
187 214 251
187 214 251
187 214 251
187 214 251
187 214 251
187 214 251
187 214 251
187 214 251
187 214 251
187 214 251
187 214 251
187 214 251
187 214 251
187 214 251
187 214 251
187 214 251
187 214 251
187 214 251
187 214 251
187 214 251
187 214 251
187 214 251
187 214 251
187 214 251
187 214 251
187 214 251
187 214 251
187 214 251
187 214 251
187 214 251
187 214 251
187 214 251
187 214 251
187 214 251
187 214 251
187 214 251
187 214 251
187 214 251
187 214 251
187 214 251
187 214 251
187 214 251
187 214 251
187 214 251
187 214 251
187 214 251
187 214 251
187 214 251
187 214 251
187 214 251
187 214 251
187 214 251
187 214 251
187 214 251
187 214 251
187 214 251
187 214 251
187 214 251
187 214 251
187 214 251
187 214 251
187 214 251
187 214 251
187 214 251
187 214 251
187 214 251
187 214 251
187 214 251
187 214 251
187 214 251
187 214 251
187 214 251
187 214 251
187 214 251
187 214 251
187 214 251
187 214 251
187 214 251
187 214 251
187 214 251
187 214 251
187 214 251
187 214 251
187 214 251
187 214 251
187 214 251
187 214 251
187 214 251
187 214 251
187 214 251
187 214 251
187 214 251
187 214 251
187 214 251
187 214 251
187 214 251
187 214 251
187 214 251
187 214 251
187 214 251
187 214 251
187 214 251
187 214 251
187 214 251
187 214 251
187 214 251
187 214 251
187 214 251
187 214 251
187 214 251
187 214 251
187 214 251
187 214 251
187 214 251
187 214 251
187 214 251
187 214 251
187 214 251
187 214 251
187 214 251
187 214 251
187 214 251
187 214 251
187 214 251
187 214 251
187 214 251
187 214 251
187 214 251
187 214 251
187 214 251
187 214 251
187 214 251
187 214 251
187 214 251
187 214 251
187 214 251
187 214 251
187 214 251
187 214 251
187 214 251
187 214 251
187 214 251
187 214 251
187 214 251
187 214 251
187 214 251
187 214 251
187 214 251
187 214 251
187 214 251
187 214 251
187 214 251
187 214 251
187 214 251
187 214 251
187 214 251
187 214 251
187 214 251
187 214 251
187 214 251
187 214 251
187 214 251
187 214 251
187 214 251
187 214 251
187 214 251
187 214 251
187 214 251
187 214 251
187 214 251
187 214 251
187 214 251
187 214 251
187 214 251
187 214 251
187 214 251
187 214 251
187 214 251
187 214 251
187 214 251
187 214 251
187 214 251
187 214 251
187 214 251
187 214 251
187 214 251
187 214 251
187 214 251
187 214 251
187 214 251
187 214 251
187 214 251
187 214 251
187 214 251
187 214 251
187 214 251
187 214 251
187 214 251
187 214 251
187 214 251
187 214 251
187 214 251
187 214 251
187 214 251
187 214 251
187 214 251
187 214 251
187 214 251
187 214 251
187 214 251
187 214 251
187 214 251
187 214 251
187 214 251
187 214 251
187 214 251
187 214 251
187 214 251
187 214 251
187 214 251
187 214 251
187 214 251
187 214 251
187 214 251
187 214 251
187 214 251
187 214 251
187 214 251
187 214 251
187 214 251
187 214 251
187 214 251
187 214 251
187 214 251
187 214 251
187 214 251
187 214 251
187 214 251
187 214 251
187 214 251
187 214 251
187 214 251
187 214 251
187 214 251
187 214 251
187 214 251
187 214 251
187 214 251
187 214 251
187 214 251
187 214 251
187 214 251
187 214 251
187 214 251
187 214 251
187 214 251
187 214 251
187 214 251
187 214 251
187 214 251
187 214 251
187 214 251
187 214 251
187 214 251
187 214 251
187 214 251
187 214 251
187 214 251
187 214 251
187 214 251
187 214 251
187 214 251
187 214 251
187 214 251
187 214 251
187 214 251
187 214 251
187 214 251
187 214 251
187 214 251
187 214 251
187 214 251
187 214 251
187 214 251
187 214 251
187 214 251
187 214 251
187 214 251
187 214 251
187 214 251
187 214 251
187 214 251
187 214 251
187 214 251
187 214 251
187 214 251
187 214 251
187 214 251
187 214 251
187 214 251
187 214 251
187 214 251
187 214 251
187 214 251
187 214 251
187 214 251
187 214 251
187 214 251
187 214 251
187 214 251
187 214 251
187 214 251
187 214 251
187 214 251
187 214 251
187 214 251
187 214 251
187 214 251
187 214 251
187 214 251
187 214 251
187 214 251
187 214 251
187 214 251
187 214 251
187 214 251
187 214 251
187 214 251
187 214 251
187 214 251
187 214 251
187 214 251
187 214 251
187 214 251
187 214 251
187 214 251
187 214 251
187 214 251
187 214 251
187 214 251
187 214 251
187 214 251
187 214 251
187 214 251
187 214 251
187 214 251
187 214 251
187 214 251
187 214 251
187 214 251
187 214 251
187 214 251
187 214 251
187 214 251
187 214 251
187 214 251
187 214 251
187 214 251
187 214 251
187 214 251
187 214 251
187 214 251
187 214 251
187 214 251
187 214 251
187 214 251
187 214 251
187 214 251
187 214 251
187 214 251
187 214 251
187 214 251
187 214 251
187 214 251
187 214 251
187 214 251
187 214 251
187 214 251
187 214 251
187 214 251
187 214 251
187 214 251
187 214 251
187 214 251
187 214 251
187 214 251
187 214 251
187 214 251
187 214 251
187 214 251
187 214 251
187 214 251
187 214 251
187 214 251
187 214 251
187 214 251
187 214 251
187 214 251
187 214 251
187 214 251
187 214 251
187 214 251
187 214 251
187 214 251
187 214 251
187 214 251
187 214 251
187 214 251
187 214 251
187 214 251
187 214 251
187 214 251
187 214 251
187 214 251
187 214 251
187 214 251
187 214 251
187 214 251
187 214 251
187 214 251
187 214 251
187 214 251
187 214 251
187 214 251
187 214 251
187 214 251
187 214 251
187 214 251
187 214 251
187 214 251
187 214 251
187 214 251
187 214 251
187 214 251
187 214 251
187 214 251
187 214 251
187 214 251
187 214 251
187 214 251
187 214 251
187 214 251
187 214 251
187 214 251
187 214 251
187 214 251
187 214 251
187 214 251
187 214 251
187 214 251
187 214 251
187 214 251
187 214 251
187 214 251
187 214 251
187 214 251
187 214 251
187 214 251
187 214 251
187 214 251
187 214 251
187 214 251
187 214 251
187 214 251
187 214 251
187 214 251
187 214 251
187 214 251
187 214 251
187 214 251
187 214 251
187 214 251
187 214 251
187 214 251
187 214 251
187 214 251
187 214 251
187 214 251
187 214 251
187 214 251
187 214 251
187 214 251
187 214 251
187 214 251
187 214 251
187 214 251
187 214 251
188 214 251
187 214 251
187 214 251
187 214 251
187 214 251
187 214 251
187 214 251
188 214 251
187 214 251
187 214 251
188 214 251
187 214 251
187 214 251
187 214 251
187 214 251
188 214 251
188 214 251
188 214 251
188 214 251
188 214 251
188 214 251
188 214 251
187 214 251
188 214 251
188 214 251
188 214 251
188 214 251
188 214 251
188 214 251
188 214 251
188 214 251
187 214 251
188 214 251
188 214 251
188 214 251
188 214 251
188 214 251
187 214 251
188 214 251
188 214 251
188 214 251
188 214 251
188 214 251
188 214 251
188 214 251
188 214 251
188 214 251
188 214 251
188 214 251
188 214 251
188 214 251
188 214 251
188 214 251
188 214 251
188 214 251
188 214 251
188 214 251
188 214 251
188 214 251
188 214 251
188 214 251
188 214 251
188 214 251
188 214 251
188 214 251
188 214 251
188 214 251
188 214 251
188 214 251
188 214 251
188 214 251
188 214 251
188 214 251
188 214 251
188 214 251
188 214 251
188 214 251
188 214 251
188 214 251
188 214 251
188 214 251
188 214 251
188 214 251
188 214 251
188 214 251
188 214 251
188 214 251
188 214 251
188 214 251
188 214 251
188 214 251
188 214 251
188 214 251
188 214 251
188 214 251
188 214 251
188 214 251
188 214 251
188 214 251
188 214 251
188 214 251
188 214 251
188 214 251
188 214 251
188 214 251
188 214 251
188 214 251
188 214 251
188 214 251
188 214 251
188 214 251
188 214 251
188 214 251
188 214 251
188 214 251
188 214 251
188 214 251
188 214 251
188 214 251
188 214 251
188 214 251
188 214 251
188 214 251
188 214 251
188 214 251
188 214 251
188 214 251
188 214 251
188 214 251
188 214 251
188 214 251
188 214 251
188 214 251
188 214 251
188 214 251
188 214 251
188 214 251
188 214 251
188 214 251
188 214 251
188 214 251
188 214 251
188 214 251
188 214 251
188 214 251
188 214 251
188 214 251
188 214 251
188 214 251
188 214 251
188 214 251
188 214 251
188 214 251
188 214 251
188 214 251
188 214 251
188 214 251
188 214 251
188 214 251
188 214 251
188 214 251
188 214 251
188 214 251
188 214 251
188 214 251
188 214 251
188 214 251
188 214 251
188 214 251
188 214 251
188 214 251
188 214 251
188 214 251
188 214 251
188 214 251
188 214 251
188 214 251
188 214 251
188 214 251
188 214 251
188 214 251
188 214 251
188 214 251
188 214 251
188 214 251
188 214 251
188 214 251
188 214 251
188 214 251
188 214 251
188 214 251
188 214 251
188 214 251
188 214 251
188 214 251
188 214 251
188 214 251
188 214 251
188 214 251
188 214 251
188 214 251
188 214 251
188 214 251
188 214 251
188 214 251
188 214 251
188 214 251
188 214 251
188 214 251
188 214 251
188 214 251
188 214 251
188 214 251
188 214 251
188 214 251
187 214 251
188 214 251
188 214 251
187 214 251
187 214 251
188 214 251
187 214 251
188 214 251
187 214 251
187 214 251
187 214 251
187 214 251
187 214 251
188 214 251
187 214 251
188 214 251
187 214 251
187 214 251
187 214 251
187 214 251
187 214 251
187 214 251
187 214 251
188 214 251
188 214 251
188 214 251
188 214 251
188 214 251
188 214 251
188 214 251
188 214 251
188 214 251
188 214 251
188 214 251
188 214 251
188 214 251
188 214 251
188 214 251
188 214 251
188 214 251
188 214 251
188 214 251
188 214 251
188 214 251
188 214 251
188 214 251
188 214 251
188 214 251
188 214 251
188 214 251
188 214 251
188 214 251
188 214 251
188 214 251
188 214 251
188 214 251
188 214 251
188 214 251
188 214 251
188 214 251
188 214 251
188 214 251
188 214 251
188 214 251
188 214 251
188 214 251
188 214 251
188 214 251
188 214 251
188 214 251
188 214 251
188 214 251
188 214 251
188 214 251
188 214 251
188 214 251
188 214 251
188 214 251
188 214 251
188 214 251
188 214 251
188 214 251
188 214 251
188 214 251
188 214 251
188 214 251
188 214 251
188 214 251
188 214 251
188 214 251
188 214 251
188 214 251
188 214 251
188 214 251
188 214 251
188 214 251
188 214 251
188 214 251
188 214 251
188 214 251
188 214 251
188 214 251
188 214 251
188 214 251
188 214 251
188 214 251
188 214 251
188 214 251
188 214 251
188 214 251
188 214 251
188 214 251
188 214 251
188 214 251
188 214 251
188 214 251
188 214 251
188 214 251
188 214 251
188 214 251
188 214 251
188 214 251
188 214 251
188 214 251
188 214 251
188 214 251
188 214 251
188 214 251
188 214 251
188 214 251
188 214 251
188 214 251
188 214 251
188 214 251
188 214 251
188 214 251
188 214 251
188 214 251
188 214 251
188 214 251
188 214 251
188 214 251
188 214 251
188 214 251
188 214 251
188 214 251
188 214 251
188 214 251
188 214 251
188 214 251
188 214 251
188 214 251
188 214 251
188 214 251
188 214 251
188 214 251
188 214 251
188 214 251
188 214 251
188 214 251
188 214 251
188 214 251
188 214 251
188 214 251
188 214 251
188 214 251
188 214 251
188 214 251
188 214 251
188 214 251
188 214 251
188 214 251
188 214 251
188 214 251
188 214 251
188 214 251
188 214 251
188 214 251
188 214 251
188 214 251
188 214 251
188 214 251
188 214 251
188 214 251
188 214 251
188 214 251
188 214 251
188 214 251
188 214 251
188 214 251
188 214 251
188 214 251
188 214 251
188 214 251
188 214 251
188 214 251
188 214 251
188 214 251
188 214 251
188 214 251
188 214 251
188 214 251
188 214 251
188 214 251
188 214 251
188 214 251
188 214 251
188 214 251
188 214 251
188 214 251
188 214 251
188 214 251
188 214 251
188 214 251
188 214 251
188 214 251
188 214 251
188 214 251
188 214 251
188 214 251
188 214 251
188 214 251
188 214 251
188 214 251
188 214 251
188 214 251
188 214 251
188 214 251
188 214 251
188 214 251
188 214 251
188 214 251
188 214 251
188 214 251
188 214 251
188 214 251
188 214 251
188 214 251
188 214 251
188 214 251
188 214 251
188 214 251
188 214 251
188 214 251
188 214 251
188 214 251
188 214 251
188 214 251
188 214 251
188 214 251
188 214 251
188 214 251
188 214 251
188 214 251
188 214 251
188 214 251
188 214 251
188 214 251
188 214 251
188 214 251
188 214 251
188 214 251
188 214 251
188 214 251
188 214 251
188 214 251
188 214 251
188 214 251
188 214 251
188 214 251
188 214 251
188 214 251
188 214 251
188 214 251
188 214 251
188 214 251
188 214 251
188 214 251
188 214 251
188 214 251
188 214 251
188 214 251
188 214 251
188 214 251
188 214 251
188 214 251
188 214 251
188 214 251
188 214 251
188 214 251
188 214 251
188 214 251
188 214 251
188 214 251
188 214 251
188 214 251
188 214 251
188 214 251
188 214 251
188 214 251
188 214 251
188 214 251
188 214 251
188 214 251
188 214 251
188 214 251
188 214 251
188 214 251
188 214 251
188 214 251
188 214 251
188 214 251
188 214 251
188 214 251
188 214 251
188 214 251
188 214 251
188 214 251
188 214 251
188 214 251
188 214 251
188 214 251
188 214 251
188 214 251
188 214 251
188 214 251
188 214 251
188 214 251
188 214 251
188 214 251
188 214 251
188 214 251
188 214 251
188 214 251
188 214 251
188 214 251
188 214 251
188 214 251
188 214 251
188 214 251
188 214 251
188 214 251
188 214 251
188 214 251
188 214 251
188 214 251
188 214 251
188 214 251
188 214 251
188 214 251
188 214 251
188 214 251
188 214 251
188 214 251
188 214 251
188 214 251
188 214 251
188 214 251
188 214 251
188 214 251
188 214 251
188 214 251
188 214 251
188 214 251
188 214 251
188 214 251
188 214 251
188 214 251
188 214 251
188 214 251
188 214 251
188 214 251
188 214 251
188 214 251
188 214 251
188 214 251
188 214 251
188 214 251
188 214 251
188 214 251
188 214 251
188 214 251
188 214 251
188 214 251
188 214 251
188 214 251
188 214 251
188 214 251
188 214 251
188 214 251
188 214 251
188 214 251
188 214 251
188 214 251
188 214 251
188 214 251
188 214 251
188 214 251
188 214 251
188 214 251
188 214 251
188 214 251
188 214 251
188 214 251
188 214 251
188 214 251
188 214 251
188 214 251
188 214 251
188 214 251
188 214 251
188 214 251
188 214 251
188 214 251
188 214 251
188 214 251
188 214 251
188 214 251
188 214 251
188 214 251
188 214 251
188 214 251
188 214 251
188 214 251
188 214 251
188 214 251
188 214 251
188 214 251
188 214 251
188 214 251
188 214 251
188 214 251
188 214 251
188 214 251
188 214 251
188 214 251
188 214 251
188 214 251
188 214 251
188 214 251
188 214 251
188 214 251
188 214 251
188 214 251
188 214 251
188 214 251
188 214 251
188 214 251
188 214 251
188 214 251
188 214 251
188 214 251
188 214 251
188 214 251
188 214 251
188 214 251
188 214 251
188 214 251
188 214 251
188 214 251
188 214 251
188 214 251
188 214 251
188 214 251
188 214 251
188 214 251
188 214 251
188 214 251
188 214 251
188 214 251
188 214 251
188 214 251
188 214 251
188 214 251
188 214 251
188 214 251
188 214 251
188 214 251
188 214 251
188 214 251
188 214 251
188 214 251
188 214 251
188 214 251
188 214 251
188 214 251
188 214 251
188 214 251
188 214 251
188 214 251
188 214 251
188 214 251
188 214 251
188 214 251
188 214 251
188 214 251
188 214 251
188 214 251
188 214 251
188 214 251
188 214 251
188 214 251
188 214 251
188 214 251
188 214 251
188 214 251
188 214 251
188 214 251
188 214 251
188 214 251
188 214 251
188 214 251
188 214 251
188 214 251
188 214 251
188 214 251
188 214 251
188 214 251
188 214 251
188 214 251
188 214 251
188 214 251
188 214 251
188 214 251
188 214 251
188 214 251
188 214 251
188 214 251
188 214 251
188 214 251
188 214 251
188 214 251
188 214 251
188 214 251
188 214 251
188 214 251
188 214 251
188 214 251
188 214 251
188 214 251
188 214 251
188 214 251
188 214 251
188 214 251
188 214 251
188 214 251
188 214 251
188 214 251
188 214 251
188 214 251
188 214 251
188 214 251
188 214 251
188 214 251
188 214 251
188 214 251
188 214 251
188 214 251
188 214 251
188 214 251
188 214 251
188 214 251
188 214 251
188 214 251
188 214 251
188 214 251
188 214 251
188 214 251
188 214 251
188 214 251
188 214 251
188 214 251
188 214 251
188 214 251
188 214 251
188 214 251
188 214 251
188 214 251
188 214 251
188 214 251
188 214 251
188 214 251
188 214 251
188 214 251
188 214 251
188 214 251
188 214 251
188 214 251
188 214 251
188 214 251
188 214 251
188 214 251
188 214 251
188 214 251
188 214 251
188 214 251
188 214 251
188 214 251
188 214 251
188 214 251
188 214 251
188 214 251
188 214 251
188 214 251
188 214 251
188 214 251
188 214 251
188 214 251
188 214 251
188 214 251
188 214 251
188 214 251
188 214 251
188 214 251
188 214 251
188 214 251
188 214 251
188 214 251
188 214 251
188 214 251
188 214 251
188 214 251
188 214 251
188 214 251
188 214 251
188 214 251
188 214 251
188 214 251
188 214 251
188 214 251
188 214 251
188 214 251
188 214 251
188 214 251
188 214 251
188 214 251
188 214 251
188 214 251
188 214 251
188 214 251
188 214 251
188 214 251
188 214 251
188 214 251
188 214 251
188 214 251
188 214 251
188 214 251
188 214 251
188 214 251
188 214 251
188 214 251
188 214 251
188 214 251
188 214 251
188 214 251
188 214 251
188 214 251
188 214 251
188 214 251
188 214 251
188 214 251
188 214 251
188 214 251
188 214 251
188 214 251
188 214 251
188 214 251
188 214 251
188 214 251
188 214 251
188 214 251
188 214 251
188 214 251
188 214 251
188 214 251
188 214 251
188 214 251
188 214 251
188 214 251
188 214 251
188 214 251
188 214 251
188 214 251
188 214 251
188 214 251
188 214 251
188 214 251
188 214 251
188 214 251
188 214 251
188 214 251
188 214 251
188 214 251
188 214 251
188 214 251
188 214 251
188 214 251
188 214 251
188 214 251
188 214 251
188 214 251
188 214 251
188 214 251
188 214 251
188 214 251
188 214 251
188 214 251
188 214 251
188 214 251
188 214 251
188 214 251
188 214 251
188 214 251
188 214 251
188 214 251
188 214 251
188 214 251
188 214 251
188 214 251
188 214 251
188 214 251
188 214 251
188 214 251
188 214 251
188 214 251
188 214 251
188 214 251
188 214 251
188 214 251
188 214 251
188 214 251
188 214 251
188 214 251
188 214 251
188 214 251
188 214 251
188 214 251
188 214 251
188 214 251
188 214 251
188 214 251
188 214 251
188 214 251
188 214 251
188 214 251
188 214 251
188 214 251
188 214 251
188 214 251
188 214 251
188 214 251
188 214 251
188 214 251
188 214 251
188 214 251
188 214 251
188 214 251
188 214 251
188 214 251
188 214 251
188 214 251
188 214 251
188 214 251
188 214 251
188 214 251
188 214 251
188 214 251
188 214 251
188 214 251
188 214 251
188 214 251
188 214 251
188 214 251
188 214 251
188 214 251
188 214 251
188 214 251
188 214 251
188 214 251
188 214 251
188 214 251
188 214 251
188 214 251
188 214 251
188 214 251
188 214 251
188 214 251
188 214 251
188 214 251
188 214 251
188 214 251
188 214 251
188 214 251
188 214 251
188 214 251
188 214 251
188 214 251
188 214 251
188 214 251
188 214 251
188 214 251
188 214 251
188 214 251
188 214 251
188 214 251
188 214 251
188 214 251
188 214 251
188 214 251
188 214 251
188 214 251
188 214 251
188 214 251
188 214 251
188 214 251
188 214 251
188 214 251
188 214 251
188 214 251
188 214 251
188 214 251
188 214 251
188 214 251
188 214 251
188 214 251
188 214 251
188 214 251
188 214 251
188 214 251
188 214 251
188 214 251
188 214 251
188 214 251
188 214 251
188 214 251
188 214 251
188 214 251
188 214 251
188 214 251
188 214 251
188 214 251
188 214 251
188 214 251
188 214 251
188 214 251
188 214 251
188 214 251
188 214 251
188 214 251
188 214 251
188 214 251
188 214 251
188 214 251
188 214 251
188 214 251
188 214 251
188 214 251
188 214 251
188 214 251
188 214 251
188 214 251
188 214 251
188 214 251
188 214 251
188 214 251
188 214 251
188 214 251
188 214 251
188 214 251
188 214 251
188 214 251
188 214 251
188 214 251
188 214 251
188 214 251
188 214 251
188 214 251
188 214 251
188 214 251
188 214 251
188 214 251
188 214 251
188 214 251
188 214 251
188 214 251
188 214 251
188 214 251
188 214 251
188 214 251
188 214 251
188 214 251
188 214 251
188 214 251
188 214 251
188 214 251
188 214 251
188 214 251
188 214 251
188 214 251
188 214 251
188 214 251
188 214 251
188 214 251
188 214 251
188 214 251
188 214 251
188 214 251
188 214 251
188 214 251
188 214 251
188 214 251
188 214 251
188 214 251
188 214 251
188 214 251
188 214 251
188 214 251
188 214 251
188 214 251
188 214 251
188 214 251
188 214 251
158 187 242
176 202 247
136 162 232
166 191 242
177 203 247
188 214 251
188 214 251
188 214 251
188 214 251
188 214 251
188 214 251
188 214 251
188 214 251
188 214 251
188 214 251
188 214 251
188 214 251
188 214 251
188 214 251
188 214 251
188 214 251
188 214 251
188 214 251
188 214 251
188 214 251
188 214 251
188 214 251
188 214 251
188 214 251
188 214 251
188 214 251
188 214 251
188 214 251
188 214 251
188 214 251
188 214 251
188 214 251
188 214 251
188 214 251
188 214 251
188 214 251
188 214 251
188 214 251
188 214 251
188 214 251
188 214 251
188 214 251
188 214 251
188 214 251
188 214 251
188 214 251
188 214 251
188 214 251
188 214 251
188 214 251
188 214 251
188 214 251
188 214 251
188 214 251
188 214 251
188 214 251
188 214 251
188 214 251
188 214 251
188 214 251
188 214 251
188 214 251
188 214 251
188 214 251
188 214 251
188 214 251
188 214 251
188 214 251
188 214 251
188 214 251
188 214 251
188 214 251
188 214 251
188 214 251
188 214 251
188 214 251
188 214 251
188 214 251
188 214 251
188 214 251
188 214 251
188 214 251
188 214 251
188 214 251
188 214 251
188 214 251
188 214 251
188 214 251
188 214 251
188 214 251
188 214 251
188 214 251
188 214 251
188 214 251
188 214 251
188 214 251
188 214 251
188 214 251
188 214 251
188 214 251
188 214 251
140 174 212
188 214 251
188 214 251
188 214 251
188 214 251
188 214 251
188 214 251
188 214 251
188 214 251
188 214 251
188 214 251
188 214 251
188 214 251
188 214 251
188 214 251
188 214 251
188 214 251
188 214 251
188 214 251
188 214 251
188 214 251
188 214 251
188 214 251
188 214 251
188 214 251
188 214 251
188 214 251
188 214 251
188 214 251
188 214 251
188 214 251
188 214 251
188 214 251
188 214 251
188 214 251
188 214 251
188 214 251
188 214 251
188 214 251
188 214 251
188 214 251
188 214 251
188 214 251
188 214 251
188 214 251
188 214 251
188 214 251
188 214 251
188 214 251
188 214 251
188 214 251
188 214 251
188 214 251
188 214 251
188 214 251
188 214 251
188 214 251
188 214 251
188 214 251
188 214 251
188 214 251
188 214 251
188 214 251
188 214 251
188 214 251
188 214 251
188 214 251
188 214 251
188 214 251
188 214 251
188 214 251
188 214 251
188 214 251
188 214 251
188 214 251
188 214 251
188 214 251
188 214 251
188 214 251
188 214 251
188 214 251
188 214 251
188 214 251
188 214 251
188 214 251
188 214 251
188 214 251
188 214 251
188 214 251
188 214 251
188 214 251
188 214 251
188 214 251
188 214 251
188 214 251
188 214 251
188 214 251
188 214 251
188 214 251
188 214 251
188 214 251
188 214 251
188 214 251
188 214 251
188 214 251
188 214 251
188 214 251
188 214 251
188 214 251
188 214 251
188 214 251
188 214 251
188 214 251
188 214 251
188 214 251
188 214 251
188 214 251
144 199 220
144 200 220
167 206 236
188 214 251
188 214 251
188 214 251
188 214 251
174 202 250
133 160 216
95 114 174
130 152 213
120 147 213
151 175 218
188 214 251
188 214 251
188 214 251
188 214 251
147 168 231
124 156 233
131 160 232
123 155 229
116 141 204
143 173 238
188 214 251
188 214 251
188 214 251
188 214 251
188 214 251
188 214 251
188 214 251
188 214 251
188 214 251
188 214 251
188 214 251
188 214 251
188 214 251
188 214 251
188 214 251
188 214 251
188 214 251
188 214 251
188 214 251
188 214 251
188 214 251
188 214 251
188 214 251
188 214 251
188 214 251
188 214 251
188 214 251
188 214 251
188 214 251
188 214 251
188 214 251
188 214 251
188 214 251
188 214 251
188 214 251
188 214 251
188 214 251
188 214 251
188 214 251
188 214 251
188 214 251
188 214 251
188 214 251
188 214 251
188 214 251
188 214 251
188 214 251
188 214 251
188 214 251
188 214 251
188 214 251
188 214 251
188 214 251
188 214 251
188 214 251
188 214 251
188 214 251
188 214 251
188 214 251
188 214 251
188 214 251
188 214 251
188 214 251
188 214 251
188 214 251
188 214 251
188 214 251
188 214 251
188 214 251
188 214 251
188 214 251
188 214 251
188 214 251
188 214 251
188 214 251
188 214 251
188 214 251
188 214 251
188 214 251
188 214 251
188 214 251
188 214 251
188 214 251
188 214 251
188 214 251
188 214 251
188 214 251
188 214 251
188 214 251
188 214 251
188 214 251
188 214 251
188 214 251
188 214 251
188 214 251
188 214 251
188 214 251
175 207 248
112 156 191
85 128 161
130 183 233
137 156 183
188 214 251
188 214 251
188 214 251
188 214 251
188 214 251
188 214 251
188 214 251
188 214 251
188 214 251
188 214 251
188 214 251
188 214 251
188 214 251
188 214 251
188 214 251
188 214 251
188 214 251
188 214 251
188 214 251
188 214 251
188 214 251
188 214 251
188 214 251
188 214 251
188 214 251
188 214 251
188 214 251
188 214 251
188 214 251
188 214 251
188 214 251
188 214 251
188 214 251
188 214 251
188 214 251
188 214 251
188 214 251
188 214 251
188 214 251
188 214 251
188 214 251
188 214 251
188 214 251
188 214 251
188 214 251
188 214 251
188 214 251
188 214 251
188 214 251
188 214 251
188 214 251
188 214 251
188 214 251
188 214 251
188 214 251
188 214 251
188 214 251
188 214 251
188 214 251
188 214 251
188 214 251
188 214 251
188 214 251
188 214 251
188 214 251
188 214 251
188 214 251
188 214 251
188 214 251
188 214 251
188 214 251
188 214 251
188 214 251
188 214 251
188 214 251
188 214 251
188 214 251
188 214 251
188 214 251
188 214 251
188 214 251
188 214 251
188 214 251
188 214 251
188 214 251
188 214 251
188 214 251
188 214 251
188 214 251
188 214 251
188 214 251
188 214 251
188 214 251
188 214 251
188 214 251
188 214 251
188 214 251
188 214 251
188 214 251
188 214 251
188 214 251
188 214 251
188 214 251
188 214 251
188 214 251
188 214 251
188 214 251
188 214 251
188 214 251
188 214 251
188 214 251
188 214 251
143 199 220
68 182 182
69 183 182
67 181 182
67 181 182
143 198 220
188 214 251
188 214 251
127 149 210
102 134 211
109 137 211
90 117 178
105 125 177
111 142 214
119 142 210
139 169 243
159 190 248
188 214 251
188 214 251
126 157 233
131 159 232
116 148 231
131 159 232
138 163 232
132 160 232
133 157 210
188 214 251
188 214 251
188 214 251
188 214 251
188 214 251
188 214 251
188 214 251
188 214 251
188 214 251
188 214 251
188 214 251
188 214 251
188 214 251
188 214 251
188 214 251
188 214 251
188 214 251
188 214 251
188 214 251
188 214 251
188 214 251
188 214 251
188 214 251
188 214 251
188 214 251
188 214 251
188 214 251
188 214 251
188 214 251
188 214 251
188 214 251
188 214 251
188 214 251
188 214 251
188 214 251
188 214 251
188 214 251
188 214 251
188 214 251
188 214 251
188 214 251
188 214 251
188 214 251
188 214 251
188 214 251
188 214 251
188 214 251
188 214 251
188 214 251
188 214 251
188 214 251
188 214 251
188 214 251
188 214 251
188 214 251
188 214 251
188 214 251
188 214 251
188 214 251
188 214 251
188 214 251
188 214 251
188 214 251
188 214 251
188 214 251
188 214 251
188 214 251
188 214 251
188 214 251
188 214 251
188 214 251
188 214 251
188 214 251
188 214 251
188 214 251
188 214 251
188 214 251
188 214 251
188 214 251
188 214 251
188 214 251
188 214 251
188 214 251
188 214 251
188 214 251
188 214 251
188 214 251
188 214 251
188 214 251
188 214 251
188 214 251
188 214 251
188 214 251
188 214 251
188 214 251
188 214 251
160 199 240
93 133 167
96 134 173
103 138 172
98 151 199
97 147 182
173 205 248
188 214 251
188 214 251
188 214 251
188 214 251
188 214 251
188 214 251
188 214 251
188 214 251
188 214 251
188 214 251
188 214 251
188 214 251
188 214 251
188 214 251
188 214 251
188 214 251
188 214 251
188 214 251
188 214 251
188 214 251
188 214 251
188 214 251
188 214 251
188 214 251
188 214 251
188 214 251
188 214 251
188 214 251
188 214 251
188 214 251
188 214 251
188 214 251
188 214 251
188 214 251
188 214 251
188 214 251
188 214 251
188 214 251
188 214 251
188 214 251
188 214 251
188 214 251
188 214 251
188 214 251
188 214 251
188 214 251
188 214 251
188 214 251
188 214 251
188 214 251
188 214 251
188 214 251
188 214 251
188 214 251
188 214 251
188 214 251
188 214 251
188 214 251
188 214 251
188 214 251
188 214 251
188 214 251
188 214 251
188 214 251
188 214 251
188 214 251
188 214 251
188 214 251
188 214 251
188 214 251
188 214 251
188 214 251
188 214 251
188 214 251
188 214 251
188 214 251
188 214 251
188 214 251
188 214 251
188 214 251
188 214 251
188 214 251
188 214 251
188 214 251
188 214 251
188 214 251
188 214 251
188 214 251
188 214 251
188 214 251
188 214 251
188 214 251
188 214 251
188 214 251
188 214 251
188 214 251
172 190 225
172 190 225
188 214 251
188 214 251
188 214 251
188 214 251
188 214 251
188 214 251
188 214 251
188 214 251
188 214 251
188 214 251
188 214 251
188 214 251
188 214 251
69 184 182
62 173 172
66 178 172
61 162 160
63 165 160
101 140 147
188 214 251
188 214 251
0 0 0
100 117 174
110 133 208
136 164 241
119 152 227
131 161 241
126 147 210
121 156 242
188 214 251
188 214 251
188 214 251
171 197 245
118 142 204
117 152 233
121 154 233
133 158 218
102 120 169
143 171 224
188 214 251
100 114 134
0 0 0
165 188 221
188 214 251
188 214 251
188 214 251
188 214 251
188 214 251
188 214 251
188 214 251
188 214 251
188 214 251
188 214 251
188 214 251
188 214 251
188 214 251
188 214 251
188 214 251
188 214 251
188 214 251
188 214 251
188 214 251
188 214 251
188 214 251
188 214 251
188 214 251
188 214 251
188 214 251
188 214 251
188 214 251
188 214 251
188 214 251
188 214 251
188 214 251
188 214 251
188 214 251
188 214 251
188 214 251
188 214 251
188 214 251
188 214 251
188 214 251
188 214 251
188 214 251
188 214 251
188 214 251
188 214 251
188 214 251
188 214 251
188 214 251
188 214 251
188 214 251
188 214 251
188 214 251
188 214 251
144 165 192
139 174 215
188 214 251
188 214 251
188 214 251
188 214 251
188 214 251
188 214 251
188 214 251
188 214 251
188 214 251
188 214 251
188 214 251
188 214 251
188 214 251
188 214 251
188 214 251
188 214 251
188 214 251
188 214 251
188 214 251
188 214 251
188 214 251
188 214 251
188 214 251
188 214 251
188 214 251
188 214 251
188 214 251
188 214 251
188 214 251
188 214 251
188 214 251
188 214 251
188 214 251
188 214 251
188 214 251
188 214 251
188 214 251
188 214 251
108 158 193
113 160 208
109 154 186
118 157 172
109 158 198
76 101 126
140 174 212
188 214 251
188 214 251
188 214 251
188 214 251
188 214 251
188 214 251
188 214 251
188 214 251
188 214 251
188 214 251
188 214 251
175 206 244
140 190 214
167 203 230
156 196 216
188 214 251
188 214 251
188 214 251
188 214 251
188 214 251
188 214 251
188 214 251
188 214 251
188 214 251
188 214 251
188 214 251
188 214 251
188 214 251
188 214 251
188 214 251
188 214 251
188 214 251
188 214 251
188 214 251
188 214 251
188 214 251
188 214 251
188 214 251
188 214 251
188 214 251
188 214 251
188 214 251
188 214 251
188 214 251
188 214 251
188 214 251
188 214 251
188 214 251
188 214 251
188 214 251
188 214 251
188 214 251
188 214 251
188 214 251
188 214 251
188 214 251
188 214 251
188 214 251
188 214 251
188 214 251
188 214 251
188 214 251
188 214 251
188 214 251
188 214 251
188 214 251
165 188 221
165 188 221
165 188 221
188 214 251
188 214 251
188 214 251
188 214 251
188 214 251
188 214 251
188 214 251
188 214 251
188 214 251
188 214 251
188 214 251
188 214 251
188 214 251
188 214 251
188 214 251
188 214 251
188 214 251
188 214 251
188 214 251
188 214 251
188 214 251
188 214 251
188 214 251
188 214 251
188 214 251
188 214 251
170 190 225
79 51 76
94 58 87
137 156 183
188 214 251
188 214 251
188 214 251
188 214 251
188 214 251
188 214 251
188 214 251
188 214 251
188 214 251
188 214 251
188 214 251
188 214 251
63 135 153
41 131 116
53 153 132
40 102 96
61 159 147
0 0 0
188 214 251
75 90 129
114 144 214
138 168 243
91 118 178
122 148 213
87 110 174
122 146 196
123 157 241
72 88 129
54 71 125
188 214 251
188 214 251
137 156 183
96 112 166
118 139 187
94 110 166
117 141 204
65 78 90
83 103 163
137 156 183
137 156 183
188 214 251
189 215 251
188 214 251
188 214 251
188 214 251
188 214 251
188 214 251
188 214 251
188 214 251
188 214 251
188 214 251
188 214 251
188 214 251
188 214 251
188 214 251
188 214 251
188 214 251
188 214 251
188 214 251
188 214 251
188 214 251
188 214 251
188 214 251
188 214 251
188 214 251
188 214 251
188 214 251
188 214 251
188 214 251
188 214 251
188 214 251
188 214 251
188 214 251
188 214 251
188 214 251
188 214 251
188 214 251
188 214 251
188 214 251
188 214 251
188 214 251
188 214 251
188 214 251
188 214 251
188 214 251
188 214 251
188 214 251
188 214 251
188 214 251
188 214 251
188 214 251
188 214 251
188 214 251
188 214 251
131 154 180
149 179 215
143 174 208
188 214 251
188 214 251
188 214 251
188 214 251
188 214 251
188 214 251
188 214 251
188 214 251
188 214 251
188 214 251
188 214 251
188 214 251
188 214 251
188 214 251
188 214 251
188 214 251
188 214 251
188 214 251
188 214 251
188 214 251
188 214 251
188 214 251
188 214 251
188 214 251
188 214 251
188 214 251
188 215 251
188 214 251
188 214 251
188 214 251
188 214 251
188 215 251
188 215 251
188 215 251
188 215 251
188 215 251
188 215 251
188 215 251
97 147 187
68 116 162
125 177 219
0 0 0
98 135 167
54 83 92
188 215 251
188 215 251
188 215 251
188 215 251
188 215 251
189 215 251
188 215 251
189 215 251
189 215 251
188 215 251
178 209 244
99 138 151
105 141 150
105 140 161
129 170 193
129 168 196
189 215 251
189 215 251
188 215 251
188 215 251
189 215 251
189 215 251
188 215 251
189 215 251
189 215 251
189 215 251
189 215 251
189 215 251
189 215 251
189 215 251
189 215 251
189 215 251
189 215 251
189 215 251
189 215 251
189 215 251
189 215 251
189 215 251
189 215 251
189 215 251
189 215 251
189 215 251
189 215 251
189 215 251
189 215 251
189 215 251
189 215 251
189 215 251
189 215 251
189 215 251
189 215 251
189 215 251
189 215 251
189 215 251
189 215 251
189 215 251
189 215 251
189 215 251
189 215 251
189 215 251
189 215 251
189 215 251
189 215 251
189 215 251
189 215 251
189 215 251
165 188 221
0 0 0
189 215 251
189 215 251
189 215 251
189 215 251
189 215 251
189 215 251
189 215 251
189 215 251
189 215 251
189 215 251
189 215 251
189 215 251
189 215 251
189 215 251
189 215 251
189 215 251
189 215 251
189 215 251
189 215 251
189 215 251
189 215 251
189 215 251
189 215 251
189 215 251
189 215 251
189 215 251
189 215 251
150 160 189
90 39 74
78 38 65
133 126 154
189 215 251
189 215 251
189 215 251
189 215 251
189 215 251
189 215 251
189 215 251
189 215 251
189 215 251
189 215 251
189 215 251
189 215 251
143 178 207
50 130 116
30 85 71
0 0 0
50 130 116
38 123 96
165 188 221
108 138 197
111 142 214
108 127 177
127 155 239
111 138 211
90 112 174
114 140 211
101 120 155
67 86 130
91 114 156
155 181 243
189 215 251
153 173 200
110 124 168
60 70 113
0 0 0
72 81 90
89 106 123
126 142 176
188 214 251
187 214 251
188 214 251
189 215 251
188 215 251
188 215 251
188 215 251
188 215 251
188 215 251
188 214 251
188 215 251
188 215 251
188 215 251
188 214 251
189 215 251
188 214 251
188 214 251
188 215 251
188 215 251
188 214 251
188 215 251
188 214 251
188 214 251
188 214 251
188 215 251
188 214 251
188 214 251
188 215 251
188 214 251
188 215 251
188 214 251
188 215 251
188 214 251
188 214 251
188 214 251
188 214 251
188 214 251
188 214 251
188 214 251
188 214 251
188 214 251
188 214 251
188 214 251
188 214 251
188 214 251
188 214 251
188 214 251
188 214 251
188 214 251
188 214 251
188 214 251
188 214 251
188 214 251
188 214 251
189 215 251
189 215 251
141 159 179
106 125 145
162 184 210
189 215 251
188 215 251
189 215 251
189 215 251
189 215 251
189 215 251
189 215 251
189 215 251
189 215 251
189 215 251
189 215 251
189 215 251
189 215 251
189 215 251
189 215 251
189 215 251
189 215 251
189 215 251
189 215 251
189 215 251
189 215 251
189 215 251
189 215 251
189 215 251
189 215 251
189 215 251
189 215 251
189 215 251
189 215 251
189 215 251
189 215 251
189 215 251
189 215 251
189 215 251
189 215 251
189 215 251
189 215 251
189 215 251
147 177 210
92 147 195
66 98 113
65 96 117
73 99 126
69 97 126
144 186 223
189 215 251
189 215 251
189 215 251
189 215 251
189 215 251
189 215 251
189 215 251
189 215 251
169 206 230
134 184 208
143 192 214
136 188 214
116 163 194
96 135 151
130 184 221
189 215 251
189 215 251
189 215 251
189 215 251
189 215 251
189 215 251
189 215 251
189 215 251
189 215 251
189 215 251
189 215 251
189 215 251
189 215 251
189 215 251
189 215 251
189 215 251
189 215 251
189 215 251
189 215 251
189 215 251
189 215 251
189 215 251
189 215 251
189 215 251
189 215 251
189 215 251
189 215 251
189 215 251
189 215 251
189 215 251
189 215 251
189 215 251
189 215 251
189 215 251
189 215 251
189 215 251
189 215 251
189 215 251
189 215 251
189 215 251
189 215 251
189 215 251
189 215 251
189 215 251
189 215 251
189 215 251
189 215 251
189 215 251
189 215 251
189 215 251
188 214 251
188 214 251
189 215 251
189 215 251
189 215 251
189 215 251
170 187 242
138 130 198
159 172 237
177 200 247
189 215 251
189 215 251
189 215 251
189 215 251
189 215 251
189 215 251
189 215 251
189 215 251
189 215 251
189 215 251
189 215 251
189 215 251
189 215 251
189 215 251
189 215 251
189 215 251
189 215 251
189 215 251
189 215 251
171 190 223
106 62 86
58 35 40
83 49 70
142 157 184
189 215 251
189 215 251
189 215 251
189 215 251
189 215 251
189 215 251
189 215 251
189 215 251
189 215 251
189 215 251
189 215 251
165 188 220
51 135 133
41 133 116
39 101 97
63 161 147
43 106 96
165 188 220
97 121 178
74 109 150
138 168 243
92 118 178
98 121 177
0 0 0
112 138 211
127 151 213
97 118 156
66 86 130
116 137 155
165 188 220
136 156 207
138 160 206
92 116 179
115 132 181
66 83 124
72 92 160
141 157 203
189 215 251
187 214 251
188 214 251
189 215 251
189 215 251
189 215 251
189 215 251
189 215 251
189 215 251
189 215 251
189 215 251
189 215 251
189 215 251
189 215 251
189 215 251
189 215 251
189 215 251
189 215 251
189 215 251
189 215 251
189 215 251
189 215 251
189 215 251
189 215 251
189 215 251
189 215 251
189 215 251
189 215 251
189 215 251
189 215 251
189 215 251
189 215 251
189 215 251
189 215 251
189 215 251
189 215 251
189 215 251
189 215 251
189 215 251
189 215 251
189 215 251
189 215 251
189 215 251
189 215 251
189 215 251
189 215 251
189 215 251
189 215 251
189 215 251
189 215 251
189 215 251
189 215 251
189 215 251
189 215 251
189 215 251
189 215 251
138 156 183
129 149 170
129 150 163
171 198 234
189 215 251
189 215 251
189 215 251
189 215 251
189 215 251
189 215 251
189 215 251
189 215 251
189 215 251
189 215 251
189 215 251
189 215 251
189 215 251
189 215 251
189 215 251
189 215 251
189 215 251
189 215 251
189 215 251
189 215 251
189 215 251
189 215 251
176 208 246
162 200 240
176 208 246
177 208 246
165 188 220
175 208 241
164 203 235
189 215 251
189 215 251
189 215 251
189 215 251
189 215 251
189 215 251
189 215 251
189 215 251
189 215 251
100 114 134
52 87 118
88 131 158
70 98 126
116 173 230
114 162 189
125 164 208
189 215 251
189 215 251
189 215 251
189 215 251
189 215 251
189 215 251
189 215 251
119 161 178
101 138 161
114 162 186
99 137 161
122 166 194
125 168 193
141 190 221
121 144 154
189 215 251
189 215 251
189 215 251
189 215 251
189 215 251
189 215 251
189 215 251
189 215 251
189 215 251
189 215 251
189 215 251
189 215 251
189 215 251
189 215 251
189 215 251
189 215 251
189 215 251
189 215 251
189 215 251
189 215 251
189 215 251
189 215 251
189 215 251
189 215 251
189 215 251
189 215 251
189 215 251
189 215 251
189 215 251
189 215 251
189 215 251
189 215 251
189 215 251
189 215 251
189 215 251
189 215 251
189 215 251
189 215 251
189 215 251
189 215 251
189 215 251
189 215 251
189 215 251
189 215 251
189 215 251
189 215 251
189 215 251
189 215 251
189 215 251
189 215 251
188 214 251
188 215 251
155 167 210
163 173 237
130 128 198
109 101 162
154 150 227
109 102 162
189 215 251
189 215 251
189 215 251
189 215 251
189 215 251
189 215 251
189 215 251
189 215 251
189 215 251
163 158 237
142 37 222
157 117 217
165 158 237
189 215 251
189 215 251
189 215 251
189 215 251
189 215 251
189 215 251
189 215 251
189 215 251
143 159 186
76 46 59
52 17 31
100 114 134
189 215 251
189 215 251
189 215 251
189 215 251
189 215 251
189 215 251
189 215 251
189 215 251
189 215 251
189 215 251
189 215 251
143 192 203
55 158 132
56 150 133
33 88 71
37 130 116
56 145 130
100 114 134
132 157 199
61 83 130
119 147 213
115 137 193
87 116 178
93 118 178
92 113 174
90 110 129
84 111 156
104 132 194
119 146 213
129 150 220
109 141 214
96 120 178
114 138 191
129 152 221
107 125 181
62 71 95
79 90 123
189 215 251
188 214 251
188 214 251
188 214 251
189 215 251
189 215 251
189 215 251
189 215 251
189 215 251
189 215 251
189 215 251
189 215 251
189 215 251
189 215 251
189 215 251
189 215 251
189 215 251
189 215 251
189 215 251
189 215 251
189 215 251
189 215 251
189 215 251
189 215 251
189 215 251
189 215 251
189 215 251
189 215 251
189 215 251
189 215 251
189 215 251
189 215 251
189 215 251
189 215 251
189 215 251
189 215 251
189 215 251
189 215 251
189 215 251
189 215 251
189 215 251
189 215 251
189 215 251
189 215 251
189 215 251
189 215 251
189 215 251
189 215 251
189 215 251
189 215 251
189 215 251
189 215 251
189 215 251
189 215 251
189 215 251
189 215 251
189 215 251
114 126 123
85 92 96
164 189 220
189 215 251
189 215 251
189 215 251
189 215 251
189 215 251
189 215 251
189 215 251
189 215 251
189 215 251
189 215 251
189 215 251
189 215 251
189 215 251
189 215 251
189 215 251
189 215 251
189 215 251
189 215 251
189 215 251
189 215 251
189 215 251
146 192 235
132 186 228
106 158 194
150 195 234
118 165 200
109 160 201
120 166 200
102 156 194
70 99 121
126 183 229
122 148 175
189 215 251
189 215 251
189 215 251
189 215 251
189 215 251
189 215 251
175 206 244
100 114 134
105 151 187
86 128 167
88 130 161
63 94 117
82 126 174
138 157 183
189 215 251
189 215 251
189 215 251
189 215 251
189 215 251
189 215 251
86 108 117
70 98 118
121 166 186
111 161 188
116 163 194
96 132 129
75 96 85
59 87 86
189 215 251
189 215 251
189 215 251
189 215 251
189 215 251
189 215 251
189 215 251
189 215 251
189 215 251
189 215 251
189 215 251
189 215 251
189 215 251
189 215 251
189 215 251
189 215 251
189 215 251
189 215 251
189 215 251
189 215 251
189 215 251
189 215 251
189 215 251
157 176 205
166 188 220
189 215 251
189 215 251
189 215 251
189 215 251
189 215 251
189 215 251
189 215 251
189 215 251
189 215 251
189 215 251
189 215 251
189 215 251
189 215 251
189 215 251
189 215 251
189 215 251
189 215 251
189 215 251
189 215 251
189 215 251
189 215 251
189 215 251
189 215 251
189 215 251
189 215 251
177 196 242
70 78 124
129 135 204
101 100 163
163 146 222
97 94 141
104 89 155
121 108 161
103 116 133
191 216 251
189 215 251
189 215 251
189 215 251
189 215 251
189 215 251
189 215 251
179 189 244
168 118 229
141 37 222
118 32 195
131 33 178
101 20 152
144 37 222
145 37 222
153 38 221
185 189 244
166 158 237
189 215 251
189 215 251
142 157 184
54 17 31
57 18 31
74 48 67
189 215 251
189 215 251
189 215 251
189 215 251
189 215 251
189 215 251
189 215 251
189 215 251
189 215 251
189 215 251
189 215 251
189 215 251
55 137 116
43 119 97
60 155 133
36 97 97
43 105 96
35 96 97
166 188 220
60 78 94
107 126 177
85 109 174
84 85 167
114 140 211
101 125 190
102 130 194
52 70 125
70 88 129
84 107 130
136 160 238
103 124 177
92 118 178
107 121 173
137 159 228
92 110 156
0 0 0
78 89 123
189 215 251
188 214 251
188 214 251
168 192 225
147 168 194
150 170 194
165 191 225
189 215 251
189 215 251
189 215 251
189 215 251
189 215 251
189 215 251
189 215 251
189 215 251
189 215 251
189 215 251
189 215 251
189 215 251
189 215 251
189 215 251
189 215 251
189 215 251
189 215 251
189 215 251
189 215 251
189 215 251
189 215 251
189 215 251
189 215 251
189 215 251
189 215 251
189 215 251
189 215 251
189 215 251
189 215 251
189 215 251
189 215 251
189 215 251
189 215 251
189 215 251
189 215 251
189 215 251
189 215 251
189 215 251
189 215 251
189 215 251
189 215 251
189 215 251
189 215 251
189 215 251
189 215 251
189 215 251
189 215 251
189 215 251
189 215 251
189 215 251
134 150 145
111 123 133
107 125 145
189 215 251
189 215 251
189 215 251
189 215 251
189 215 251
189 215 251
189 215 251
189 215 251
189 215 251
189 215 251
189 215 251
189 215 251
189 215 251
189 215 251
189 215 251
189 215 251
189 215 251
189 215 251
189 215 251
151 197 229
144 191 229
125 182 223
127 184 223
72 100 121
90 133 158
64 96 122
118 178 223
128 184 229
109 159 194
103 156 201
98 137 166
110 160 201
125 182 223
142 189 235
189 215 251
189 215 251
189 215 251
189 215 251
189 215 251
129 166 208
92 127 152
94 132 167
85 123 145
122 176 214
112 156 186
70 99 117
189 215 251
189 215 251
189 215 251
189 215 251
189 215 251
189 215 251
189 215 251
107 141 161
100 139 140
110 161 169
77 104 101
76 103 102
99 133 129
0 0 0
189 215 251
155 183 212
189 215 251
189 215 251
189 215 251
189 215 251
189 215 251
189 215 251
189 215 251
189 215 251
189 215 251
189 215 251
189 215 251
189 215 251
189 215 251
189 215 251
189 215 251
189 215 251
189 215 251
189 215 251
189 215 251
189 215 251
133 144 178
112 114 152
85 81 109
138 157 183
189 215 251
189 215 251
189 215 251
189 215 251
189 215 251
189 215 251
189 215 251
189 215 251
189 215 251
189 215 251
189 215 251
189 215 251
189 215 251
189 215 251
189 215 251
189 215 251
189 215 251
189 215 251
189 215 251
189 215 251
189 215 251
189 215 251
189 215 251
189 215 251
129 139 176
131 119 192
109 110 148
0 0 0
66 61 114
110 91 155
0 0 0
83 84 123
0 0 0
154 173 215
135 152 210
190 215 251
189 215 251
189 215 251
189 215 251
171 158 237
162 118 229
150 38 221
140 35 217
100 26 162
145 29 185
150 38 221
146 37 222
143 37 222
142 37 222
159 39 221
151 38 221
158 117 227
165 158 237
189 215 251
75 48 67
0 0 0
65 35 50
159 163 195
189 215 251
189 215 251
189 215 251
189 215 251
189 215 251
189 215 251
189 215 251
189 215 251
189 215 251
189 215 251
189 215 251
113 193 192
41 103 96
64 165 160
38 99 97
35 125 96
40 102 96
189 215 251
104 137 158
71 114 150
58 76 95
75 90 129
94 110 151
107 130 174
107 129 190
120 143 210
95 111 151
54 71 125
140 163 237
110 135 193
104 125 177
92 115 156
120 147 213
124 156 231
64 84 130
82 107 149
125 142 176
165 188 221
188 214 251
156 176 208
142 166 194
144 167 194
84 92 103
189 215 251
189 215 251
189 215 251
189 215 251
189 215 251
189 215 251
189 215 251
189 215 251
189 215 251
189 215 251
189 215 251
189 215 251
189 215 251
189 215 251
189 215 251
189 215 251
189 215 251
189 215 251
189 215 251
189 215 251
189 215 251
189 215 251
189 215 251
189 215 251
189 215 251
189 215 251
189 215 251
189 215 251
189 215 251
189 215 251
189 215 251
189 215 251
189 215 251
189 215 251
189 215 251
189 215 251
189 215 251
189 215 251
189 215 251
189 215 251
189 215 251
189 215 251
189 215 251
189 215 251
189 215 251
189 215 251
189 215 251
189 215 251
189 215 251
189 215 251
152 174 203
109 122 133
118 147 180
179 204 236
189 215 251
189 215 251
189 215 251
189 215 251
189 215 251
189 215 251
189 215 251
189 215 251
189 215 251
189 215 251
189 215 251
189 215 251
189 215 251
189 215 251
189 215 251
189 215 251
189 215 251
146 177 208
117 178 224
90 129 146
107 155 185
110 160 201
87 131 159
73 96 88
77 104 121
125 182 229
129 184 228
95 135 167
98 137 166
100 154 195
103 157 194
100 138 166
112 161 201
149 179 208
175 207 246
189 215 251
189 215 251
189 215 251
189 215 251
85 128 161
99 145 168
95 134 167
86 129 161
90 129 167
0 0 0
148 178 217
189 215 251
189 215 251
189 215 251
189 215 251
189 215 251
189 215 251
65 90 86
108 142 150
100 139 140
99 138 140
90 124 117
70 99 102
88 132 140
95 131 141
127 169 193
118 146 173
181 212 238
189 215 251
189 215 251
189 215 251
189 215 251
189 215 251
189 215 251
189 215 251
189 215 251
189 215 251
189 215 251
189 215 251
189 215 251
189 215 251
189 215 251
189 215 251
189 215 251
189 215 251
164 179 217
132 131 160
139 136 173
103 100 126
113 106 138
148 167 201
189 215 251
189 215 251
189 215 251
189 215 251
189 215 251
189 215 251
189 215 251
189 215 251
189 215 251
189 215 251
189 215 251
189 215 251
189 215 251
189 215 251
189 215 251
189 215 251
189 215 251
189 215 251
189 215 251
189 215 251
189 215 251
189 215 251
189 215 251
138 157 183
0 0 0
87 69 112
112 105 162
0 0 0
70 62 113
76 65 113
114 104 162
103 101 163
115 105 162
121 123 199
139 157 183
189 215 251
100 114 134
69 19 118
150 38 221
145 35 193
148 36 217
131 35 209
67 19 118
99 26 162
124 32 195
158 39 221
151 38 221
151 38 221
152 38 221
121 32 195
151 38 221
143 37 222
129 33 194
146 160 189
99 61 84
0 0 0
131 123 147
189 215 251
189 215 251
189 215 251
189 215 251
189 215 251
189 215 251
189 215 251
189 215 251
189 215 251
189 215 251
189 215 251
111 173 183
53 137 133
62 160 147
62 163 160
49 126 130
53 133 116
166 188 220
189 215 251
94 101 166
107 123 155
0 0 0
91 109 151
91 112 174
100 117 173
94 113 129
112 139 211
65 80 94
89 111 174
87 112 156
120 147 213
127 127 213
122 148 213
119 144 196
71 88 129
126 149 210
115 140 204
119 138 177
188 214 251
145 167 194
125 146 171
138 160 193
147 161 172
120 121 126
189 215 251
189 215 251
189 215 251
189 215 251
189 215 251
189 215 251
189 215 251
189 215 251
189 215 251
189 215 251
189 215 251
189 215 251
189 215 251
189 215 251
189 215 251
189 215 251
189 215 251
189 215 251
189 215 251
189 215 251
189 215 251
189 215 251
189 215 251
189 215 251
189 215 251
189 215 251
189 215 251
189 215 251
189 215 251
189 215 251
189 215 251
189 215 251
189 215 251
189 215 251
189 215 251
189 215 251
189 215 251
189 215 251
189 215 251
189 215 251
189 215 251
189 215 251
189 215 251
189 215 251
189 215 251
189 215 251
189 215 251
189 215 251
189 215 251
165 190 215
78 89 83
153 169 187
189 215 251
189 215 251
189 215 251
189 215 251
189 215 251
189 215 251
189 215 251
189 215 251
189 215 251
189 215 251
189 215 251
189 215 251
189 215 251
189 215 251
189 215 251
189 215 251
189 215 251
189 215 251
109 161 194
91 134 158
114 159 184
114 163 200
91 129 146
142 193 228
71 100 121
101 139 166
108 159 201
119 178 223
107 158 201
93 134 167
102 156 194
129 185 228
110 160 201
118 178 229
78 125 159
93 134 167
189 215 251
189 215 251
189 215 251
189 215 251
189 215 251
54 88 118
66 95 126
81 105 125
80 125 165
55 89 118
83 122 145
148 178 217
166 188 220
189 215 251
189 215 251
189 215 251
189 215 251
147 175 198
0 0 0
83 106 117
70 100 102
75 103 102
73 102 102
62 88 86
106 141 150
0 0 0
95 131 129
106 157 186
82 108 101
189 215 251
189 215 251
189 215 251
189 215 251
189 215 251
189 215 251
189 215 251
189 215 251
189 215 251
189 215 251
189 215 251
189 215 251
189 215 251
189 215 251
189 215 251
189 215 251
127 129 163
111 114 152
96 94 110
119 114 126
64 68 92
117 109 138
103 100 126
152 169 201
146 157 196
109 113 152
129 131 173
147 145 192
189 215 251
189 215 251
189 215 251
189 215 251
189 215 251
189 215 251
189 215 251
189 215 251
189 215 251
189 215 251
189 215 251
189 215 251
189 215 251
189 215 251
189 215 251
189 215 251
189 215 251
189 215 251
95 89 122
65 61 114
136 118 174
80 82 123
0 0 0
114 115 169
95 97 163
108 112 169
149 147 227
138 143 228
84 16 107
106 111 169
0 0 0
135 34 194
118 29 161
153 38 221
100 26 162
106 27 162
131 32 178
148 38 221
142 37 222
148 38 221
148 37 208
138 37 222
158 39 221
146 37 222
152 38 208
145 37 222
149 38 221
125 32 195
36 12 23
58 7 48
72 39 62
78 59 84
189 215 251
189 215 251
189 215 251
189 215 251
189 215 251
189 215 251
189 215 251
189 215 251
189 215 251
189 215 251
189 215 251
49 152 132
31 18 85
50 147 116
50 130 116
31 86 71
0 0 0
154 177 218
0 0 0
0 0 0
63 79 94
75 111 150
76 91 129
0 0 0
52 70 125
90 110 129
0 0 0
91 117 178
113 139 211
114 144 214
103 124 177
124 149 213
90 112 174
105 132 194
84 105 152
98 118 169
82 97 148
115 136 177
99 106 123
101 120 142
110 110 123
136 136 128
0 0 0
132 146 157
154 176 205
157 177 205
189 215 251
189 215 251
189 215 251
189 215 251
189 215 251
189 215 251
189 215 251
189 215 251
189 215 251
189 215 251
189 215 251
189 215 251
189 215 251
189 215 251
189 215 251
189 215 251
189 215 251
189 215 251
189 215 251
189 215 251
189 215 251
189 215 251
189 215 251
189 215 251
189 215 251
189 215 251
189 215 251
189 215 251
189 215 251
189 215 251
189 215 251
189 215 251
189 215 251
189 215 251
189 215 251
189 215 251
189 215 251
189 215 251
189 215 251
189 215 251
189 215 251
189 215 251
189 215 251
189 215 251
189 215 251
189 215 251
181 205 236
123 143 160
88 100 114
94 115 133
189 215 251
189 215 251
189 215 251
189 215 251
189 215 251
189 215 251
189 215 251
189 215 251
189 215 251
189 215 251
189 215 251
189 215 251
189 215 251
189 215 251
189 215 251
189 215 251
100 114 134
109 160 194
94 134 167
83 107 120
93 130 146
112 176 218
0 0 0
0 0 0
106 155 185
132 184 215
126 180 215
120 179 229
129 185 228
114 176 218
125 182 229
116 174 216
110 160 201
86 130 159
95 135 167
155 184 214
189 215 251
189 215 251
189 215 251
189 215 251
119 142 158
92 144 182
68 91 92
83 126 161
69 91 91
0 0 0
111 158 208
128 181 237
95 133 173
178 209 248
189 215 251
189 215 251
166 189 220
95 132 129
0 0 0
90 128 129
89 110 116
110 143 150
0 0 0
125 170 168
127 170 185
64 96 102
101 134 141
141 188 207
189 215 251
189 215 251
189 215 251
189 215 251
189 215 251
189 215 251
189 215 251
189 215 251
189 215 251
189 215 251
189 215 251
189 215 251
189 215 251
189 215 251
189 215 251
177 198 235
128 131 173
122 117 139
80 84 92
79 74 92
117 115 140
68 69 92
97 87 108
82 76 91
120 127 174
128 131 173
127 121 151
129 131 173
135 132 163
144 154 195
189 215 251
189 215 251
189 215 251
189 215 251
189 215 251
189 215 251
189 215 251
189 215 251
189 215 251
189 215 251
189 215 251
189 215 251
189 215 251
189 215 251
189 215 251
189 215 251
81 83 123
110 104 162
112 114 169
82 83 123
155 157 232
108 112 169
132 136 204
122 132 204
128 134 204
111 114 169
122 131 204
84 16 107
144 37 222
156 39 221
137 36 209
139 34 194
124 25 151
125 25 170
159 34 214
153 38 221
157 38 208
156 38 208
141 34 194
148 38 221
148 38 221
142 37 222
151 38 221
136 36 222
140 34 194
128 32 179
93 38 95
80 50 79
109 70 105
89 59 92
67 52 66
145 159 189
189 215 251
189 215 251
189 215 251
189 215 251
189 215 251
189 215 251
189 215 251
189 215 251
189 215 251
59 156 147
17 94 69
34 89 70
51 125 113
33 85 93
41 103 96
35 87 93
33 94 97
86 120 187
99 116 173
31 82 93
0 0 0
87 106 151
69 82 94
63 76 124
114 144 214
126 158 241
0 0 0
123 149 213
116 132 176
0 0 0
144 172 243
125 161 244
113 143 214
67 83 124
103 120 169
110 128 187
0 0 0
0 0 0
130 137 126
130 118 107
0 0 0
125 116 108
138 146 158
110 124 142
176 190 210
189 215 251
189 215 251
189 215 251
189 215 251
189 215 251
189 215 251
189 215 251
189 215 251
189 215 251
189 215 251
189 215 251
189 215 251
189 215 251
189 215 251
189 215 251
189 215 251
189 215 251
189 215 251
189 215 251
189 215 251
189 215 251
189 215 251
189 215 251
189 215 251
189 215 251
189 215 251
189 215 251
189 215 251
189 215 251
189 215 251
189 215 251
189 215 251
189 215 251
189 215 251
189 215 251
189 215 251
189 215 251
189 215 251
189 215 251
189 215 251
189 215 251
189 215 251
189 215 251
189 215 251
189 215 251
189 215 251
91 101 114
97 116 133
100 122 146
183 206 236
189 215 251
189 215 251
189 215 251
189 215 251
189 215 251
189 215 251
189 215 251
189 215 251
189 215 251
189 215 251
189 215 251
189 215 251
189 215 251
189 215 251
189 215 251
138 190 228
104 141 166
111 161 201
130 185 228
88 131 167
78 104 121
86 131 159
59 93 122
89 131 167
119 166 200
133 184 215
101 155 194
88 131 167
106 156 177
125 179 215
119 165 200
108 159 201
104 141 166
97 137 156
71 100 121
115 144 175
189 215 251
189 215 251
189 215 251
176 205 235
120 163 203
89 131 161
108 155 181
86 127 168
54 88 118
104 154 204
95 133 173
108 150 173
60 92 127
189 215 251
189 215 251
164 201 230
0 0 0
103 137 129
74 102 102
0 0 0
86 130 140
0 0 0
80 104 117
109 143 160
108 143 150
134 175 203
122 166 185
125 168 193
156 184 205
189 215 251
189 215 251
189 215 251
189 215 251
189 215 251
189 215 251
189 215 251
189 215 251
189 215 251
189 215 251
189 215 251
189 215 251
189 215 251
189 215 251
189 215 251
112 126 146
101 97 109
64 64 67
88 90 111
86 79 89
83 85 92
94 96 126
127 123 162
134 133 173
117 117 152
119 127 174
129 126 170
133 133 173
178 199 235
189 215 251
189 215 251
189 215 251
189 215 251
189 215 251
189 215 251
189 215 251
189 215 251
189 215 251
189 215 251
189 215 251
189 215 251
189 215 251
189 215 251
138 157 183
123 132 196
131 136 204
129 126 198
113 114 169
151 153 218
148 154 232
136 138 203
151 155 232
124 132 204
77 81 123
125 133 204
99 24 155
151 38 221
133 33 194
139 34 194
101 25 118
149 33 201
137 33 178
128 33 194
162 39 221
153 38 221
144 37 222
152 38 208
160 39 221
129 32 179
144 37 208
151 38 208
150 38 221
155 38 208
144 37 208
148 36 206
102 63 91
88 53 76
107 68 98
69 45 75
88 59 92
189 215 251
189 215 251
189 215 251
189 215 251
189 215 251
189 215 251
189 215 251
189 215 251
71 186 182
51 173 146
62 163 160
55 155 160
62 163 160
60 156 132
53 137 133
64 166 160
0 0 0
32 83 93
93 112 129
56 75 95
0 0 0
56 76 95
72 84 94
82 94 129
0 0 0
109 137 211
110 135 193
107 131 208
114 137 193
129 161 229
88 113 156
123 146 196
59 77 95
122 146 196
110 137 204
0 0 0
0 0 0
0 0 0
86 88 75
149 138 130
141 135 130
112 110 108
94 97 102
156 173 194
166 177 193
181 201 231
189 215 251
189 215 251
189 215 251
189 215 251
189 215 251
189 215 251
189 215 251
189 215 251
189 215 251
189 215 251
189 215 251
189 215 251
189 215 251
189 215 251
189 215 251
189 215 251
189 215 251
189 215 251
189 215 251
189 215 251
189 215 251
189 215 251
189 215 251
189 215 251
189 215 251
189 215 251
189 215 251
189 215 251
189 215 251
189 215 251
189 215 251
189 215 251
189 215 251
189 215 251
189 215 251
189 215 251
189 215 251
189 215 251
189 215 251
189 215 251
189 215 251
189 215 251
189 215 251
189 215 251
189 215 251
155 176 197
77 88 97
148 170 191
122 143 171
189 215 251
189 215 251
189 215 251
189 215 251
189 215 251
189 215 251
189 215 251
189 215 251
189 215 251
189 215 251
189 215 251
189 215 251
189 215 251
189 215 251
178 209 246
107 157 177
129 184 228
127 171 199
104 157 194
94 132 136
94 136 158
109 156 185
135 188 228
123 168 200
79 105 121
137 190 228
128 179 200
137 190 228
108 159 201
102 139 166
82 125 137
103 153 177
78 104 121
66 97 122
89 131 167
0 0 0
189 215 251
189 215 251
189 215 251
189 215 251
189 215 251
113 160 198
59 85 92
0 0 0
119 175 225
71 98 126
131 181 223
82 121 145
64 94 126
129 167 203
166 189 220
64 96 102
73 100 117
89 110 116
95 136 140
127 170 187
58 93 102
71 99 117
68 97 118
89 132 151
148 194 220
66 96 118
89 131 151
71 99 117
128 171 185
189 215 251
189 215 251
189 215 251
189 215 251
189 215 251
189 215 251
189 215 251
189 215 251
189 215 251
189 215 251
189 215 251
189 215 251
189 215 251
189 215 251
189 215 251
190 215 251
83 85 92
90 83 108
77 83 92
98 95 110
106 101 124
104 107 127
136 132 163
97 97 126
121 118 152
116 124 164
126 126 152
121 119 152
133 144 178
190 215 251
190 215 251
189 215 251
190 215 251
190 215 251
190 215 251
190 215 251
190 215 251
189 215 251
190 215 251
190 215 251
190 215 251
190 215 251
190 215 251
99 98 163
120 118 169
127 132 178
134 137 203
140 150 233
64 71 90
115 126 188
138 148 219
123 118 162
154 156 232
111 113 169
107 83 159
111 114 169
94 19 152
127 32 179
84 23 118
97 25 142
157 38 208
120 32 195
119 31 179
135 36 209
159 38 208
128 34 195
166 40 220
146 37 208
139 35 179
132 33 178
163 39 221
152 38 208
152 38 208
159 39 221
131 32 178
106 52 132
117 71 98
74 47 75
96 59 90
49 34 56
189 215 251
189 215 251
190 215 251
189 215 251
189 215 251
189 215 251
189 215 251
146 202 220
63 165 160
68 183 182
67 177 160
57 142 132
51 135 133
68 170 159
59 159 160
54 135 116
62 160 147
82 94 129
59 74 124
97 94 167
72 89 129
127 151 213
107 126 177
104 121 155
98 116 174
100 116 129
91 112 174
87 112 156
148 174 242
121 153 227
106 122 155
103 121 155
61 83 130
109 139 197
108 130 183
96 112 134
0 0 0
0 0 0
0 0 0
0 0 0
0 0 0
0 0 0
92 96 103
160 175 194
168 179 193
152 167 188
189 215 251
189 215 251
189 215 251
189 215 251
189 215 251
189 215 251
189 215 251
189 215 251
189 215 251
189 215 251
189 215 251
189 215 251
189 215 251
189 215 251
189 215 251
189 215 251
189 215 251
189 215 251
189 215 251
189 215 251
189 215 251
189 215 251
189 215 251
189 215 251
189 215 251
189 215 251
189 215 251
189 215 251
189 215 251
189 215 251
189 215 251
189 215 251
189 215 251
189 215 251
189 215 251
189 215 251
189 215 251
189 215 251
189 215 251
189 215 251
189 215 251
189 215 251
189 215 251
189 215 251
189 215 251
189 215 251
63 82 84
109 137 146
160 184 205
189 215 251
189 215 251
189 215 251
189 215 251
189 215 251
189 215 251
189 215 251
189 215 251
189 215 251
189 215 251
189 215 251
189 215 251
190 215 251
189 215 251
189 215 251
128 168 208
111 157 191
65 96 122
0 0 0
56 85 89
59 87 89
64 90 88
92 133 167
121 167 200
114 162 200
123 178 215
131 183 215
127 181 215
120 166 200
114 162 200
85 129 167
102 140 166
110 157 184
84 129 159
0 0 0
82 106 121
190 215 251
190 215 251
190 215 251
190 215 251
91 130 173
75 119 142
0 0 0
98 136 164
126 175 208
87 125 152
95 129 151
76 121 168
61 92 126
84 128 156
138 157 183
101 139 151
88 129 156
111 144 160
75 96 85
96 131 141
0 0 0
66 90 86
94 131 129
145 180 192
121 159 161
139 189 221
131 171 193
144 189 207
143 189 200
190 215 251
190 215 251
190 215 251
190 215 251
190 215 251
190 215 251
190 215 251
190 215 251
190 215 251
190 215 251
190 215 251
190 215 251
190 215 251
190 215 251
190 215 251
190 215 251
190 215 251
141 146 168
133 143 168
93 84 108
99 98 126
113 115 152
132 129 152
135 131 151
127 119 139
97 97 126
120 124 152
79 84 92
131 116 147
162 178 209
190 215 251
190 215 251
190 215 251
190 215 251
190 215 251
190 215 251
190 215 251
190 215 251
190 215 251
190 215 251
190 215 251
190 215 251
179 201 247
156 158 232
137 136 187
131 133 187
103 107 149
133 136 204
162 160 231
120 131 204
127 134 204
80 82 123
126 112 178
146 136 225
103 75 136
123 106 178
107 80 166
111 27 141
123 26 170
159 39 221
156 39 221
132 33 194
151 37 208
136 34 194
160 39 221
134 36 209
131 32 161
143 37 208
143 37 209
157 39 221
166 40 220
154 38 208
140 36 209
150 37 208
134 36 209
150 35 198
86 40 122
106 67 92
68 46 67
149 160 189
190 215 251
190 215 251
190 215 251
190 215 251
190 215 251
190 215 251
190 215 251
61 137 153
57 145 142
60 151 155
56 153 147
64 162 147
62 138 153
60 158 147
64 166 159
56 150 133
39 100 97
59 74 124
105 122 155
70 88 129
94 116 156
60 77 95
99 119 155
94 114 174
109 128 177
130 153 213
123 149 213
105 137 197
83 95 129
71 84 94
118 141 177
0 0 0
102 123 177
108 127 177
90 112 151
0 0 0
0 0 0
0 0 0
111 119 138
0 0 0
85 88 75
161 171 169
157 170 182
141 156 141
158 171 182
157 169 188
190 215 251
190 215 251
189 215 251
190 215 251
190 215 251
190 215 251
190 215 251
189 215 251
190 215 251
189 215 251
189 215 251
190 215 251
190 215 251
189 215 251
189 215 251
190 215 251
190 215 251
189 215 251
189 215 251
189 215 251
189 215 251
189 215 251
189 215 251
189 215 251
189 215 251
189 215 251
189 215 251
189 215 251
189 215 251
189 215 251
189 215 251
189 215 251
189 215 251
189 215 251
189 215 251
189 215 251
189 215 251
189 215 251
189 215 251
189 215 251
189 215 251
190 215 251
190 215 251
190 215 251
190 215 251
166 189 220
96 104 113
74 86 97
104 124 145
141 175 215
190 215 251
190 215 251
190 215 251
190 215 251
190 215 251
190 215 251
190 215 251
190 215 251
190 215 251
190 215 251
190 215 251
190 215 251
190 215 251
190 215 251
174 207 241
114 160 177
72 100 121
114 160 177
124 169 200
93 130 146
128 184 229
109 160 201
138 190 228
130 180 200
125 170 200
121 164 184
132 184 215
117 164 200
125 179 215
133 185 215
112 161 201
96 138 158
97 133 146
90 132 158
55 84 89
138 157 183
190 215 251
190 215 251
190 215 251
131 168 208
67 90 92
0 0 0
117 162 208
70 97 126
95 129 151
82 126 174
101 137 172
107 156 208
0 0 0
95 136 145
0 0 0
99 138 151
64 89 86
85 107 117
113 155 161
82 105 117
100 134 141
137 172 177
122 166 194
99 133 141
125 165 178
116 159 178
139 184 193
142 191 214
166 189 220
190 215 251
190 215 251
190 215 251
190 215 251
190 215 251
190 215 251
190 215 251
190 215 251
190 215 251
190 215 251
190 215 251
190 215 251
190 215 251
190 215 251
190 215 251
190 215 251
190 215 251
177 198 235
104 105 111
129 127 152
143 136 162
111 112 140
127 123 126
137 133 163
127 119 139
128 127 152
115 114 140
92 92 111
138 157 183
190 215 251
190 215 251
190 215 251
190 215 251
190 215 251
190 215 251
190 215 251
190 215 251
190 215 251
190 215 251
190 215 251
190 215 251
101 114 134
104 107 149
103 110 170
141 140 203
133 136 204
124 130 188
102 107 149
136 138 203
128 134 204
71 78 124
152 145 202
81 78 89
107 80 159
118 23 147
153 38 208
138 32 188
146 37 208
136 33 178
122 31 162
162 39 221
152 37 194
148 37 208
158 39 221
135 35 179
129 32 179
150 37 208
145 36 194
145 36 194
118 30 162
128 33 194
127 32 179
141 35 178
142 34 194
156 38 208
73 46 55
79 48 55
85 55 67
190 215 251
190 215 251
190 215 251
190 215 251
190 215 251
190 215 251
190 215 251
190 215 251
69 183 182
48 131 133
69 184 182
63 161 147
70 182 171
67 174 147
66 176 160
72 161 165
69 181 171
66 174 169
106 126 177
30 81 93
56 76 95
127 151 213
111 135 193
100 119 155
130 152 213
73 89 129
111 135 193
126 150 213
68 81 94
122 148 213
131 165 244
101 130 194
122 146 196
110 139 197
0 0 0
58 74 90
143 175 216
0 0 0
0 0 0
91 95 103
86 93 103
133 152 142
155 165 156
146 153 156
142 151 156
64 78 75
183 206 238
190 215 251
190 215 251
190 215 251
190 215 251
190 215 251
190 215 251
190 215 251
190 215 251
190 215 251
190 215 251
190 215 251
190 215 251
190 215 251
190 215 251
190 215 251
190 215 251
190 215 251
190 215 251
190 215 251
190 215 251
190 215 251
190 215 251
190 215 251
190 215 251
190 215 251
190 215 251
190 215 251
190 215 251
190 215 251
190 215 251
190 215 251
190 215 251
190 215 251
190 215 251
190 215 251
190 215 251
190 215 251
190 215 251
190 215 251
190 215 251
190 215 251
190 215 251
190 215 251
190 215 251
190 215 251
159 178 202
114 129 145
98 122 138
150 180 215
97 125 157
154 181 200
190 215 251
190 215 251
190 215 251
190 215 251
190 215 251
190 215 251
190 215 251
190 215 251
190 215 251
190 215 251
190 215 251
190 215 251
190 215 251
99 133 154
119 160 166
103 140 166
145 194 227
123 168 200
128 171 199
109 157 185
112 167 185
118 162 184
135 188 228
113 170 201
98 137 166
94 131 146
110 157 185
110 157 184
116 160 184
129 182 215
113 162 194
116 163 200
90 130 133
92 133 167
76 103 121
190 215 251
190 215 251
190 215 251
56 89 118
105 149 173
133 180 207
101 137 172
106 140 172
90 123 126
109 154 191
81 105 125
114 158 181
63 88 92
0 0 0
76 102 117
90 128 141
123 164 178
107 141 161
81 100 85
110 143 160
135 171 177
103 139 161
123 164 178
97 133 129
124 170 161
103 137 129
100 129 117
108 149 141
190 215 251
190 215 251
190 215 251
190 215 251
190 215 251
190 215 251
190 215 251
190 215 251
190 215 251
190 215 251
190 215 251
190 215 251
190 215 251
190 215 251
190 215 251
190 215 251
190 215 251
190 215 251
173 196 228
115 114 133
137 133 163
116 114 140
126 126 152
116 112 126
136 132 163
113 113 140
131 128 152
114 113 140
96 94 111
78 60 84
190 215 251
190 215 251
190 215 251
190 215 251
190 215 251
190 215 251
190 215 251
190 215 251
190 215 251
190 215 251
190 215 251
190 215 251
162 176 215
151 153 218
131 131 169
105 108 149
142 147 204
84 84 123
116 126 188
113 123 170
157 156 218
119 123 148
136 115 195
115 84 159
123 119 168
86 85 123
134 32 189
152 38 221
160 38 193
157 39 221
143 34 194
142 34 178
147 37 208
158 38 193
157 38 208
156 39 221
133 36 209
134 33 178
142 36 208
151 38 221
142 36 208
137 33 178
132 33 194
153 37 194
144 37 208
154 38 208
107 27 162
69 45 56
73 46 55
105 115 135
190 215 251
190 215 251
190 215 251
190 215 251
190 215 251
190 215 251
190 215 251
38 99 97
0 0 0
58 153 133
57 152 133
78 194 181
54 127 140
72 182 159
63 160 157
70 185 182
53 132 130
45 116 127
0 0 0
84 107 130
101 123 177
134 155 212
89 110 129
116 142 196
109 127 177
125 147 196
105 104 199
82 95 129
61 83 130
145 170 228
97 117 155
92 118 178
103 130 156
63 84 130
113 132 157
190 215 251
190 215 251
0 0 0
124 128 123
72 78 99
73 82 75
100 112 103
157 168 170
135 145 141
119 117 105
166 189 220
190 215 251
190 215 251
190 215 251
190 215 251
190 215 251
190 215 251
190 215 251
190 215 251
190 215 251
190 215 251
190 215 251
190 215 251
190 215 251
190 215 251
190 215 251
190 215 251
190 215 251
190 215 251
190 215 251
190 215 251
190 215 251
190 215 251
190 215 251
190 215 251
190 215 251
190 215 251
190 215 251
190 215 251
190 215 251
190 215 251
190 215 251
190 215 251
190 215 251
190 215 251
190 215 251
190 215 251
190 215 251
190 215 251
190 215 251
190 215 251
190 215 251
190 215 251
190 215 251
190 215 251
190 215 251
152 170 191
127 150 157
154 180 196
144 161 179
103 123 146
0 0 0
190 215 251
190 215 251
190 215 251
190 215 251
190 215 251
190 215 251
190 215 251
190 215 251
190 215 251
190 215 251
190 215 251
190 215 251
190 215 251
149 176 199
61 94 122
120 163 184
100 135 145
129 180 200
0 0 0
137 187 214
103 140 166
0 0 0
81 119 122
99 134 145
94 131 146
122 169 210
123 168 200
122 167 200
109 157 184
107 155 185
119 167 193
95 132 146
93 134 167
87 123 121
156 196 235
190 215 251
190 215 251
190 215 251
155 183 216
84 107 125
81 124 168
110 155 186
69 92 91
0 0 0
84 119 126
67 96 126
118 161 181
86 125 139
190 215 251
63 89 86
111 154 161
111 140 140
86 122 118
129 167 178
0 0 0
105 140 161
130 171 193
96 131 141
95 130 141
122 160 161
79 103 117
95 127 117
124 150 172
190 215 251
190 215 251
190 215 251
190 215 251
190 215 251
190 215 251
190 215 251
190 215 251
190 215 251
190 215 251
190 215 251
190 215 251
190 215 251
190 215 251
190 215 251
190 215 251
190 215 251
190 215 251
190 215 251
132 129 152
113 111 126
117 115 140
105 107 126
123 123 140
130 122 151
112 117 127
119 116 139
117 113 126
75 72 92
88 93 127
88 81 109
138 157 183
190 215 251
190 215 251
190 215 251
190 215 251
190 215 251
190 215 251
190 215 251
190 215 251
190 215 251
190 215 251
168 185 229
99 106 136
142 138 187
106 108 148
138 139 203
140 138 186
110 107 123
101 103 123
132 110 178
106 108 148
159 139 210
108 87 159
87 17 107
111 90 159
118 26 154
149 35 203
142 34 194
114 27 141
115 31 179
153 38 221
135 35 179
155 38 208
139 34 194
148 36 178
133 32 161
125 31 161
136 33 178
151 35 193
140 34 178
150 36 178
148 38 221
117 30 162
149 37 208
105 26 142
165 160 201
0 0 0
38 12 23
92 58 76
190 215 251
190 215 251
190 215 251
190 215 251
190 215 251
190 215 251
190 215 251
190 215 251
55 123 125
58 149 116
72 182 159
51 128 96
49 126 97
76 192 182
62 158 132
59 132 140
72 183 159
120 140 193
82 94 129
106 92 166
110 137 177
111 128 177
119 144 196
100 122 177
103 124 177
84 95 128
119 143 210
104 120 173
107 135 178
71 88 129
121 143 210
0 0 0
119 144 196
68 87 130
167 189 220
190 215 251
190 215 251
189 215 251
189 215 251
117 135 150
109 117 103
148 159 141
96 110 103
86 88 75
143 157 141
122 127 123
190 215 251
190 215 251
190 215 251
190 215 251
190 215 251
190 215 251
190 215 251
190 215 251
190 215 251
190 215 251
190 215 251
190 215 251
190 215 251
190 215 251
190 215 251
190 215 251
190 215 251
190 215 251
190 215 251
190 215 251
190 215 251
190 215 251
190 215 251
190 215 251
190 215 251
190 215 251
190 215 251
190 215 251
190 215 251
190 215 251
190 215 251
190 215 251
190 215 251
190 215 251
190 215 251
190 215 251
190 215 251
190 215 251
190 215 251
190 215 251
190 215 251
190 215 251
190 215 251
190 215 251
190 215 251
167 189 220
126 149 157
0 0 0
136 154 156
121 146 157
164 193 223
190 215 251
190 215 251
190 215 251
190 215 251
190 215 251
190 215 251
190 215 251
190 215 251
190 215 251
190 215 251
190 215 251
190 215 251
190 215 251
130 169 208
76 116 122
107 149 146
99 137 166
102 149 167
102 139 166
118 165 193
143 193 228
116 161 184
136 189 228
134 183 200
83 124 147
131 173 199
119 143 192
113 159 184
128 181 215
104 141 166
73 101 121
96 136 166
112 159 175
0 0 0
150 177 199
190 215 251
190 215 251
190 215 251
190 215 251
110 139 173
61 87 92
51 87 114
93 128 152
83 119 126
90 127 152
88 121 126
68 97 126
87 121 126
146 174 201
106 154 162
104 150 153
92 129 141
72 94 85
115 153 141
96 127 117
120 159 161
102 149 151
118 161 178
101 134 141
127 155 172
105 137 141
0 0 0
127 151 172
190 215 251
190 215 251
190 215 251
190 215 251
190 215 251
190 215 251
190 215 251
190 215 251
190 215 251
190 215 251
190 215 251
190 215 251
190 215 251
190 215 251
190 215 251
190 215 251
190 215 251
190 215 251
190 215 251
112 126 146
107 108 126
123 123 140
108 109 126
67 65 67
103 104 111
129 126 139
102 104 111
129 128 152
108 100 108
70 67 67
70 70 92
111 112 140
139 157 183
167 189 220
190 215 251
190 215 251
190 215 251
190 215 251
190 215 251
190 215 251
190 215 251
190 215 251
190 215 251
67 72 90
139 137 187
114 112 148
144 139 186
155 155 218
139 137 187
137 143 187
102 106 149
106 109 148
111 111 148
67 15 108
134 111 178
80 78 89
134 32 161
140 34 178
122 31 179
105 26 142
106 26 141
122 31 179
125 29 160
121 31 161
126 32 179
142 36 194
109 27 141
154 38 208
140 36 194
157 38 208
119 31 179
111 28 161
143 36 194
117 30 162
123 31 161
151 37 178
190 215 251
0 0 0
67 44 56
49 30 51
173 191 223
190 215 251
190 215 251
190 215 251
190 215 251
190 215 251
190 215 251
190 215 251
104 138 148
52 133 116
53 134 116
62 160 147
65 175 160
68 177 160
33 89 71
51 131 116
50 128 130
0 0 0
75 86 94
78 92 129
107 135 178
85 111 156
101 92 166
111 134 155
104 122 155
115 139 177
103 124 177
117 140 177
123 146 196
68 82 94
67 81 94
134 152 195
102 128 174
153 174 201
190 215 251
190 215 251
190 215 251
190 215 251
189 215 251
189 215 251
167 189 220
179 202 230
121 131 126
126 131 128
93 85 78
144 136 130
115 111 108
190 215 251
190 215 251
190 215 251
190 215 251
190 215 251
190 215 251
190 215 251
190 215 251
190 215 251
190 215 251
190 215 251
190 215 251
190 215 251
190 215 251
190 215 251
190 215 251
190 215 251
190 215 251
190 215 251
190 215 251
190 215 251
190 215 251
190 215 251
190 215 251
190 215 251
190 215 251
190 215 251
190 215 251
190 215 251
190 215 251
190 215 251
190 215 251
190 215 251
190 215 251
190 215 251
190 215 251
190 215 251
190 215 251
190 215 251
190 215 251
190 215 251
190 215 251
190 215 251
190 215 251
190 215 251
114 140 138
73 87 83
0 0 0
99 119 114
190 215 251
190 215 251
190 215 251
190 215 251
190 215 251
190 215 251
190 215 251
190 215 251
190 215 251
190 215 251
190 215 251
190 215 251
190 215 251
190 215 251
161 199 235
118 159 166
113 159 177
110 154 166
90 129 146
127 170 200
111 154 166
103 140 166
124 168 200
121 172 184
106 154 185
107 149 146
87 127 146
85 126 146
131 178 184
101 149 167
0 0 0
0 0 0
117 166 193
85 129 167
82 128 159
111 141 168
190 215 251
190 215 251
190 215 251
190 215 251
101 115 134
86 120 126
95 140 152
116 164 173
127 176 203
64 89 92
86 120 126
69 91 91
61 86 92
136 169 196
118 146 168
69 92 85
101 134 141
125 162 160
89 110 116
117 157 161
129 167 178
65 90 86
90 124 117
122 157 141
134 170 177
115 146 160
72 94 85
190 215 251
190 215 251
190 215 251
190 216 251
190 215 251
190 215 251
190 216 251
190 216 251
190 216 251
190 216 251
190 216 251
190 215 251
190 215 251
190 215 251
190 215 251
190 215 251
190 215 251
190 216 251
190 215 251
190 216 251
190 215 251
148 153 168
129 122 151
112 116 127
121 120 126
113 111 126
98 95 110
102 104 111
96 94 111
0 0 0
62 63 67
66 65 67
86 78 89
81 75 91
71 71 92
190 216 251
190 216 251
190 216 251
190 215 251
190 216 251
190 216 251
190 216 251
190 216 251
190 215 251
122 127 169
131 125 185
150 149 187
144 148 203
87 86 123
125 128 169
130 121 162
93 88 123
132 140 188
83 79 89
0 0 0
117 114 148
68 72 90
116 26 154
126 31 161
144 36 194
144 36 178
162 39 221
117 28 161
144 37 208
140 35 179
142 36 194
140 35 179
137 35 194
151 37 208
141 36 194
149 37 194
158 39 221
141 36 209
138 34 194
149 37 208
141 35 178
134 32 161
190 216 251
167 189 220
55 34 40
0 0 0
145 160 189
190 216 251
190 215 251
190 215 251
190 216 251
190 215 251
190 216 251
190 215 251
190 215 251
61 156 132
43 110 110
72 183 159
47 123 97
54 135 116
64 171 147
63 158 132
62 79 94
0 0 0
124 123 186
0 0 0
82 106 130
99 119 155
0 0 0
83 107 130
65 80 94
100 119 155
117 146 214
122 146 196
72 84 94
62 79 94
85 107 130
83 95 129
109 127 177
167 189 220
190 215 251
190 215 251
190 215 251
190 215 251
189 215 251
189 215 251
190 215 251
190 215 251
167 189 220
82 80 79
92 85 78
121 118 105
128 133 141
184 206 238
190 215 251
190 215 251
190 215 251
190 215 251
190 215 251
190 215 251
190 215 251
190 215 251
190 215 251
190 215 251
190 215 251
190 215 251
190 215 251
190 215 251
190 215 251
190 215 251
190 215 251
190 215 251
190 215 251
190 215 251
190 215 251
190 215 251
190 215 251
190 215 251
190 215 251
190 215 251
190 215 251
190 215 251
190 215 251
190 215 251
190 215 251
190 215 251
190 215 251
190 215 251
190 215 251
190 215 251
190 215 251
190 215 251
190 215 251
190 215 251
190 215 251
190 215 251
190 215 251
190 215 251
190 215 251
125 142 153
103 120 124
107 122 124
158 177 202
190 215 251
190 215 251
190 215 251
190 215 251
190 215 251
190 215 251
190 215 251
190 215 251
190 215 251
190 216 251
190 215 251
190 216 251
190 215 251
174 207 241
103 140 166
75 120 137
89 124 121
132 181 200
90 128 146
121 164 184
129 177 184
102 136 145
134 183 200
70 99 121
115 160 184
130 180 200
122 164 184
93 130 146
87 127 146
142 190 214
102 136 145
137 187 214
92 126 121
0 0 0
59 87 89
190 216 251
190 216 251
190 216 251
190 216 251
190 216 251
150 176 201
79 120 145
129 161 178
95 130 151
94 125 126
68 98 117
73 120 162
61 87 92
68 98 117
167 189 220
125 147 154
120 159 161
123 158 141
110 140 140
126 162 160
131 180 186
117 154 141
100 129 117
64 90 86
85 121 118
0 0 0
124 150 172
190 216 251
190 216 251
190 216 251
190 216 251
190 216 251
190 216 251
190 216 251
190 216 251
190 216 251
190 216 251
190 216 251
190 216 251
190 216 251
190 216 251
190 216 251
190 216 251
190 216 251
190 216 251
190 216 251
190 216 251
190 216 251
190 216 251
190 216 251
161 176 201
147 153 168
137 143 158
155 170 201
150 167 192
93 92 111
0 0 0
86 87 92
83 88 111
64 68 92
88 93 127
190 216 251
190 216 251
190 216 251
190 216 251
190 216 251
190 216 251
190 216 251
190 216 251
190 216 251
190 216 251
153 167 210
116 107 160
92 92 141
138 148 205
111 114 169
117 122 149
132 131 169
80 82 123
69 73 90
72 74 90
0 0 0
117 114 148
90 87 123
101 74 120
155 38 208
133 33 178
126 31 161
142 35 178
130 34 162
135 33 178
103 26 142
144 36 178
146 36 178
150 37 208
126 30 160
127 32 161
147 36 178
112 30 162
146 36 178
146 36 194
115 30 142
123 31 161
147 36 178
190 216 251
167 189 220
74 48 67
99 68 91
59 37 55
176 192 225
190 216 251
190 216 251
190 216 251
190 216 251
190 216 251
190 216 251
190 216 251
171 211 236
168 203 229
46 122 97
65 164 146
69 174 132
30 85 71
40 115 97
62 75 124
0 0 0
0 0 0
79 122 155
110 134 155
78 92 129
109 136 178
84 105 152
81 94 129
126 150 213
120 142 177
0 0 0
128 156 196
114 141 196
101 120 155
95 116 155
94 114 174
190 216 251
190 216 251
190 216 251
190 216 251
190 216 251
189 215 251
189 215 251
190 215 251
191 216 251
190 216 251
101 115 134
67 79 75
96 87 78
85 82 79
190 216 251
190 216 251
190 216 251
190 216 251
190 216 251
190 216 251
190 216 251
190 215 251
190 215 251
190 215 251
190 216 251
190 216 251
190 215 251
190 215 251
190 215 251
190 215 251
190 215 251
190 215 251
190 215 251
190 215 251
190 216 251
190 215 251
190 215 251
190 215 251
190 215 251
190 215 251
190 215 251
190 215 251
190 215 251
190 215 251
190 215 251
190 215 251
190 215 251
190 215 251
190 215 251
190 215 251
190 215 251
190 215 251
190 215 251
190 215 251
190 216 251
190 216 251
190 216 251
190 216 251
190 216 251
190 216 251
190 216 251
101 119 114
81 90 97
107 139 157
190 216 251
190 216 251
190 216 251
190 216 251
190 216 251
190 216 251
190 216 251
190 216 251
190 216 251
190 216 251
190 216 251
190 216 251
190 216 251
190 216 251
111 145 165
84 125 137
55 91 110
0 0 0
113 159 184
104 151 167
119 174 201
107 152 166
108 153 166
106 152 167
104 147 146
124 174 184
119 168 166
82 120 122
70 99 121
81 119 122
112 155 166
86 122 121
116 155 145
0 0 0
81 106 121
190 216 251
190 216 251
190 216 251
190 216 251
190 216 251
190 216 251
190 216 251
190 216 251
190 216 251
125 150 178
51 86 118
0 0 0
0 0 0
103 139 161
73 100 126
178 206 234
149 176 198
68 91 85
95 126 117
0 0 0
0 0 0
138 181 178
120 145 138
79 98 85
65 90 86
65 90 86
128 167 178
139 157 183
190 216 251
190 216 251
190 216 251
190 216 251
190 216 251
190 216 251
190 216 251
190 216 251
190 216 251
190 216 251
190 216 251
190 216 251
190 216 251
190 216 251
190 216 251
190 216 251
190 216 251
190 216 251
190 216 251
190 216 251
190 216 251
190 216 251
190 216 251
190 216 251
190 216 251
190 216 251
190 216 251
190 216 251
58 61 67
54 60 67
89 83 108
117 115 140
108 102 126
178 198 228
190 216 251
190 216 251
190 216 251
190 216 251
190 216 251
190 216 251
190 216 251
190 216 251
190 216 251
190 216 251
121 128 170
0 0 0
94 92 141
89 97 124
119 123 148
121 124 148
78 77 90
134 122 179
82 79 89
118 122 148
84 96 124
0 0 0
72 74 90
157 38 208
148 37 208
111 29 142
140 36 194
142 35 178
120 31 179
152 37 194
138 33 178
163 39 207
93 25 142
139 33 178
135 33 178
152 37 178
116 28 161
142 35 178
148 37 194
149 37 208
166 39 207
105 26 141
167 159 225
190 216 251
119 121 142
0 0 0
73 46 55
167 189 220
190 216 251
190 216 251
190 216 251
190 216 251
190 216 251
190 216 251
190 216 251
190 216 251
190 216 251
31 86 71
0 0 0
0 0 0
32 119 96
53 137 133
52 131 130
106 126 177
0 0 0
0 0 0
109 136 178
93 112 129
106 123 155
95 115 174
68 82 94
80 93 129
103 124 177
63 79 94
68 82 94
0 0 0
125 150 213
79 102 152
127 145 190
190 216 251
190 216 251
190 216 251
190 216 251
190 216 251
189 215 251
189 215 251
190 215 251
191 216 251
190 216 251
190 216 251
167 189 220
167 189 220
190 216 251
190 216 251
190 216 251
190 216 251
190 216 251
190 216 251
190 216 251
190 216 251
190 216 251
190 216 251
190 216 251
190 216 251
190 216 251
190 216 251
190 216 251
190 216 251
190 216 251
190 216 251
190 216 251
190 216 251
190 216 251
190 216 251
190 216 251
190 216 251
190 216 251
190 216 251
190 216 251
190 216 251
190 216 251
190 216 251
190 216 251
190 216 251
190 216 251
190 216 251
190 216 251
190 215 251
190 216 251
190 216 251
190 216 251
190 216 251
190 216 251
190 216 251
190 216 251
190 216 251
190 216 251
190 216 251
190 216 251
190 216 251
143 162 183
63 81 97
76 88 83
190 216 251
190 216 251
190 216 251
190 216 251
190 216 251
190 216 251
190 216 251
190 216 251
190 216 251
190 216 251
190 216 251
190 216 251
190 216 251
190 216 251
190 216 251
86 122 121
101 136 145
105 138 145
122 162 166
98 133 146
106 149 146
69 99 121
101 135 145
93 131 146
98 143 146
86 122 121
70 94 88
96 132 146
82 106 121
89 124 121
98 133 146
66 91 88
104 150 159
66 91 88
0 0 0
190 216 251
190 216 251
190 216 251
190 216 251
190 216 251
190 216 251
190 216 251
190 216 251
190 216 251
177 205 235
83 123 145
68 99 113
49 85 118
63 94 117
0 0 0
118 146 172
190 216 251
167 189 220
125 150 172
157 181 198
116 153 141
70 93 85
103 131 117
108 149 141
79 98 85
96 131 141
75 96 85
153 182 205
190 216 251
190 216 251
190 216 251
190 216 251
190 216 251
190 216 251
190 216 251
190 216 251
190 216 251
190 216 251
190 216 251
190 216 251
190 216 251
190 216 251
190 216 251
190 216 251
190 216 251
190 216 251
190 216 251
190 216 251
190 216 251
190 216 251
190 216 251
190 216 251
190 216 251
190 216 251
190 216 251
190 216 251
190 216 251
149 166 192
105 105 111
89 91 111
167 189 220
190 216 251
190 216 251
190 216 251
190 216 251
190 216 251
190 216 251
190 216 251
190 216 251
190 216 251
190 216 251
190 216 251
190 216 251
117 113 148
0 0 0
121 118 169
127 126 148
148 148 187
103 104 123
127 136 170
70 73 90
66 72 90
0 0 0
89 70 112
0 0 0
121 72 157
139 33 178
136 35 179
145 36 178
103 26 141
144 35 161
127 32 179
146 36 194
136 35 179
140 36 194
111 29 142
147 35 193
87 24 118
123 31 161
135 32 161
123 31 161
110 27 141
95 24 118
81 19 85
179 190 244
190 216 251
149 157 188
65 39 55
55 34 40
117 119 142
190 216 251
190 216 251
190 216 251
190 216 251
190 216 251
190 216 251
190 216 251
190 216 251
190 216 251
106 146 160
33 88 71
48 124 97
40 128 96
52 136 133
0 0 0
105 141 148
59 77 95
0 0 0
69 82 94
95 116 156
111 129 177
81 94 129
95 117 156
74 85 94
96 117 155
111 135 193
67 81 94
89 108 151
0 0 0
108 131 174
64 74 118
183 207 249
190 216 251
190 216 251
190 216 251
190 216 251
190 215 251
189 215 251
190 215 251
191 216 251
190 216 251
190 216 251
190 216 251
190 216 251
190 216 251
190 216 251
190 216 251
190 216 251
190 216 251
190 216 251
190 216 251
190 216 251
190 216 251
190 216 251
190 216 251
190 216 251
190 216 251
190 216 251
190 216 251
190 216 251
190 216 251
190 216 251
190 216 251
190 216 251
190 216 251
190 216 251
190 216 251
190 216 251
190 216 251
190 216 251
190 216 251
190 216 251
190 216 251
190 216 251
190 216 251
190 216 251
190 216 251
190 216 251
190 216 251
190 216 251
190 216 251
190 216 251
190 216 251
190 216 251
190 216 251
190 216 251
190 216 251
190 216 251
190 216 251
190 216 251
190 216 251
190 216 251
101 115 134
115 125 132
94 115 124
147 167 191
190 216 251
190 216 251
190 216 251
190 216 251
190 216 251
190 216 251
190 216 251
190 216 251
190 216 251
190 216 251
190 216 251
190 216 251
190 216 251
190 216 251
190 216 251
89 124 121
111 145 165
129 169 183
118 159 166
83 120 122
81 119 122
108 153 166
81 119 122
101 135 145
96 146 159
109 157 177
57 85 89
112 155 166
93 141 147
56 85 89
78 122 137
0 0 0
59 87 89
190 216 251
190 216 251
190 216 251
190 216 251
190 216 251
190 216 251
190 216 251
190 216 251
190 216 251
190 216 251
190 216 251
116 140 158
79 116 126
0 0 0
0 0 0
58 91 118
82 105 125
86 127 168
191 216 251
191 216 251
191 216 251
111 140 140
72 101 102
103 146 141
65 90 86
0 0 0
74 102 102
98 128 117
95 134 151
191 216 251
191 216 251
191 216 251
191 216 251
191 216 251
191 216 251
191 216 251
191 216 251
191 216 251
191 216 251
191 216 251
191 216 251
191 216 251
191 216 251
191 216 251
191 216 251
191 216 251
191 216 251
191 216 251
191 216 251
191 216 251
191 216 251
191 216 251
191 216 251
191 216 251
191 216 251
191 216 251
191 216 251
191 216 251
191 216 251
182 200 234
167 189 220
191 216 251
191 216 251
191 216 251
191 216 251
191 216 251
191 216 251
191 216 251
191 216 251
191 216 251
191 216 251
191 216 251
191 216 251
191 216 251
167 189 220
135 141 176
98 101 123
71 74 90
80 78 90
87 86 123
127 127 148
0 0 0
98 101 123
74 70 113
0 0 0
88 69 112
108 97 140
136 116 173
130 32 161
105 26 141
93 24 118
152 38 208
110 29 142
119 31 162
143 36 178
133 33 178
122 30 141
137 34 161
136 33 178
116 30 142
146 36 178
133 34 161
103 26 142
90 24 118
0 0 0
191 216 251
191 216 251
191 216 251
94 54 78
59 33 57
191 216 251
191 216 251
191 216 251
191 216 251
191 216 251
191 216 251
191 216 251
191 216 251
191 216 251
191 216 251
167 189 220
0 0 0
53 147 133
51 131 116
43 105 96
0 0 0
191 216 251
177 201 247
100 119 155
58 77 95
0 0 0
61 78 94
97 114 129
102 120 155
87 109 129
58 76 95
69 82 94
90 110 129
125 152 177
75 80 99
0 0 0
0 0 0
120 135 173
190 216 251
190 216 251
190 216 251
190 216 251
190 215 251
101 114 134
101 114 134
139 157 183
190 216 251
190 216 251
190 216 251
190 216 251
190 216 251
190 216 251
190 216 251
190 216 251
190 216 251
190 216 251
190 216 251
190 216 251
190 216 251
190 216 251
190 216 251
190 216 251
190 216 251
190 216 251
190 216 251
190 216 251
190 216 251
190 216 251
190 216 251
190 216 251
190 216 251
190 216 251
190 216 251
190 216 251
190 216 251
190 216 251
190 216 251
190 216 251
190 216 251
190 216 251
190 216 251
190 216 251
190 216 251
190 216 251
190 216 251
190 216 251
190 216 251
190 216 251
190 216 251
190 216 251
190 216 251
190 216 251
190 216 251
190 216 251
190 216 251
190 216 251
190 216 251
190 216 251
176 199 222
74 87 83
116 140 153
124 140 160
190 216 251
190 216 251
190 216 251
190 216 251
190 216 251
190 216 251
191 216 251
191 216 251
190 216 251
190 216 251
191 216 251
191 216 251
191 216 251
191 216 251
191 216 251
151 178 199
117 158 166
105 152 158
116 158 166
74 102 121
117 171 177
119 168 166
109 153 166
115 157 166
120 171 184
66 91 88
92 140 147
64 90 88
94 127 121
59 94 109
55 84 89
0 0 0
101 115 134
191 216 251
191 216 251
191 216 251
191 216 251
191 216 251
191 216 251
191 216 251
191 216 251
191 216 251
191 216 251
191 216 251
167 189 220
117 159 186
58 91 118
61 92 118
0 0 0
89 122 126
86 128 173
178 208 244
191 216 251
191 216 251
179 209 244
114 159 160
134 172 168
64 96 102
0 0 0
105 138 128
0 0 0
0 0 0
191 216 251
191 216 251
191 216 251
191 216 251
191 216 251
191 216 251
191 216 251
191 216 251
191 216 251
191 216 251
191 216 251
191 216 251
191 216 251
191 216 251
191 216 251
191 216 251
191 216 251
191 216 251
191 216 251
191 216 251
191 216 251
191 216 251
191 216 251
191 216 251
191 216 251
191 216 251
191 216 251
191 216 251
191 216 251
191 216 251
191 216 251
191 216 251
191 216 251
191 216 251
191 216 251
191 216 251
191 216 251
191 216 251
191 216 251
191 216 251
191 216 251
191 216 251
191 216 251
191 216 251
191 216 251
191 216 251
191 216 251
191 216 251
157 172 200
126 135 156
0 0 0
0 0 0
0 0 0
79 66 113
0 0 0
0 0 0
101 87 155
0 0 0
178 190 233
128 31 141
149 36 161
100 25 118
164 39 221
146 36 194
138 34 161
138 35 179
151 36 178
107 29 142
147 36 178
120 31 161
101 25 118
101 25 118
74 18 86
146 36 194
117 28 161
191 216 251
191 216 251
191 216 251
191 216 251
191 216 251
191 216 251
191 216 251
191 216 251
191 216 251
191 216 251
191 216 251
191 216 251
191 216 251
191 216 251
191 216 251
191 216 251
139 157 183
56 150 133
29 84 71
62 161 147
55 139 132
40 102 96
139 157 183
191 216 251
191 216 251
150 173 202
89 110 129
89 110 129
99 119 155
95 117 155
72 84 94
60 78 94
80 93 129
71 84 94
94 108 170
92 111 129
96 117 156
68 86 130
0 0 0
167 189 220
191 216 251
191 216 251
191 216 251
191 216 251
167 189 220
139 157 183
191 216 251
191 216 251
191 216 251
191 216 251
191 216 251
191 216 251
191 216 251
191 216 251
191 216 251
191 216 251
191 216 251
191 216 251
191 216 251
191 216 251
191 216 251
191 216 251
191 216 251
191 216 251
191 216 251
191 216 251
191 216 251
191 216 251
191 216 251
191 216 251
191 216 251
191 216 251
191 216 251
191 216 251
191 216 251
190 216 251
190 216 251
191 216 251
190 216 251
190 216 251
190 216 251
190 216 251
190 216 251
190 216 251
190 216 251
190 216 251
190 216 251
190 216 251
190 216 251
190 216 251
190 216 251
190 216 251
191 216 251
191 216 251
191 216 251
191 216 251
191 216 251
191 216 251
191 216 251
191 216 251
120 139 153
125 144 153
109 127 145
191 216 251
191 216 251
191 216 251
191 216 251
191 216 251
191 216 251
191 216 251
191 216 251
191 216 251
191 216 251
191 216 251
191 216 251
191 216 251
191 216 251
191 216 251
191 216 251
118 143 156
105 151 167
114 165 167
89 124 121
94 127 121
115 166 167
85 121 121
57 86 89
65 90 88
100 145 146
69 93 88
61 88 89
89 124 121
87 128 136
0 0 0
167 189 220
191 216 251
191 216 251
191 216 251
191 216 251
191 216 251
191 216 251
191 216 251
191 216 251
191 216 251
191 216 251
191 216 251
191 216 251
191 216 251
151 192 222
62 87 92
62 87 92
99 148 181
92 133 156
64 89 92
150 179 212
191 216 251
191 216 251
191 216 251
123 165 169
61 87 86
64 96 102
0 0 0
96 127 117
61 94 102
117 146 163
191 216 251
191 216 251
191 216 251
191 216 251
191 216 251
191 216 251
191 216 251
191 216 251
191 216 251
191 216 251
191 216 251
191 216 251
191 216 251
191 216 251
191 216 251
191 216 251
191 216 251
191 216 251
191 216 251
191 216 251
191 216 251
191 216 251
191 216 251
191 216 251
183 209 237
191 216 251
191 216 251
167 189 220
167 189 220
176 202 221
181 208 237
182 208 237
191 216 251
167 189 220
184 208 228
158 179 193
182 208 237
191 216 251
161 183 203
191 216 251
167 189 220
152 177 203
171 197 212
161 183 203
178 204 221
171 200 221
157 181 203
175 202 221
164 182 193
0 0 0
87 69 112
84 84 123
105 97 140
76 65 113
75 75 90
0 0 0
110 110 148
119 138 134
161 183 203
118 139 148
125 31 161
124 31 161
106 29 142
93 24 118
141 35 178
133 32 161
141 35 161
108 29 142
126 31 161
117 30 142
135 34 161
113 29 142
122 29 161
113 96 148
158 181 203
191 216 251
176 202 221
179 207 237
145 168 173
174 201 221
191 216 251
191 216 251
191 216 251
183 209 237
152 175 193
181 208 237
191 216 251
182 208 237
183 209 237
191 216 251
191 216 251
191 216 251
112 185 171
51 135 133
49 125 97
56 154 147
38 94 70
53 133 116
191 216 251
191 216 251
191 216 251
191 216 251
191 216 251
174 200 235
84 95 128
0 0 0
66 81 94
87 107 151
63 76 124
61 74 124
99 117 174
94 109 133
59 73 124
0 0 0
167 189 220
191 216 251
191 216 251
191 216 251
191 216 251
191 216 251
191 216 251
191 216 251
191 216 251
191 216 251
191 216 251
191 216 251
191 216 251
191 216 251
191 216 251
191 216 251
191 216 251
191 216 251
191 216 251
191 216 251
191 216 251
191 216 251
191 216 251
191 216 251
191 216 251
191 216 251
191 216 251
191 216 251
191 216 251
191 216 251
191 216 251
191 216 251
191 216 251
191 216 251
191 216 251
191 216 251
191 216 251
191 216 251
191 216 251
191 216 251
191 216 251
191 216 251
191 216 251
191 216 251
191 216 251
191 216 251
191 216 251
191 216 251
191 216 251
191 216 251
191 216 251
191 216 251
191 216 251
191 216 251
191 216 251
191 216 251
191 216 251
191 216 251
191 216 251
191 216 251
191 216 251
151 174 203
101 123 146
64 82 84
153 175 203
191 216 251
191 216 251
191 216 251
191 216 251
191 216 251
191 216 251
191 216 251
191 216 251
191 216 251
191 216 251
191 216 251
191 216 251
191 216 251
191 216 251
191 216 251
191 216 251
191 216 251
151 178 199
101 136 145
132 179 184
121 170 166
84 126 136
90 125 121
62 89 88
90 125 121
84 127 136
62 88 88
0 0 0
0 0 0
176 208 241
191 216 251
191 216 251
191 216 251
191 216 251
191 216 251
191 216 251
191 216 251
191 216 251
191 216 251
191 216 251
191 216 251
191 216 251
191 216 251
191 216 251
176 204 235
121 144 157
79 124 162
111 155 186
82 122 145
87 125 145
92 131 167
167 189 220
191 216 251
191 216 251
139 157 183
117 162 160
0 0 0
71 102 105
66 90 85
102 140 151
191 216 251
175 202 229
179 207 237
167 189 220
172 200 221
179 204 220
147 169 173
177 203 221
191 216 251
191 216 251
152 177 203
159 183 161
126 143 148
177 206 237
173 196 193
0 0 0
164 193 203
177 203 221
123 144 161
121 136 117
143 166 161
119 142 161
142 178 185
91 99 70
86 100 98
140 165 161
110 133 134
87 101 98
108 129 118
131 159 162
166 189 173
156 181 161
143 178 185
133 161 162
139 162 148
115 133 118
125 156 162
102 125 118
115 129 97
84 94 71
98 127 135
112 131 117
127 140 117
72 93 98
108 132 134
125 156 162
107 131 135
138 161 148
140 164 161
84 99 98
115 136 134
95 100 124
0 0 0
0 0 0
0 0 0
0 0 0
83 67 113
108 132 134
113 135 134
86 101 98
148 181 184
102 125 118
138 33 161
75 94 98
132 32 161
97 25 118
138 33 178
139 33 178
97 25 118
140 35 161
102 25 117
102 25 117
68 18 86
0 0 0
108 132 134
120 139 134
162 187 173
122 140 134
132 160 162
72 93 98
117 137 134
161 186 173
158 187 184
151 178 161
142 160 134
114 135 134
159 187 184
79 96 98
136 162 161
113 135 134
114 132 118
117 137 134
128 141 117
94 153 133
62 161 147
47 127 117
43 105 96
0 0 0
35 90 70
116 136 134
148 176 162
141 163 148
132 160 162
101 115 134
161 186 173
115 137 193
105 113 158
88 107 151
74 85 94
61 78 94
69 79 124
0 0 0
101 118 173
65 80 94
119 136 177
139 157 183
191 216 251
171 199 221
167 189 220
144 170 184
157 189 204
191 216 251
144 170 184
185 210 236
191 216 251
185 210 236
191 216 251
191 216 251
191 216 251
191 216 251
191 216 251
191 216 251
191 216 251
191 216 251
191 216 251
191 216 251
191 216 251
191 216 251
191 216 251
191 216 251
191 216 251
191 216 251
191 216 251
191 216 251
191 216 251
191 216 251
191 216 251
191 216 251
191 216 251
191 216 251
191 216 251
191 216 251
191 216 251
191 216 251
191 216 251
191 216 251
191 216 251
191 216 251
191 216 251
191 216 251
191 216 251
191 216 251
191 216 251
191 216 251
191 216 251
191 216 251
191 216 251
191 216 251
191 216 251
191 216 251
191 216 251
191 216 251
191 216 251
191 216 251
191 216 251
191 216 251
191 216 251
140 159 179
129 150 163
117 137 154
191 216 251
191 216 251
191 216 251
191 216 251
191 216 251
191 216 251
191 216 251
191 216 251
191 216 251
191 216 251
191 216 251
191 216 251
191 216 251
191 216 251
191 216 251
191 216 251
191 216 251
191 216 251
176 208 241
101 115 134
121 145 156
139 157 183
113 139 156
164 197 214
175 204 234
151 181 208
116 146 167
167 189 220
191 216 251
191 216 251
191 216 251
191 216 251
191 216 251
191 216 251
191 216 251
191 216 251
191 216 251
191 216 251
191 216 251
191 216 251
167 189 220
167 189 220
139 157 183
179 206 237
161 183 203
167 189 220
113 160 203
0 0 0
86 124 145
84 124 145
73 120 162
136 169 196
121 143 161
158 181 203
121 139 134
114 132 117
83 99 98
96 122 108
114 148 142
116 142 148
100 124 118
115 130 97
149 179 173
130 156 149
149 182 184
121 139 134
86 100 98
107 125 98
136 162 161
72 87 71
132 157 149
103 122 98
155 185 184
99 124 118
117 134 117
0 0 0
105 127 118
123 137 117
142 177 185
116 137 134
159 185 173
121 139 134
114 135 134
116 136 134
139 161 148
134 159 148
115 136 134
100 128 135
140 165 161
150 178 161
143 178 185
76 95 98
152 178 161
140 165 161
137 163 161
122 140 134
107 132 135
137 163 161
110 133 134
112 134 134
117 134 117
142 166 161
136 162 162
146 178 174
114 135 134
138 163 161
151 183 184
107 128 118
119 135 117
135 162 162
139 161 148
126 140 158
72 93 98
107 131 135
136 162 162
112 128 97
135 159 149
125 151 134
140 162 148
127 157 162
91 99 70
133 155 134
111 130 118
126 156 162
142 178 185
145 163 133
122 125 142
131 135 141
104 94 108
120 129 156
0 0 0
92 21 117
111 130 118
147 166 148
107 131 135
128 158 162
136 162 161
141 165 161
110 133 134
135 161 162
153 182 173
136 157 134
68 91 98
150 182 184
119 138 134
80 97 98
118 150 149
145 179 185
130 156 149
118 134 117
133 173 185
112 131 118
83 99 98
82 128 117
46 122 97
68 178 160
32 87 71
44 136 116
21 122 96
112 152 134
137 163 161
111 134 134
134 158 149
130 159 162
149 179 173
98 121 132
0 0 0
94 113 129
0 0 0
73 85 94
74 90 129
0 0 0
72 84 94
94 119 178
137 157 134
139 164 161
123 155 162
114 132 117
116 136 134
126 154 149
111 146 150
132 157 149
110 133 134
117 134 117
142 160 134
153 184 184
138 163 161
139 164 161
131 154 134
171 199 221
142 163 148
157 178 193
107 132 135
114 136 134
141 157 117
178 203 221
157 181 203
131 149 161
144 170 184
148 170 173
142 169 184
139 157 183
191 216 251
179 206 237
184 210 236
183 209 237
179 206 237
191 216 251
191 216 251
191 216 251
191 216 251
191 216 251
191 216 251
191 216 251
191 216 251
191 216 251
191 216 251
191 216 251
191 216 251
191 216 251
191 216 251
191 216 251
191 216 251
191 216 251
191 216 251
191 216 251
191 216 251
191 216 251
191 216 251
191 216 251
191 216 251
191 216 251
191 216 251
191 216 251
191 216 251
191 216 251
191 216 251
145 163 177
98 117 124
99 118 124
182 206 232
191 216 251
191 216 251
191 216 251
191 216 251
191 216 251
191 216 251
191 216 251
191 216 251
191 216 251
191 216 251
191 216 251
191 216 251
191 216 251
191 216 251
191 216 251
191 216 251
191 216 251
191 216 251
191 216 251
191 216 251
191 216 251
191 216 251
181 208 237
191 216 251
178 206 237
139 157 183
131 149 161
139 165 173
153 176 193
158 189 204
156 181 161
156 180 203
138 158 134
125 146 161
77 95 98
0 0 0
108 129 118
136 162 161
130 159 162
114 135 134
154 185 184
141 165 161
140 162 148
129 158 162
72 93 98
54 82 92
96 143 165
57 84 92
55 89 118
63 94 117
57 85 92
134 161 162
133 161 162
99 127 135
141 165 161
104 130 135
132 157 149
144 167 161
140 159 134
159 185 173
141 165 161
0 0 0
110 133 134
80 97 98
147 181 185
0 0 0
128 158 162
127 154 149
96 126 135
99 127 135
0 0 0
109 129 118
118 138 134
164 188 173
85 100 98
131 156 149
80 97 98
121 139 134
159 187 184
146 168 161
76 95 98
116 137 134
152 181 173
88 102 97
108 129 118
151 180 173
141 160 134
110 130 118
140 162 148
145 167 161
157 182 161
110 130 118
137 157 134
101 128 135
137 162 161
112 131 118
110 133 134
124 135 97
154 182 173
83 99 98
123 155 162
137 158 134
0 0 0
129 156 149
0 0 0
117 137 134
112 131 118
88 102 97
151 183 184
114 135 134
156 181 161
136 160 148
109 132 134
139 164 161
143 163 148
100 128 135
134 159 149
126 151 134
76 90 71
122 155 162
160 185 173
81 97 98
155 183 173
152 183 184
127 157 162
104 123 98
128 158 162
119 135 117
136 162 161
104 26 141
136 162 162
139 159 134
134 159 148
160 188 184
153 183 184
156 185 184
121 139 134
148 179 174
137 163 161
137 163 161
78 96 98
86 96 71
144 179 185
136 162 162
136 162 162
145 177 174
160 183 161
133 160 162
98 127 135
105 130 135
138 160 148
115 136 134
88 127 117
29 84 71
37 93 70
54 138 133
0 0 0
43 133 116
139 164 161
134 161 162
114 132 117
149 168 148
115 133 117
116 137 134
121 151 149
102 121 153
0 0 0
70 79 124
90 110 129
107 128 190
89 110 129
98 117 115
151 168 148
101 128 135
154 184 184
146 166 148
120 136 117
119 135 117
160 183 161
117 137 134
128 153 134
111 134 134
122 133 97
135 159 149
0 0 0
116 133 117
159 187 184
0 0 0
130 159 162
132 157 149
76 95 98
0 0 0
117 137 134
118 134 117
113 131 118
133 160 162
158 184 173
136 160 148
122 152 149
138 163 161
122 137 117
86 100 98
118 134 117
134 159 149
143 161 134
121 139 134
72 87 71
108 125 98
124 135 97
109 129 118
115 133 117
144 167 173
179 202 212
173 200 221
158 181 203
172 200 221
123 145 161
157 180 203
191 216 251
178 206 237
191 216 251
191 216 251
191 216 251
191 216 251
191 216 251
191 216 251
191 216 251
191 216 251
191 216 251
191 216 251
191 216 251
191 216 251
191 216 251
191 216 251
191 216 251
191 216 251
127 142 160
80 96 114
101 118 124
191 216 251
191 216 251
191 216 251
191 216 251
191 216 251
191 216 251
191 216 251
191 216 251
191 216 251
191 216 251
180 203 212
168 189 220
148 170 173
186 210 236
168 189 220
98 123 118
169 195 203
135 161 162
154 184 184
165 193 203
108 128 118
110 130 118
117 137 134
99 127 135
159 185 173
132 160 162
156 185 184
140 162 148
119 150 149
82 98 98
140 162 148
132 160 162
110 130 118
137 163 161
106 131 135
134 161 162
147 166 148
106 131 135
153 184 184
146 168 161
135 159 149
115 136 134
153 179 161
125 154 149
111 134 134
112 134 134
88 101 98
99 131 155
70 92 91
88 130 161
80 97 98
105 130 135
141 165 161
114 132 117
120 136 117
128 155 149
140 164 161
98 126 135
103 126 118
131 157 149
113 131 118
144 177 174
125 153 149
143 164 148
157 186 184
99 124 118
137 163 161
135 162 162
130 156 149
108 128 118
150 180 173
120 139 134
131 159 162
131 159 162
128 158 162
112 131 118
120 136 117
124 153 149
128 158 162
140 162 148
132 157 149
123 150 134
128 158 162
127 157 162
90 103 97
118 152 162
133 158 149
140 162 148
121 136 117
144 164 148
161 188 184
134 161 162
137 163 161
109 133 134
157 184 173
138 161 148
125 156 162
101 125 118
142 163 148
159 185 173
89 102 97
136 159 148
139 164 161
142 176 174
116 137 134
129 158 162
110 133 134
140 164 161
98 127 135
133 155 134
109 133 134
112 131 118
114 132 117
128 158 162
71 87 71
145 175 162
111 133 134
142 165 161
130 159 162
123 155 162
134 158 149
139 176 185
160 188 184
109 129 118
118 134 117
124 153 149
120 136 117
145 165 148
127 155 149
135 161 162
114 136 134
114 135 134
129 158 162
152 181 173
133 160 162
114 136 134
137 163 161
145 162 134
106 127 118
119 138 134
136 162 162
0 0 0
156 183 173
131 160 162
135 162 162
81 98 98
129 155 149
135 159 149
151 183 184
138 163 161
120 139 134
113 132 117
134 159 149
142 163 148
90 126 97
34 89 70
39 95 70
104 192 182
102 125 118
131 159 162
101 128 135
106 131 135
131 156 149
116 136 134
140 162 148
136 162 162
114 136 134
139 172 192
84 107 130
74 85 94
88 101 98
85 100 98
132 155 134
135 159 149
114 132 118
135 159 148
149 179 173
137 163 161
136 162 161
159 187 184
120 154 162
151 182 184
68 90 98
83 94 71
129 158 162
142 165 161
136 159 149
142 178 185
133 160 162
141 162 148
136 157 134
90 103 97
108 132 134
138 161 148
150 182 184
156 181 161
118 138 134
116 137 134
134 161 162
131 157 149
108 129 118
133 158 149
68 90 98
107 131 135
143 166 161
74 88 71
118 138 134
148 181 184
137 160 148
133 158 149
122 137 117
107 125 98
144 177 174
127 157 162
152 183 184
127 155 149
149 181 184
71 92 98
110 130 118
138 158 134
154 180 161
139 161 148
117 137 134
137 160 148
132 157 149
115 132 117
136 157 134
135 161 162
191 216 251
191 216 251
191 216 251
191 216 251
191 216 251
191 216 251
191 216 251
185 208 228
191 216 251
180 205 232
124 138 117
186 209 228
168 190 220
147 181 185
147 171 184
142 166 173
131 157 149
86 100 98
131 159 162
136 160 148
114 135 134
109 132 134
134 161 162
139 164 161
145 179 185
149 182 184
105 131 135
111 130 118
107 132 135
143 164 148
98 119 98
88 101 98
82 98 98
82 98 98
103 126 118
155 183 173
106 131 135
160 185 173
74 94 98
127 137 97
135 159 148
146 180 185
136 157 134
137 163 161
107 132 135
111 130 118
150 182 184
157 186 184
120 139 134
83 99 98
144 179 185
138 161 149
152 181 173
112 134 134
113 135 134
160 185 173
156 185 184
137 163 161
137 160 148
100 128 135
106 135 155
110 133 134
133 158 149
128 155 149
98 127 135
119 138 134
114 135 134
76 95 98
148 181 184
139 161 148
151 176 148
139 162 148
124 155 162
125 154 149
128 158 162
112 134 134
140 162 148
76 95 98
100 124 118
103 129 135
110 133 134
131 157 149
109 129 118
132 160 162
130 156 149
130 156 149
139 162 148
136 162 162
143 166 161
105 130 135
120 139 134
148 181 184
118 152 162
136 162 161
134 161 162
111 134 134
135 162 162
128 155 149
134 161 162
82 98 98
140 159 134
155 185 184
155 183 173
150 182 184
108 125 98
129 158 162
153 182 173
77 95 98
127 155 149
107 128 118
157 181 161
113 135 134
137 160 149
141 163 148
127 157 162
140 165 161
156 183 173
133 160 162
134 161 162
145 179 185
127 157 162
112 134 134
0 0 0
125 153 149
107 131 135
0 0 0
81 98 98
133 158 149
132 160 162
149 179 173
80 97 98
112 131 118
125 154 149
140 159 134
125 156 162
149 167 148
134 158 149
135 159 149
130 159 162
116 134 118
127 155 149
112 134 134
112 131 117
121 136 117
130 159 162
145 177 174
153 179 161
152 181 173
118 138 134
109 129 118
137 155 117
110 130 118
121 149 134
109 129 118
162 185 161
133 155 134
106 127 118
130 159 162
141 163 148
108 132 134
117 137 134
155 183 173
87 101 98
104 130 135
117 137 134
157 186 184
132 160 162
122 137 117
108 132 134
106 128 118
146 178 174
90 103 97
95 101 70
134 161 162
145 167 144
154 182 173
138 161 148
112 131 118
139 164 161
148 179 173
83 99 98
108 129 118
119 135 117
80 97 98
109 129 118
125 151 134
135 162 162
122 155 162
127 157 162
135 159 149
131 156 149
84 94 71
99 127 135
118 138 134
148 181 184
115 133 117
119 138 134
101 128 135
159 187 184
163 189 184
143 161 134
148 181 184
112 131 118
122 154 162
128 155 149
108 132 134
125 139 117
121 140 134
152 183 184
145 162 133
114 135 134
135 161 162
138 163 161
133 161 162
119 138 134
127 140 117
134 161 162
139 164 161
78 96 98
148 181 184
133 160 162
125 139 117
141 162 148
151 180 173
122 140 134
98 119 98
160 183 161
115 130 97
113 135 134
122 149 135
110 130 118
130 159 162
150 178 161
123 141 134
114 135 134
110 133 134
139 164 161
103 129 135
158 182 161
158 182 161
168 198 221
148 172 184
160 190 204
140 167 184
113 135 134
131 149 161
78 91 71
112 131 118
157 186 184
123 138 117
76 90 71
110 130 118
150 182 184
123 155 162
112 131 118
113 135 134
138 161 148
154 180 161
121 137 117
133 161 162
136 160 148
97 123 118
135 156 134
142 166 161
142 158 117
108 132 135
113 135 134
145 162 133
108 132 134
76 95 98
119 135 117
126 140 117
129 159 162
126 157 162
115 136 134
139 161 148
157 184 173
146 178 174
135 154 117
155 180 161
140 164 161
114 147 149
132 160 162
137 163 161
146 180 185
89 102 97
92 99 70
82 98 98
154 184 184
150 180 173
134 161 162
154 184 184
160 188 184
160 184 161
159 187 184
137 158 134
113 128 97
108 132 135
138 161 148
153 181 173
87 101 98
141 165 161
129 158 162
133 158 149
84 99 98
119 153 162
111 130 118
135 162 162
112 134 134
157 186 184
113 135 134
123 140 134
150 182 184
117 137 134
127 157 162
84 94 71
152 181 173
105 130 135
124 153 149
111 127 97
128 155 149
0 0 0
122 137 117
116 136 134
129 156 149
158 187 184
140 174 174
110 133 134
140 164 161
121 139 134
147 176 162
144 174 162
127 157 162
107 131 135
89 102 97
138 161 148
89 102 97
143 166 161
140 162 148
136 162 161
111 127 97
155 183 173
131 154 134
125 154 149
110 130 118
124 156 162
125 154 149
135 159 149
140 159 134
117 137 134
110 133 134
133 158 149
128 155 149
121 136 117
152 183 184
108 132 134
83 94 71
111 133 134
145 179 185
0 0 0
72 87 71
88 102 97
135 159 149
0 0 0
113 135 134
112 134 134
132 160 162
124 153 149
116 133 118
99 120 98
105 127 118
109 129 118
142 163 148
149 167 148
144 167 161
150 180 173
140 159 134
143 176 174
82 98 98
136 162 162
82 98 98
130 156 149
119 135 117
128 158 162
74 94 98
83 98 98
113 128 128
108 125 98
105 130 135
127 155 149
131 159 162
146 168 161
101 128 135
83 99 98
90 103 97
142 166 161
126 154 149
90 98 71
97 98 80
126 157 162
113 131 117
136 160 148
141 165 161
129 153 134
162 185 161
133 161 162
136 159 148
87 101 98
110 130 118
98 127 135
120 139 134
101 125 118
116 136 134
114 109 110
0 0 0
111 130 118
134 158 149
116 136 134
123 155 162
81 98 98
107 128 118
78 96 98
82 98 98
137 163 161
160 188 184
106 128 118
140 159 134
162 189 184
105 130 135
86 100 98
106 128 118
117 137 134
98 119 129
79 97 98
109 129 118
150 182 184
101 128 135
131 154 134
128 158 162
124 138 117
143 164 148
110 130 118
142 166 161
143 178 185
118 138 134
111 134 134
127 155 149
111 134 134
102 125 118
143 166 161
113 132 118
102 129 135
155 185 184
122 149 135
124 150 134
119 147 135
151 180 173
151 183 184
142 178 185
133 158 149
0 0 0
133 160 162
133 158 149
141 163 148
105 130 135
83 99 98
116 133 117
130 156 149
133 161 162
116 133 117
134 161 162
141 165 161
142 158 117
118 138 134
157 184 173
149 167 148
141 165 161
117 134 117
112 134 134
140 165 161
126 157 162
142 160 134
121 140 134
135 159 149
132 160 162
67 85 72
134 161 162
0 0 0
142 166 161
109 133 134
98 123 118
121 136 117
114 135 134
131 156 149
149 179 174
87 101 98
151 183 184
112 131 118
165 184 148
155 183 173
140 162 148
106 131 135
97 126 135
149 181 184
139 161 148
126 157 162
114 132 117
139 164 161
140 177 185
78 96 98
74 94 98
111 130 118
108 132 134
89 102 97
122 149 135
140 164 161
153 184 184
118 138 134
110 130 118
119 138 134
68 91 98
141 162 148
148 181 184
142 163 148
136 157 134
138 163 161
71 92 98
133 161 162
136 159 148
126 139 117
159 187 184
118 138 134
143 166 161
134 158 149
99 127 135
116 137 134
159 185 173
147 178 173
154 184 184
70 92 98
138 161 148
88 101 98
119 138 134
80 97 98
133 158 149
134 158 149
104 130 135
110 133 134
161 184 161
127 154 149
141 163 148
109 133 134
139 164 161
157 186 184
113 132 117
153 182 173
114 135 134
132 160 162
139 164 161
160 186 173
136 162 162
138 163 161
137 160 148
139 164 161
139 164 161
116 133 117
138 158 134
112 131 117
130 159 162
114 132 118
127 157 162
144 162 134
114 136 134
108 132 134
128 158 162
121 139 134
112 131 118
113 132 117
141 165 161
126 154 149
160 188 184
118 147 135
129 159 162
153 179 161
131 157 149
137 160 148
89 102 97
81 98 98
105 131 135
117 131 97
141 162 148
142 166 161
89 102 97
101 125 118
109 132 134
119 153 162
126 151 134
116 133 117
111 134 134
116 137 134
117 134 117
135 161 162
120 151 149
128 157 162
158 185 173
158 184 173
106 131 135
72 93 98
136 162 161
127 157 162
124 138 117
119 138 134
125 156 162
132 160 162
127 140 117
129 158 162
139 161 148
115 136 134
72 87 71
102 129 135
127 157 162
0 0 0
156 183 173
74 83 89
146 180 185
110 133 134
128 153 134
133 155 134
145 180 185
148 181 184
146 180 185
108 132 134
113 132 118
125 139 117
128 155 149
107 125 129
131 157 149
127 154 149
67 90 99
131 159 162
0 0 0
105 130 135
80 92 71
119 161 148
75 94 98
125 156 162
128 149 118
149 167 148
75 94 98
131 157 149
86 100 98
112 134 134
104 123 98
114 132 118
138 163 161
104 130 135
140 164 161
109 127 131
120 139 134
121 140 134
81 92 71
113 135 134
85 100 98
88 102 98
104 130 135
158 187 184
0 0 0
87 101 98
0 0 0
139 164 161
106 131 135
87 96 71
128 158 162
111 133 134
109 133 134
104 126 118
81 97 98
156 185 184
152 183 184
146 168 161
123 138 117
147 180 185
106 127 118
128 146 129
150 180 173
83 99 98
108 128 118
112 131 118
108 132 134
148 181 184
135 159 149
137 163 161
100 124 118
117 137 134
140 165 161
135 161 162
158 187 184
136 160 149
135 159 148
148 179 173
124 138 117
149 177 161
77 95 98
135 162 162
76 95 98
129 158 162
0 0 0
74 94 98
163 185 161
87 101 98
142 166 161
156 183 173
156 181 161
83 99 98
155 183 173
140 159 134
101 128 135
135 162 162
130 156 149
139 164 161
106 128 118
137 163 161
113 135 134
104 126 118
139 162 148
131 156 149
137 160 149
92 99 70
128 158 162
138 158 134
117 137 134
151 182 184
152 181 173
142 166 161
86 101 98
94 121 118
74 94 98
150 182 184
135 162 162
0 0 0
111 130 118
164 188 173
134 161 162
154 182 173
146 160 117
128 155 149
132 160 162
85 100 98
86 101 98
142 178 185
144 176 174
119 135 117
132 155 134
134 159 149
163 185 161
96 102 70
110 133 134
149 177 161
128 155 149
141 160 134
133 161 162
116 136 134
127 140 117
146 180 185
112 134 134
86 100 98
143 166 161
143 166 161
113 135 134
107 131 135
126 157 162
156 183 173
108 132 134
84 99 98
153 184 184
131 157 149
156 185 184
116 134 117
113 128 97
131 159 162
155 180 161
139 158 134
162 185 161
152 181 173
133 152 117
152 179 161
153 184 184
139 156 117
99 124 118
138 161 148
143 164 148
100 124 118
112 131 117
85 100 98
142 166 161
112 134 134
145 177 167
96 126 135
111 134 134
65 89 99
126 156 162
88 101 98
131 159 162
155 181 161
109 129 118
106 131 135
120 136 117
129 158 162
154 182 173
110 133 134
88 101 98
130 156 149
139 161 148
156 183 173
103 126 118
72 92 98
127 151 134
115 136 134
135 159 148
137 163 161
79 96 98
87 101 98
114 135 134
157 184 173
114 135 134
113 135 134
83 99 98
84 99 98
148 167 147
132 160 162
136 162 161
104 155 149
147 178 173
138 163 161
137 158 134
113 135 134
139 158 134
109 129 118
105 127 118
131 157 149
141 162 148
118 134 117
87 101 98
143 166 161
117 137 134
119 132 97
105 127 118
0 0 0
89 102 97
70 92 98
121 151 149
74 94 98
74 94 98
125 151 157
78 96 98
78 96 98
82 93 71
142 166 161
133 158 149
114 132 117
0 0 0
138 161 148
140 164 161
154 182 173
105 130 135
148 167 148
107 128 118
118 138 134
118 135 117
83 99 98
121 139 134
101 128 135
123 155 162
116 135 139
129 155 149
105 130 135
76 95 98
0 0 0
150 182 184
136 160 148
115 133 117
106 127 118
72 88 71
80 97 98
121 139 134
0 0 0
129 158 162
122 137 139
0 0 0
74 88 71
140 165 161
120 139 134
130 172 148
88 132 117
85 100 98
79 96 98
119 138 134
125 149 146
80 97 98
79 91 71
132 155 134
127 140 117
87 101 98
115 133 117
0 0 0
108 132 134
82 98 98
115 133 118
141 165 161
0 0 0
88 101 98
118 137 134
117 137 134
94 135 117
155 183 173
110 133 134
138 161 148
120 139 134
101 125 118
117 134 117
112 134 134
109 132 134
141 163 148
133 161 162
118 138 134
130 159 162
157 182 161
110 130 118
120 136 117
151 181 173
96 126 135
113 135 134
159 185 173
151 181 173
148 179 173
150 177 175
78 96 98
135 159 149
111 133 134
153 184 184
119 138 134
133 160 162
158 178 133
120 139 134
154 185 184
109 129 118
155 183 173
130 156 149
107 128 118
88 102 98
134 158 149
120 139 134
127 137 97
148 181 184
128 155 149
144 164 148
109 132 134
134 158 149
125 156 162
118 138 134
140 164 161
0 0 0
103 126 118
141 177 185
131 157 149
102 128 135
144 164 148
139 161 148
137 163 161
110 130 118
126 154 149
99 124 118
126 154 149
136 160 148
138 161 148
108 132 134
145 172 149
153 184 184
141 163 148
138 161 148
132 157 149
157 186 184
140 176 185
133 161 162
75 94 98
114 132 117
73 93 98
128 152 134
80 97 98
124 156 162
130 153 134
131 157 149
133 161 162
83 99 98
83 94 71
112 134 134
133 161 162
131 159 162
108 132 134
101 128 135
150 180 173
113 135 134
0 0 0
130 159 162
116 137 134
140 164 161
135 162 162
152 181 173
161 184 161
146 163 133
127 154 149
157 184 173
104 130 135
118 138 134
97 126 135
130 156 149
110 133 134
140 162 148
88 102 98
119 138 134
0 0 0
83 99 98
104 126 118
142 163 148
97 122 118
119 132 97
107 131 135
79 96 98
126 157 162
112 131 118
118 134 117
128 155 149
103 126 118
109 133 134
162 187 173
110 130 118
158 187 184
135 156 134
120 139 134
67 85 72
108 132 135
68 91 98
81 93 71
110 130 118
149 179 173
140 165 161
138 161 148
145 165 148
118 134 117
105 131 135
150 182 184
129 158 162
129 158 162
122 155 157
72 92 98
125 156 162
0 0 0
103 126 118
119 138 134
126 157 162
74 75 90
119 135 117
148 179 174
129 158 162
63 63 67
144 177 174
133 158 149
121 140 134
0 0 0
158 184 173
115 132 117
116 136 134
123 155 162
39 96 70
124 138 117
114 135 134
124 138 117
115 129 97
141 177 148
67 90 98
115 129 97
152 183 184
87 96 71
141 162 148
135 159 148
78 91 71
0 0 0
104 126 118
86 100 98
112 131 117
107 131 135
103 122 98
80 78 90
0 0 0
88 102 97
112 134 134
154 163 179
77 95 98
138 163 161
111 134 134
115 136 134
137 137 155
0 0 0
103 129 135
114 132 118
142 163 148
112 100 126
109 132 134
108 132 134
84 94 71
111 136 127
68 91 98
104 130 135
108 132 134
109 101 126
0 0 0
136 159 149
136 160 148
74 88 71
68 85 71
109 133 134
109 132 134
136 162 162
104 130 135
122 152 149
101 125 118
66 89 99
68 91 98
146 181 148
88 102 98
124 150 135
104 127 118
94 125 135
112 131 117
110 133 134
109 133 134
86 100 98
0 0 0
126 148 136
89 102 97
115 136 134
105 127 118
97 114 129
107 122 114
72 93 98
129 151 146
127 153 160
126 140 117
155 183 173
113 135 134
105 123 120
123 152 149
147 180 185
114 147 149
114 132 118
82 98 98
0 0 0
110 133 134
127 152 134
117 134 118
131 157 149
140 162 148
128 150 146
116 137 134
147 176 162
144 176 174
87 101 98
149 181 184
112 134 134
106 131 135
73 93 98
120 151 149
126 154 149
137 163 161
119 135 117
77 95 98
123 155 162
0 0 0
117 152 162
127 157 162
113 135 134
104 130 135
85 100 98
129 158 162
143 166 161
113 131 118
162 185 161
130 159 162
138 161 148
133 155 134
78 96 98
131 160 162
150 177 162
118 152 162
150 180 173
106 131 135
132 160 162
132 157 149
131 156 149
75 89 71
133 161 162
97 126 135
132 157 149
158 186 184
78 96 98
149 181 184
128 155 149
140 165 161
117 137 134
67 90 99
99 127 135
101 128 135
112 134 134
124 153 149
120 139 134
146 166 148
75 94 98
116 137 134
102 122 98
153 184 184
128 155 149
155 182 173
159 185 173
104 130 135
70 86 71
142 166 161
113 128 97
138 161 148
135 162 162
130 159 162
139 162 148
106 131 135
116 137 134
151 183 184
105 127 118
119 135 117
150 182 184
139 158 134
153 181 173
134 161 162
116 133 117
139 159 134
133 158 149
158 187 184
104 126 118
109 129 118
138 164 161
77 95 98
88 101 98
131 159 162
126 157 162
139 164 161
114 132 117
117 137 134
89 102 97
113 132 117
102 129 135
103 130 128
82 93 71
137 160 148
110 130 118
119 138 134
72 94 85
121 151 149
134 174 182
0 0 0
127 157 162
113 128 97
105 130 135
168 184 133
117 134 117
86 100 98
136 160 149
163 189 184
125 139 117
144 164 148
112 134 134
82 98 98
126 154 149
113 135 134
96 122 118
120 139 134
114 132 117
0 0 0
157 179 148
96 126 135
135 162 162
79 96 98
97 122 118
140 165 161
129 158 162
124 155 162
108 132 134
122 154 162
117 134 117
110 133 134
137 163 161
159 187 184
103 126 118
113 132 118
118 138 134
131 159 162
132 160 162
84 99 98
128 157 162
114 132 117
133 160 162
85 95 71
107 128 118
112 119 111
130 159 162
108 128 118
158 184 173
151 181 173
115 133 117
127 140 115
143 166 161
110 133 134
122 137 117
116 99 108
85 100 98
81 97 98
0 0 0
108 132 135
75 89 71
87 101 98
97 119 98
70 73 90
92 130 117
113 131 117
88 101 98
69 91 98
86 100 98
127 140 117
69 86 71
84 99 98
118 138 134
115 132 118
111 131 118
110 129 118
0 0 0
103 122 98
142 166 161
151 180 173
79 96 98
0 0 0
115 132 117
106 131 135
130 156 149
119 138 134
153 184 184
145 175 162
0 0 0
81 93 71
120 139 134
104 130 135
134 161 162
99 124 118
0 0 0
71 94 85
86 100 98
108 126 131
83 99 98
90 124 97
123 152 149
106 128 118
113 135 134
95 134 117
81 98 98
125 154 149
130 153 134
86 100 98
86 100 98
124 138 117
99 127 135
119 135 117
117 134 117
80 97 98
90 98 70
119 132 97
64 79 94
99 124 118
113 132 118
136 160 148
122 155 162
109 132 134
70 83 94
115 133 117
122 140 134
130 139 96
109 133 134
143 161 134
128 158 162
84 99 98
139 164 161
124 135 97
112 134 134
118 134 117
126 157 162
71 92 98
75 89 71
83 99 98
128 158 162
134 158 149
151 180 173
79 96 98
99 123 118
112 134 134
137 160 149
104 130 135
0 0 0
129 156 149
135 156 134
105 123 129
83 99 98
117 144 147
115 132 118
143 164 148
126 154 149
119 138 134
107 132 135
160 186 173
136 157 134
98 127 135
132 157 149
145 177 174
135 162 162
165 187 161
124 156 162
118 138 134
139 164 161
158 180 148
111 133 134
134 161 162
134 161 162
99 127 135
107 131 135
131 157 149
127 154 149
146 180 185
155 185 184
126 157 162
127 154 149
117 149 149
132 158 149
128 158 162
90 98 70
124 153 149
109 129 118
166 189 173
136 162 162
111 134 134
109 132 134
104 130 135
139 164 161
137 163 161
127 157 162
148 166 148
149 180 173
135 159 148
139 161 148
106 131 135
88 102 98
158 182 161
112 131 118
138 163 161
138 161 148
106 127 118
81 97 98
140 162 148
82 98 98
103 126 118
135 162 162
110 133 134
128 158 162
135 161 162
137 157 134
131 157 149
108 132 134
73 95 91
131 157 149
108 132 134
87 101 98
138 162 141
154 182 173
116 137 134
122 140 134
128 158 162
0 0 0
122 134 97
126 139 117
69 91 98
111 134 134
149 179 173
106 131 135
121 139 134
104 126 118
71 92 98
127 154 149
106 128 118
122 140 134
161 184 161
0 0 0
81 97 98
89 102 97
88 102 97
93 100 70
139 176 185
134 159 148
145 172 149
127 157 162
147 164 133
122 155 155
84 99 98
137 160 148
103 126 118
103 129 135
148 178 174
133 171 174
71 92 98
113 135 134
113 135 134
132 152 117
106 121 129
81 92 71
127 149 157
108 132 134
86 101 98
75 94 98
107 128 118
116 133 117
76 95 98
124 156 162
110 130 118
111 133 134
148 179 173
108 132 134
134 162 155
108 132 134
147 180 180
143 166 161
144 144 153
150 180 173
123 152 149
121 140 134
74 94 98
143 166 161
82 98 98
152 183 184
83 99 98
86 100 98
130 150 157
128 146 147
71 92 98
144 170 181
100 127 135
75 94 98
104 97 126
114 135 134
112 135 126
155 180 161
112 128 97
78 19 85
114 132 117
113 131 117
148 181 184
153 179 161
0 0 0
122 140 134
131 122 150
72 93 98
0 0 0
112 134 134
129 159 162
119 144 158
100 128 135
99 94 127
137 136 141
113 132 118
139 162 141
88 101 98
135 160 142
0 0 0
94 101 70
133 160 162
120 136 117
0 0 0
71 92 98
107 95 126
122 152 149
138 161 148
114 132 117
106 148 134
117 147 160
75 94 98
98 127 135
106 131 135
140 174 174
82 98 98
137 163 161
118 138 134
124 135 97
80 97 98
134 158 149
113 131 118
103 126 118
132 157 149
131 159 162
121 139 134
122 137 117
118 152 162
135 162 162
67 81 94
129 126 141
127 153 160
112 134 134
85 100 98
152 179 161
102 129 135
112 131 118
103 129 135
86 96 71
84 99 98
106 131 135
131 157 149
109 127 131
112 134 134
71 92 98
139 161 148
116 133 117
144 164 148
105 131 135
108 129 118
139 161 148
79 91 71
137 175 185
153 181 173
141 173 183
61 78 94
120 136 117
0 0 0
129 158 162
115 132 117
137 163 161
68 85 72
87 101 98
134 138 155
147 180 185
163 189 184
117 134 117
122 155 162
131 153 150
126 154 149
127 154 149
132 160 162
108 129 118
114 135 134
137 163 161
135 162 162
129 155 149
130 159 162
120 154 162
147 166 148
79 97 98
131 157 149
111 127 97
126 157 162
88 101 98
133 161 162
113 135 134
111 130 118
129 158 162
153 182 173
162 187 173
135 162 162
140 162 148
156 185 184
134 161 162
146 175 162
72 93 98
150 182 184
108 132 134
120 139 134
78 96 98
109 133 134
112 127 97
83 94 71
122 155 162
80 97 98
134 161 162
106 127 118
142 166 161
150 180 173
129 158 162
139 164 161
141 165 161
109 129 118
139 159 134
146 180 185
85 100 98
133 161 162
87 101 98
112 134 134
157 184 173
143 176 174
79 96 98
140 164 142
104 126 118
121 154 162
107 128 118
82 93 71
107 128 118
117 137 134
141 165 161
129 156 149
99 123 118
84 94 71
118 134 117
117 134 117
142 160 134
151 180 173
120 139 134
122 137 117
109 126 98
132 160 162
87 101 98
81 97 98
118 138 134
0 0 0
82 115 111
85 100 98
163 190 184
107 128 118
132 155 134
70 92 98
98 127 135
113 132 107
117 134 117
145 168 161
134 161 158
119 139 134
125 150 134
133 161 162
135 159 148
126 157 162
66 89 99
106 131 135
127 157 162
123 155 162
113 131 118
115 129 97
71 87 71
154 182 173
115 136 134
118 138 134
100 128 135
144 164 148
146 180 185
135 162 162
134 156 134
0 0 0
112 134 134
100 128 135
72 93 98
145 167 160
155 185 184
71 92 98
128 146 147
143 164 148
89 118 119
115 132 118
137 160 148
0 0 0
140 162 148
74 94 98
120 132 97
131 159 162
84 99 98
0 0 0
111 134 134
111 134 134
88 101 98
114 135 134
110 133 134
123 156 157
124 95 134
115 99 108
76 97 85
130 147 147
110 133 134
110 133 134
105 130 135
74 93 98
107 112 94
119 135 117
75 94 98
124 135 97
88 101 98
137 173 174
108 130 108
109 133 134
0 0 0
123 138 117
138 162 141
138 158 134
145 178 167
111 134 134
74 96 88
121 154 162
132 160 162
141 165 161
114 135 134
106 131 135
102 129 135
119 138 134
74 94 98
118 138 134
125 156 162
110 133 134
133 159 143
134 173 185
79 19 85
130 156 149
116 133 117
137 163 161
79 19 85
81 92 71
104 126 118
79 96 98
143 149 155
78 91 71
139 174 174
130 152 146
101 90 127
153 184 184
139 156 117
131 147 144
135 161 162
81 98 98
128 155 149
87 101 98
77 96 98
112 134 134
112 155 149
105 127 118
127 152 134
0 0 0
86 101 98
116 133 117
134 178 173
127 155 149
115 151 162
144 162 134
100 122 132
142 163 148
76 95 98
112 131 118
146 180 185
110 133 134
161 184 161
86 101 98
76 86 94
120 139 134
133 160 162
97 126 135
75 94 98
84 99 98
100 128 135
79 96 98
109 129 118
82 98 98
100 122 132
113 131 117
74 94 98
126 139 117
117 137 134
77 90 71
104 124 132
137 169 172
132 157 149
135 159 149
112 134 134
140 162 148
115 136 134
88 102 97
118 130 119
141 163 148
86 100 98
128 158 162
118 138 134
103 129 135
141 162 148
145 179 185
118 147 151
86 100 98
122 137 117
119 138 134
85 100 98
78 96 98
148 179 173
123 151 160
127 152 134
114 135 134
118 134 117
109 129 118
135 162 162
138 161 148
90 102 97
152 183 184
65 89 99
115 136 134
102 129 135
152 179 161
149 179 173
111 133 134
130 154 134
145 179 185
104 130 135
67 90 98
134 158 149
125 154 149
122 152 149
85 95 71
142 160 134
128 158 162
128 155 149
124 155 162
149 175 148
156 179 148
103 129 135
137 160 148
159 182 166
135 162 162
110 133 134
145 165 148
103 126 118
140 165 161
78 96 98
148 167 148
138 163 161
133 161 162
158 187 184
131 157 149
116 137 134
127 158 155
112 131 118
129 159 156
117 134 117
133 156 127
73 93 98
139 161 148
108 129 118
144 164 148
103 129 135
81 97 98
0 0 0
73 93 98
129 153 134
0 0 0
76 95 98
146 165 148
141 163 148
83 98 98
137 163 161
142 166 161
67 90 98
110 130 118
113 131 117
82 98 98
87 101 98
135 159 149
0 0 0
127 157 162
0 0 0
144 167 161
134 161 162
106 127 118
101 128 135
107 131 135
67 90 99
130 154 134
117 134 117
139 164 161
135 161 162
140 162 148
137 175 185
117 137 134
132 157 149
134 158 149
0 0 0
112 134 134
158 182 161
137 158 134
101 128 135
151 181 167
73 93 98
0 0 0
88 101 98
127 155 149
140 177 179
157 186 184
136 175 179
95 125 135
122 140 134
109 133 134
122 155 162
99 127 135
135 159 149
80 97 98
129 146 144
124 142 132
157 184 173
112 134 134
98 127 135
79 96 98
88 102 98
59 86 86
109 133 134
115 136 134
106 128 118
0 0 0
124 156 162
0 0 0
95 122 118
94 121 118
106 124 98
127 154 149
106 131 135
89 102 97
132 157 149
130 156 149
99 127 135
95 125 135
130 159 162
138 161 148
140 174 174
121 139 134
127 127 142
113 135 134
130 159 162
129 156 149
35 90 70
139 161 148
136 162 162
136 157 134
114 132 118
151 180 173
94 125 135
150 182 184
133 135 155
139 164 161
149 181 184
131 156 149
103 129 135
140 159 134
126 156 162
126 172 148
147 155 168
71 18 86
102 129 135
125 153 149
106 127 118
108 132 134
115 136 134
88 102 98
121 132 156
97 122 118
0 0 0
105 130 135
147 158 179
134 158 149
122 140 134
153 184 184
136 160 148
0 0 0
88 101 98
105 127 118
135 156 134
85 100 98
0 0 0
82 98 98
0 0 0
79 96 98
129 156 149
128 158 162
150 182 184
115 133 118
118 126 142
118 152 162
129 156 149
110 130 118
152 181 173
148 181 184
151 160 179
81 98 98
67 90 99
72 84 94
148 181 184
133 161 162
151 176 148
114 135 134
0 0 0
143 176 174
108 132 134
118 152 162
88 101 98
153 182 173
88 97 71
128 158 162
85 100 98
81 97 98
0 0 0
138 158 134
107 151 149
110 130 118
108 132 134
115 133 118
78 96 98
100 124 118
130 156 149
142 163 148
147 176 162
113 131 117
142 161 134
123 149 135
109 132 134
141 165 161
72 92 98
146 177 174
149 179 173
80 97 98
129 158 162
87 101 98
116 136 134
89 102 97
119 153 162
118 135 117
113 135 134
147 178 173
132 157 149
144 179 185
138 176 185
155 183 173
129 156 149
0 0 0
123 155 162
143 176 174
126 157 162
127 157 162
109 129 118
131 157 149
85 95 71
143 164 148
137 163 161
150 182 184
128 155 149
105 130 135
148 178 173
127 157 162
140 162 148
145 168 161
143 166 161
143 166 161
112 134 134
107 127 125
141 162 148
148 178 173
134 161 162
104 130 135
152 183 184
128 152 140
131 160 162
137 157 134
132 161 156
159 187 184
146 180 185
86 101 98
132 157 149
140 163 142
114 132 117
134 158 149
144 164 148
119 138 134
76 95 98
63 82 72
74 94 98
103 127 110
97 127 128
82 98 98
144 167 161
0 0 0
96 126 135
106 131 135
135 159 148
125 154 141
122 140 134
104 130 135
131 159 162
98 127 135
87 101 98
145 177 174
114 135 134
129 158 162
157 177 134
129 158 162
75 94 98
119 138 134
84 99 98
90 98 71
112 134 134
118 135 117
119 153 162
103 129 135
105 131 135
126 157 162
147 180 185
116 133 117
104 130 135
128 159 155
113 135 134
117 137 134
128 152 134
155 183 173
74 88 71
70 92 98
112 135 130
111 131 118
157 161 155
111 97 126
142 178 185
101 125 118
112 134 134
124 156 162
110 130 118
67 85 72
149 179 173
151 180 173
92 104 95
0 0 0
67 90 99
117 134 117
101 116 129
109 133 134
114 103 126
129 156 149
141 163 148
110 130 118
75 89 71
101 128 135
85 100 98
133 158 149
140 174 174
135 159 148
141 151 168
72 93 98
79 97 98
74 89 71
125 153 149
112 131 118
124 155 162
134 161 162
118 131 97
129 159 155
154 178 148
128 149 157
97 126 135
107 97 108
100 128 135
144 164 148
84 95 71
113 132 118
117 134 117
75 94 98
114 135 134
124 138 117
121 154 162
114 135 134
89 91 127
125 154 149
135 162 162
0 0 0
122 154 162
119 135 117
108 129 118
99 124 118
138 160 148
141 177 185
132 160 162
109 129 118
127 154 149
109 111 137
127 152 134
0 0 0
88 102 98
133 158 149
136 162 162
105 127 118
98 127 135
152 154 141
128 158 162
154 182 173
115 140 147
36 92 70
115 151 162
96 102 70
105 127 118
109 133 134
148 174 181
127 135 155
123 143 147
127 157 162
108 132 134
130 156 149
119 135 117
155 180 161
125 154 149
109 129 118
149 162 179
144 176 174
134 161 162
111 131 118
63 79 94
100 128 135
74 94 98
101 128 135
117 103 126
135 159 149
150 182 184
156 176 134
118 137 134
73 93 98
129 158 162
134 159 149
106 131 135
109 129 118
132 157 149
102 125 118
136 174 185
144 179 185
125 156 162
114 135 134
114 135 134
116 137 134
143 165 165
121 136 117
137 160 148
116 155 134
158 181 171
121 140 134
103 129 135
108 132 134
106 127 118
163 187 173
147 181 185
132 173 185
116 133 117
148 179 174
131 154 134
143 166 161
112 135 134
113 131 118
119 150 149
124 153 149
95 125 135
140 162 148
155 183 173
128 152 134
127 154 149
147 174 171
125 153 149
156 183 173
119 135 117
125 156 162
98 121 132
132 157 149
133 161 162
132 157 149
148 179 173
115 133 118
143 166 161
131 157 149
145 179 185
117 134 117
106 131 135
142 175 174
130 156 149
117 137 134
123 152 149
112 131 117
96 126 135
132 157 149
108 132 134
138 153 131
140 162 148
115 132 117
165 186 161
126 157 162
137 160 148
69 91 98
111 134 134
127 157 162
111 134 134
113 128 97
157 186 184
118 138 134
132 157 149
94 125 135
73 93 98
158 184 173
89 102 97
89 102 97
103 129 135
126 157 162
96 102 70
0 0 0
112 131 117
93 100 70
142 177 185
154 183 168
121 136 117
136 164 156
108 132 134
158 182 161
133 158 149
130 156 149
109 133 134
134 156 134
116 137 134
122 152 149
121 154 162
111 134 134
114 135 134
115 136 134
107 131 135
99 127 135
91 99 70
76 95 98
125 156 162
0 0 0
146 180 185
88 102 97
118 150 149
127 157 162
85 95 71
114 135 134
117 151 143
115 132 118
120 153 162
72 93 98
110 135 127
121 154 162
122 152 149
0 0 0
127 157 162
110 130 118
128 155 145
117 137 134
131 160 162
111 134 134
121 154 159
118 138 134
129 158 162
102 129 128
150 180 173
109 132 134
108 129 118
108 133 128
117 152 162
111 134 134
153 179 161
112 134 134
143 161 134
125 156 162
152 182 167
121 155 157
118 152 162
130 156 149
133 158 149
80 97 98
127 157 162
152 176 148
128 155 149
97 126 135
148 176 162
125 154 149
79 97 98
93 124 135
154 184 184
70 92 98
71 92 98
121 146 118
138 160 148
131 159 162
88 101 98
125 153 149
110 145 150
70 91 98
131 157 149
95 125 135
133 158 149
98 123 118
131 157 149
124 156 162
107 128 118
136 157 134
152 162 167
73 93 98
75 94 98
108 129 118
112 134 134
146 175 162
150 177 161
146 149 163
115 136 134
123 134 97
131 172 185
120 136 117
140 159 134
131 148 144
117 149 149
127 157 162
70 92 98
157 179 148
83 94 71
119 135 117
73 93 98
156 172 157
129 150 117
148 178 174
130 156 149
144 167 157
149 179 169
130 159 162
83 99 98
115 146 160
131 154 134
142 163 148
132 154 134
87 101 98
149 181 184
130 159 162
102 129 135
0 0 0
115 136 134
0 0 0
127 155 149
112 131 118
152 181 173
128 158 162
125 145 147
145 179 185
139 176 185
69 91 98
107 128 118
115 136 134
133 161 162
130 159 162
140 162 148
115 136 134
129 158 162
136 160 148
131 160 162
107 128 118
123 137 117
87 101 98
74 94 98
137 163 161
134 159 149
121 171 162
131 159 162
124 153 149
101 125 118
111 98 126
133 158 149
136 162 161
141 160 134
96 126 135
154 184 184
87 96 71
151 183 184
77 95 98
109 133 134
113 131 118
103 126 118
130 159 162
125 156 162
113 129 131
100 128 135
132 172 185
101 128 135
113 125 156
89 102 97
131 157 149
121 136 117
123 152 149
72 93 98
67 90 99
105 127 118
80 97 98
143 166 161
137 175 185
123 155 162
110 133 134
136 162 161
119 150 149
105 131 135
153 182 173
120 139 134
128 158 162
79 92 71
112 134 134
125 156 162
161 186 173
118 147 158
114 150 162
131 159 162
136 167 170
141 163 148
114 135 134
147 181 185
128 133 155
81 93 71
127 157 162
130 159 162
122 154 162
119 138 134
152 181 173
152 181 173
113 135 134
102 129 135
122 137 117
126 157 162
152 183 184
142 163 148
139 162 148
109 132 134
154 180 161
70 92 98
110 130 118
146 177 174
133 161 162
130 159 162
104 130 135
127 154 149
112 134 134
122 151 154
127 152 134
109 133 134
145 163 134
143 178 185
140 177 185
75 94 98
135 159 149
125 139 117
100 124 118
148 176 162
98 127 135
124 147 125
141 165 161
115 136 134
134 156 134
133 160 162
125 156 162
112 134 134
115 136 134
121 139 134
91 123 135
129 156 149
126 151 134
100 128 135
122 155 155
82 93 71
107 132 135
106 131 135
123 156 157
100 128 135
118 138 134
118 150 149
133 158 149
130 159 162
79 91 71
130 159 162
122 154 162
110 133 134
142 160 134
107 131 135
79 91 71
95 118 98
133 161 162
75 89 71
105 127 118
160 188 184
100 129 128
148 181 184
112 134 134
0 0 0
80 97 98
71 92 98
124 138 115
133 158 149
84 94 71
113 135 134
133 155 134
123 155 162
104 130 135
117 131 97
133 158 149
134 169 162
137 163 161
109 133 134
135 159 149
67 90 98
115 136 134
132 160 162
88 101 98
96 125 135
116 149 149
110 133 134
108 128 118
133 160 162
102 129 135
135 161 162
106 131 135
125 153 149
129 156 149
83 94 71
151 180 173
94 121 118
121 151 149
89 102 97
125 153 149
99 127 128
146 177 174
113 135 134
127 154 149
106 127 118
110 130 118
138 160 148
140 177 185
109 133 134
127 157 162
109 133 134
137 162 161
105 130 135
108 132 135
158 177 169
139 159 134
112 150 163
107 128 118
99 92 108
81 98 98
109 132 134
127 157 162
143 178 185
126 157 162
126 157 162
139 162 148
144 179 185
119 153 162
118 152 162
90 98 71
147 180 185
82 98 98
141 165 161
65 89 99
65 83 72
146 156 167
108 132 134
126 154 149
131 160 162
67 90 99
82 98 98
94 121 118
117 152 162
129 158 162
133 161 162
112 134 134
111 135 126
119 132 97
157 166 178
116 133 117
126 157 162
107 132 135
123 155 162
115 129 97
101 128 135
149 179 174
106 131 135
130 154 134
102 129 135
159 183 161
108 132 134
148 178 174
117 134 117
87 101 98
141 175 174
93 100 70
84 99 98
145 153 168
100 124 118
146 163 133
129 159 162
130 159 162
134 161 162
67 90 99
141 175 174
106 131 130
133 158 149
100 128 135
117 152 162
97 123 118
120 136 117
120 133 97
146 165 148
76 95 98
155 183 173
138 160 148
144 179 185
127 157 162
147 178 173
107 131 135
74 93 98
111 134 134
145 177 174
123 152 149
86 129 117
77 95 98
139 164 161
118 148 160
125 139 117
73 93 98
148 178 173
130 159 162
134 158 148
0 0 0
112 131 118
101 128 135
99 127 135
110 133 134
133 158 149
119 135 117
117 152 162
152 179 161
84 99 98
133 160 162
127 157 162
126 157 162
104 130 135
112 134 134
145 179 185
116 137 134
99 127 135
100 124 118
130 156 149
141 160 134
72 92 98
130 153 134
127 157 162
142 165 161
159 179 163
135 159 149
133 171 174
79 97 98
87 101 98
112 134 134
128 152 134
100 128 135
75 94 98
127 157 162
114 132 118
121 154 162
71 92 98
111 134 134
133 160 162
139 162 148
143 176 174
103 129 135
156 183 173
75 94 98
141 162 148
106 124 98
106 131 135
132 160 162
133 161 162
101 128 135
149 181 184
130 159 162
107 132 135
147 166 148
136 157 134
104 126 118
86 96 71
112 134 134
117 152 162
132 160 162
123 152 149
92 124 135
83 99 98
116 136 134
120 139 134
106 131 135
101 128 135
142 166 161
155 185 184
132 160 162
123 152 149
78 96 98
124 156 162
123 152 149
98 126 130
81 98 98
112 131 118
115 133 117
0 0 0
73 93 98
68 90 98
107 131 135
67 79 90
128 158 162
75 89 71
109 133 134
129 158 162
122 155 162
149 182 184
142 177 185
126 157 162
86 100 98
132 137 155
142 163 148
97 126 135
81 97 98
152 183 184
145 177 167
127 157 162
139 164 161
146 178 174
105 127 118
115 133 117
125 156 162
122 154 162
112 134 134
149 179 174
130 159 162
135 159 148
108 95 126
116 148 149
125 156 162
123 153 149
136 157 134
132 157 149
143 164 148
143 159 117
117 137 134
115 136 134
139 174 174
144 177 174
105 130 135
109 133 134
126 155 143
127 155 149
141 177 185
72 93 98
112 134 134
128 157 162
155 180 161
109 133 134
106 131 135
152 178 161
159 187 184
114 148 149
110 130 118
136 162 162
105 131 126
114 132 118
104 126 118
158 184 173
139 162 148
122 145 158
79 96 98
133 158 149
142 160 134
101 125 118
156 181 161
138 176 185
150 180 173
152 179 161
147 176 158
138 173 174
130 159 162
102 129 135
83 99 98
120 145 158
96 126 135
114 132 117
149 181 184
101 128 135
124 155 162
74 93 98
111 156 148
151 183 184
110 130 118
114 132 118
105 127 118
146 180 185
134 161 162
128 151 146
88 129 117
107 128 118
117 152 156
125 154 149
137 160 149
119 139 134
136 165 172
103 129 135
99 127 135
101 128 135
136 160 149
142 175 174
99 150 149
139 161 148
79 96 98
104 130 135
140 162 148
82 98 98
170 190 160
131 157 149
96 126 135
124 156 162
148 179 173
105 127 118
140 162 148
68 91 98
114 132 118
137 170 162
119 138 134
130 156 149
107 132 135
108 130 116
147 180 185
127 157 162
76 95 98
83 98 98
123 152 149
110 130 118
130 153 134
109 133 134
135 159 148
122 155 162
149 179 173
133 155 134
158 184 173
90 98 70
143 164 148
119 138 134
127 154 149
104 126 118
67 90 99
137 173 174
115 132 117
115 151 162
114 155 148
153 184 184
103 126 118
95 125 135
137 160 149
138 161 148
140 165 161
142 163 148
83 94 71
131 157 149
59 77 95
148 181 184
127 152 134
126 157 162
133 161 162
110 130 118
109 129 118
135 159 149
152 183 184
90 98 71
142 166 161
123 152 149
109 129 118
0 0 0
103 129 135
129 158 162
131 157 149
122 155 162
120 136 117
106 131 135
89 98 71
128 152 134
129 153 134
125 153 149
133 158 149
114 135 134
113 132 118
111 130 118
153 184 184
117 134 117
129 155 149
112 134 134
132 160 162
108 128 118
104 130 135
97 123 118
154 182 173
158 184 173
106 128 118
109 133 134
139 161 148
102 129 135
104 130 135
130 159 162
121 151 149
103 129 135
134 161 162
142 175 174
88 97 71
104 130 135
123 152 149
142 175 174
151 180 173
70 92 98
110 133 134
148 179 174
137 163 161
120 152 143
98 112 116
77 95 98
64 90 88
106 127 118
146 168 161
101 128 135
154 182 173
132 155 134
120 136 117
115 136 134
132 160 162
142 160 134
143 176 174
150 177 161
140 162 148
133 158 149
137 157 134
99 127 135
112 134 134
131 157 149
83 94 71
112 131 118
145 179 185
135 159 148
150 180 174
124 155 162
143 176 174
119 150 149
129 158 162
126 151 134
135 136 141
97 126 135
104 130 135
105 130 135
141 175 174
118 134 117
142 173 162
118 135 117
121 154 162
131 157 149
119 153 162
132 160 162
126 156 162
104 130 135
155 183 173
136 162 162
120 153 162
148 181 184
82 93 71
141 177 185
144 179 185
107 132 135
136 162 160
123 155 162
127 152 134
111 127 97
109 129 118
131 154 134
108 132 134
0 0 0
123 155 162
100 128 135
113 132 117
91 99 70
63 89 88
145 165 148
137 163 161
123 155 162
132 157 149
76 95 98
110 133 134
0 0 0
130 156 149
152 181 173
137 160 149
133 158 149
127 157 162
114 135 134
130 159 162
114 135 134
116 151 157
133 160 162
112 131 118
77 95 98
114 132 118
150 180 173
131 150 157
91 99 70
111 134 134
106 127 118
75 94 98
75 94 98
130 159 162
147 178 174
109 129 118
111 134 134
112 134 134
123 152 149
69 91 98
72 93 98
153 179 161
109 133 134
106 131 135
112 151 117
131 159 162
66 90 99
153 181 173
66 90 99
136 129 126
127 157 162
125 153 149
105 130 135
133 155 134
110 133 134
104 130 135
94 121 118
133 173 185
126 157 162
126 139 117
116 137 134
132 154 134
154 184 184
105 127 118
110 154 149
130 159 162
119 153 162
133 158 149
0 0 0
133 158 149
107 132 135
123 155 162
127 157 162
99 123 118
143 176 174
141 175 174
113 126 156
156 183 173
133 160 162
88 102 98
73 93 98
124 135 97
106 131 135
142 175 174
115 136 134
89 102 97
140 174 174
102 129 135
139 177 180
124 138 117
147 178 173
99 127 135
126 174 174
123 152 149
75 94 98
67 90 98
124 156 162
140 162 148
111 130 118
102 99 126
118 135 117
109 132 134
71 92 98
152 183 184
121 136 117
136 162 162
130 159 162
134 158 168
110 133 134
103 129 135
146 180 185
99 127 135
116 136 134
135 162 162
135 161 162
114 135 134
151 181 173
148 174 169
148 167 148
110 133 134
120 153 162
129 158 162
123 155 162
137 138 155
113 131 118
130 159 162
113 135 134
125 156 162
141 160 134
90 123 135
134 158 149
130 159 162
144 179 185
139 164 161
121 151 149
130 153 134
117 137 134
109 129 118
130 159 162
157 184 173
98 126 135
131 157 149
146 180 185
120 136 117
130 159 162
115 133 118
113 147 149
78 91 71
103 129 135
143 176 174
149 182 184
159 185 173
149 179 173
144 174 162
130 156 149
127 153 160
107 131 135
151 183 184
127 157 162
140 164 161
139 162 148
137 175 185
102 125 118
151 180 173
106 128 118
101 128 135
117 134 118
106 131 135
113 132 117
155 185 184
151 178 161
148 176 162
129 158 162
146 180 185
114 132 117
136 160 149
91 120 118
138 164 161
135 156 134
108 132 134
104 130 135
128 155 149
130 156 149
123 155 162
111 134 134
125 153 149
71 92 98
133 160 162
131 159 162
113 132 117
141 163 148
120 139 134
164 188 173
110 133 134
119 135 117
148 181 184
128 152 134
117 137 134
144 176 174
110 133 134
102 128 135
154 184 184
125 153 149
101 126 108
125 156 162
125 156 162
136 157 134
135 159 149
145 179 185
148 179 173
86 100 98
110 133 134
0 0 0
144 179 185
155 183 173
111 131 118
76 95 98
106 128 118
111 130 118
132 157 149
122 152 149
134 161 162
71 94 88
104 131 128
96 125 135
137 158 134
126 157 162
156 186 184
119 150 149
138 163 161
149 182 184
116 137 134
74 94 98
75 94 98
105 130 135
112 134 134
39 95 70
111 149 163
159 185 173
121 151 149
131 160 162
144 164 148
99 127 135
159 183 161
136 157 134
118 148 160
114 136 134
66 90 99
105 130 135
148 181 184
109 129 118
130 156 149
126 154 149
104 130 135
128 155 149
103 126 118
123 155 162
121 154 162
124 156 162
149 179 173
98 127 135
118 138 134
133 160 162
147 178 174
108 132 134
123 152 149
112 134 134
71 92 98
126 157 162
123 137 117
117 152 162
125 156 162
147 180 185
84 95 71
109 133 134
151 181 173
123 155 162
145 180 185
138 161 148
141 175 174
113 135 134
112 134 134
126 154 149
88 102 97
118 137 134
89 102 97
137 160 149
133 158 149
111 130 117
97 123 118
130 159 162
117 134 117
130 156 149
108 129 118
145 180 185
131 167 162
105 130 135
105 127 118
117 149 149
121 154 162
111 130 118
158 184 173
128 152 134
159 185 173
117 149 149
111 130 118
129 158 162
133 158 149
78 96 98
150 180 173
153 179 161
87 101 98
85 100 98
135 159 149
104 130 135
135 156 134
135 159 149
75 94 98
147 178 174
126 128 155
154 182 173
87 101 98
140 160 134
122 155 162
131 157 149
161 186 173
123 155 162
132 157 149
70 92 98
140 175 174
137 163 161
139 164 161
77 95 98
116 136 134
103 129 135
130 159 162
127 157 162
138 161 148
121 151 149
108 97 126
99 127 135
151 183 184
100 128 135
110 130 118
127 154 149
153 177 148
130 156 149
109 133 134
145 177 174
123 155 162
123 155 162
119 132 97
146 158 179
110 127 97
127 157 162
107 132 135
153 181 173
114 132 117
136 160 148
150 182 184
155 183 173
133 158 149
133 130 141
82 98 98
136 172 174
112 131 118
125 156 162
119 138 134
146 178 174
128 155 149
159 185 173
122 152 149
133 173 185
107 131 135
129 156 149
149 179 174
158 184 173
75 89 71
110 130 118
84 99 98
108 132 134
130 159 162
66 90 99
112 131 118
106 131 135
128 155 149
123 137 117
134 161 162
103 126 118
116 149 149
130 159 162
119 135 117
86 100 98
68 85 71
131 159 162
119 153 162
106 131 135
155 185 184
132 160 162
106 131 135
153 184 184
95 122 118
138 161 148
157 184 173
107 131 135
152 181 173
102 96 126
88 101 98
139 176 185
83 94 71
158 186 184
118 152 162
149 179 174
152 183 184
109 129 118
129 155 149
129 153 134
131 159 162
69 91 98
101 128 135
147 164 133
153 177 148
105 127 118
136 162 162
136 159 149
141 160 134
131 157 149
73 88 71
127 154 149
139 161 148
114 135 134
84 99 98
112 131 118
126 154 149
121 154 162
104 127 118
115 133 118
128 155 149
134 158 149
114 132 117
140 162 148
84 95 71
131 154 134
105 131 135
100 128 135
141 175 174
88 97 71
128 158 162
99 127 135
130 159 162
114 136 134
95 101 70
151 181 173
157 184 173
112 134 134
131 159 162
124 155 162
122 153 143
104 130 135
147 180 185
114 135 134
104 130 135
108 133 128
121 154 157
104 130 135
102 129 135
109 133 134
121 154 162
139 164 161
132 157 149
163 185 161
127 155 149
110 133 134
124 155 162
131 157 149
81 97 98
109 129 118
107 132 135
112 134 134
71 92 98
102 129 135
116 133 117
108 87 123
124 155 162
135 162 162
147 178 174
113 135 134
105 130 135
126 151 134
0 0 0
152 181 173
139 161 148
136 160 148
114 135 134
132 160 162
114 132 118
104 130 135
104 130 135
77 95 98
71 92 98
129 158 162
115 136 134
107 131 135
137 158 134
120 139 134
100 128 135
112 131 118
112 134 134
118 134 117
151 180 173
83 98 98
131 159 162
134 161 162
131 157 149
126 145 147
144 177 174
124 156 162
131 159 162
144 179 185
124 156 162
117 152 162
128 158 162
135 162 162
110 130 118
126 156 162
149 171 169
134 161 162
107 131 135
128 158 162
132 160 162
104 130 135
108 129 118
32 87 71
109 129 118
102 129 135
118 138 134
109 133 134
103 130 130
137 160 148
110 133 134
116 133 117
119 138 134
130 156 149
124 135 97
125 156 162
131 160 162
115 133 117
164 188 173
144 176 174
145 174 162
105 130 135
137 173 174
106 131 135
105 131 135
135 159 149
118 152 162
107 131 135
69 91 98
126 154 149
121 151 149
105 131 135
133 160 162
78 91 71
79 96 98
105 130 135
87 101 98
128 155 149
106 131 135
150 178 162
135 159 148
135 162 162
149 179 173
96 125 135
104 126 118
108 132 134
103 130 135
132 160 162
115 136 134
155 183 173
132 157 149
128 155 149
111 148 159
140 164 161
104 130 135
106 131 135
142 175 174
138 164 161
122 154 162
115 136 134
114 132 118
144 176 174
153 182 173
123 155 162
106 131 135
148 181 184
135 161 162
104 130 135
71 92 98
114 135 134
129 158 162
120 139 134
139 173 174
92 124 135
143 178 185
75 94 98
139 161 148
114 135 134
82 98 98
109 133 134
106 131 135
79 96 98
104 130 135
143 176 174
151 176 148
105 130 135
134 161 162
126 154 149
124 156 162
67 90 99
139 176 180
143 153 155
112 134 134
128 158 162
129 156 149
124 133 156
71 92 98
126 154 149
63 79 94
130 151 136
80 97 98
123 155 162
143 161 134
138 161 148
122 155 162
123 155 162
106 131 135
156 181 161
139 162 148
112 134 134
121 139 134
131 157 149
144 174 162
88 97 71
115 136 134
136 162 161
157 184 173
131 159 162
138 161 148
117 149 149
133 161 162
136 168 172
134 161 162
146 177 174
114 136 134
130 159 162
139 176 185
132 157 149
80 97 98
154 185 184
124 153 149
121 151 149
134 161 162
108 125 98
158 187 184
105 130 135
111 134 134
138 161 148
72 92 98
112 134 134
109 133 134
146 178 173
132 160 162
103 129 135
0 0 0
123 152 149
74 94 98
123 137 117
103 129 135
119 135 117
102 129 135
128 158 162
79 96 98
147 178 174
132 160 162
156 186 184
99 127 135
117 134 117
124 156 157
81 98 98
134 158 149
98 126 135
114 135 134
114 138 145
75 94 98
115 133 118
110 127 97
131 159 162
131 159 162
135 159 149
138 163 161
113 150 163
124 156 162
146 180 185
123 150 135
154 184 184
120 151 149
107 128 118
111 149 156
130 159 162
149 182 184
104 130 135
160 178 169
95 125 135
133 161 162
154 182 173
118 152 162
133 161 162
132 157 149
103 129 135
113 135 134
142 163 148
129 158 162
108 132 134
103 129 135
111 134 134
82 93 71
95 101 70
111 146 150
111 134 134
125 142 132
113 131 118
112 134 134
101 128 135
114 151 162
115 133 117
111 133 134
125 151 135
126 136 97
157 182 161
88 102 98
84 105 116
100 128 135
159 185 173
139 161 148
112 131 118
141 177 185
99 127 135
116 137 134
86 96 71
117 152 157
134 161 162
102 125 118
100 128 135
106 131 135
157 186 184
138 176 185
117 149 149
132 138 155
139 158 179
166 187 161
107 128 118
101 128 135
129 158 162
108 128 118
68 91 98
140 159 134
130 159 162
131 157 149
99 127 135
104 130 135
109 129 118
115 148 149
137 163 161
114 136 134
121 136 117
125 156 162
146 165 148
114 135 134
81 97 98
149 179 173
93 124 135
113 131 118
147 173 181
86 100 98
115 130 97
155 162 179
157 182 161
121 151 149
115 151 162
132 157 149
102 125 118
130 159 162
147 178 174
101 128 135
147 177 183
154 184 184
133 161 162
129 158 162
137 157 134
101 128 135
123 153 149
114 136 134
116 137 134
124 155 162
147 180 185
115 133 117
129 158 162
80 97 98
106 127 118
155 180 161
120 153 162
133 139 155
118 138 134
139 176 185
111 134 134
117 134 117
79 96 98
121 137 117
124 156 162
111 134 134
113 128 97
116 152 162
103 129 135
109 132 134
72 93 98
79 96 98
145 179 185
152 179 161
165 189 173
145 177 174
136 162 161
134 161 162
147 180 185
125 153 149
137 175 185
0 0 0
99 113 112
115 148 149
136 162 161
110 130 118
110 133 134
117 131 97
105 130 135
101 128 135
125 129 155
97 126 135
145 179 185
116 136 134
96 125 135
115 136 134
73 93 98
99 124 118
82 98 98
106 127 118
103 129 135
130 156 149
108 132 134
102 125 118
80 97 98
132 157 149
141 175 174
160 183 161
138 161 148
108 132 134
109 133 134
83 99 98
124 138 117
142 178 185
113 135 134
111 134 134
157 184 173
120 154 162
82 98 98
129 158 162
116 136 134
142 161 134
77 95 98
160 183 161
116 133 118
113 132 118
141 165 161
128 152 134
154 184 184
147 180 185
121 150 160
152 179 161
88 101 98
111 130 118
102 129 135
127 154 149
139 174 174
87 96 71
65 89 99
82 98 98
137 160 148
0 0 0
104 130 135
128 158 162
144 162 134
69 91 98
154 182 173
107 132 135
140 176 185
106 131 135
129 150 157
138 173 169
118 152 162
110 133 134
132 160 162
81 93 71
126 157 162
134 171 174
153 184 184
118 134 117
136 160 148
124 156 162
148 179 173
88 101 98
151 166 133
141 165 161
114 129 97
127 152 134
153 179 161
159 183 161
103 126 118
120 135 117
137 160 148
155 183 173
110 133 134
133 161 162
104 126 118
131 159 162
114 136 134
76 95 98
116 133 117
102 122 98
123 149 134
124 156 162
107 131 135
103 129 135
97 123 118
127 157 162
125 154 149
127 157 162
131 159 162
115 151 162
103 126 118
123 155 162
134 159 148
96 95 127
79 96 98
104 130 135
119 150 149
122 152 149
142 178 185
154 157 155
103 130 135
136 160 148
136 161 141
70 92 98
157 182 161
137 160 148
125 153 143
124 138 117
147 181 185
148 181 184
139 162 148
109 132 134
131 160 162
119 138 134
113 132 117
123 150 135
105 130 135
128 157 162
142 166 161
80 92 71
100 128 135
112 134 134
105 130 135
104 130 135
122 152 149
113 135 134
110 133 134
135 162 162
0 0 0
144 179 185
119 153 162
129 158 162
109 129 118
130 156 149
135 162 162
148 177 162
122 155 157
117 152 162
114 135 134
78 96 98
148 181 184
148 179 174
95 125 135
133 173 185
123 155 162
104 126 118
141 177 185
123 149 135
106 127 118
111 133 134
156 164 167
106 131 135
107 128 118
128 155 149
135 161 162
143 176 174
134 161 162
66 89 99
129 156 149
149 182 184
133 155 134
126 157 162
117 152 162
92 120 118
155 181 155
142 163 148
103 130 126
144 159 117
109 132 134
124 156 162
131 158 143
130 159 162
107 132 135
142 175 174
107 128 118
158 162 155
95 125 135
117 137 134
132 157 149
118 137 134
123 155 162
121 136 117
115 132 118
102 129 135
152 183 184
149 177 162
131 157 149
122 155 162
156 183 173
158 184 173
136 162 161
149 181 184
145 175 162
106 125 132
124 153 149
71 92 98
152 179 161
138 161 149
132 160 162
108 129 118
137 157 134
106 127 118
131 159 162
127 157 162
136 157 134
119 135 117
127 155 149
153 182 173
142 178 185
127 157 162
135 162 162
99 127 135
107 131 135
152 181 173
133 158 149
142 161 134
128 158 162
90 91 127
117 134 117
135 161 162
110 133 134
136 160 149
76 95 98
124 153 149
110 133 134
108 129 118
102 129 135
110 133 134
161 186 173
70 92 98
115 151 162
112 134 134
104 130 135
123 155 162
101 125 118
141 175 174
143 176 174
120 153 162
125 156 162
143 176 174
127 154 149
147 180 185
148 181 184
153 179 161
124 156 162
143 178 185
97 126 135
81 97 98
140 174 174
88 102 97
124 150 135
109 129 118
105 127 118
153 181 173
114 135 134
132 157 149
131 179 173
97 126 135
130 159 162
105 127 118
112 134 134
142 166 161
131 156 149
148 181 184
140 162 148
127 157 162
143 178 185
135 162 162
143 178 185
103 126 118
0 0 0
103 129 135
113 147 149
142 175 174
124 138 117
103 126 118
131 160 162
111 134 134
99 127 135
140 174 174
110 133 134
107 131 135
132 138 155
134 159 149
87 101 98
148 178 174
71 92 98
108 129 118
118 152 162
127 157 162
139 161 148
99 124 118
134 161 162
116 130 97
154 182 173
135 172 174
122 133 97
134 161 162
86 100 98
132 160 162
140 177 185
112 134 134
114 132 118
107 131 135
123 153 149
134 156 134
133 135 155
146 178 174
137 157 134
161 189 184
97 126 135
115 136 134
117 152 159
127 157 162
108 132 134
158 180 148
150 180 173
129 159 162
124 147 158
120 153 162
78 96 98
148 172 181
106 131 135
137 160 149
132 160 162
133 161 162
130 156 149
115 148 149
146 177 178
135 167 149
127 157 162
139 164 161
154 182 173
134 161 162
112 131 118
107 132 135
107 131 135
98 127 135
108 132 134
142 161 134
115 136 134
102 129 135
133 161 162
101 128 135
70 92 98
134 161 162
133 158 149
131 159 162
149 181 184
143 164 148
126 157 162
75 94 98
142 175 174
146 177 174
151 180 173
84 129 117
107 131 135
128 149 157
125 156 162
138 173 174
129 158 162
129 156 149
141 177 185
118 131 97
135 162 162
127 157 162
126 157 162
152 181 173
143 173 158
127 157 162
142 178 185
0 0 0
127 155 149
131 159 162
100 124 118
109 132 134
121 136 117
138 161 148
139 174 174
147 181 185
101 125 118
111 134 134
131 159 162
144 179 185
91 123 135
154 184 184
66 89 99
75 94 98
134 161 162
126 151 134
150 175 148
151 181 173
112 134 134
105 130 135
125 154 141
154 180 161
146 180 185
133 155 134
129 158 162
121 154 162
113 144 151
126 157 162
79 96 98
128 155 149
133 160 162
124 156 162
75 94 98
110 133 134
146 180 185
144 179 185
94 124 135
71 92 98
133 161 162
127 157 162
156 183 173
128 155 149
99 124 118
120 151 149
148 181 184
83 99 98
138 161 148
134 159 149
127 154 149
112 134 134
108 127 131
103 126 118
114 135 134
155 182 173
116 137 134
116 138 133
124 138 117
133 160 162
140 159 134
152 183 184
114 151 162
135 159 149
103 129 135
83 98 98
124 156 162
119 153 162
133 158 148
134 161 162
125 153 149
74 94 98
119 138 134
132 155 134
129 153 134
125 156 162
144 162 152
153 184 184
110 130 118
144 177 174
142 174 183
140 177 185
128 158 162
155 183 173
114 136 134
118 150 149
116 136 134
126 157 162
123 155 162
131 159 162
163 187 173
122 152 149
107 131 135
130 159 162
122 155 162
126 154 149
150 182 184
111 134 134
102 129 135
132 160 162
104 130 135
136 160 149
152 183 184
141 132 143
0 0 0
98 127 135
111 134 134
83 98 98
103 129 135
145 180 185
101 128 135
148 164 133
76 90 71
66 90 99
133 153 146
142 163 148
145 180 185
119 135 117
135 162 162
141 177 185
146 180 185
135 159 149
116 137 134
109 129 118
161 188 184
135 162 162
103 130 135
145 165 148
146 180 185
129 156 149
141 165 161
83 99 98
149 180 173
108 129 118
108 129 118
128 158 162
79 96 98
131 159 162
132 157 149
151 178 161
70 92 98
159 185 173
83 99 98
128 158 162
132 160 162
105 130 135
138 163 161
128 158 162
69 91 98
76 90 71
109 133 134
92 99 70
108 129 118
138 155 117
107 132 135
153 184 184
131 159 162
122 137 117
101 128 135
157 184 173
144 164 148
139 164 161
106 131 135
125 153 149
122 137 117
119 153 162
118 152 162
123 155 158
84 94 71
134 161 162
111 134 134
137 163 161
119 135 117
129 158 162
146 180 185
152 179 162
160 186 173
135 162 162
125 153 149
119 153 162
137 160 148
69 91 98
130 159 162
107 132 135
119 151 145
163 187 173
99 127 135
123 152 149
135 156 134
117 134 117
138 163 161
110 126 97
133 158 149
111 134 134
106 131 135
130 159 162
87 101 98
111 130 118
69 91 98
103 94 126
142 177 185
82 98 98
140 165 161
103 129 135
106 131 135
155 183 173
137 160 148
129 156 149
138 161 148
108 132 134
129 158 162
138 160 148
118 135 117
126 154 149
100 127 135
108 132 134
111 131 118
122 140 134
151 180 173
74 94 98
0 0 0
113 135 134
86 121 124
112 134 134
144 176 174
125 153 149
150 178 162
101 129 126
72 93 98
103 129 135
128 155 149
152 179 161
131 160 162
134 158 149
133 158 149
68 90 98
130 159 162
128 158 162
143 178 185
111 134 134
110 130 118
102 129 135
115 151 162
116 137 134
116 136 134
144 179 185
122 152 149
120 144 158
92 120 118
129 156 149
103 129 135
129 158 162
116 151 162
153 172 160
148 181 184
135 159 149
162 184 161
113 135 134
128 177 173
122 154 162
130 156 149
153 182 173
120 151 149
148 181 184
140 177 185
82 98 98
158 187 184
138 161 148
120 153 162
125 156 162
124 153 149
130 156 149
139 164 161
159 185 173
100 128 135
112 147 150
141 177 185
108 129 118
111 134 134
131 159 162
121 154 162
145 177 174
133 158 149
116 130 97
82 93 71
150 176 171
130 159 162
139 172 162
134 161 162
74 94 98
115 136 134
130 156 149
146 178 174
105 130 135
109 133 134
104 130 135
131 156 149
111 134 134
158 182 161
161 189 184
161 182 148
121 139 134
67 90 98
106 131 135
113 135 134
79 96 98
133 160 162
127 157 162
116 151 162
141 175 174
137 160 149
149 179 173
131 157 149
123 155 162
70 91 98
158 182 161
125 150 134
155 183 173
145 180 185
103 129 135
109 129 118
106 131 135
83 19 85
154 182 173
116 136 134
107 128 118
141 177 185
101 128 135
123 155 162
130 156 149
75 94 98
156 186 184
120 154 162
87 101 98
135 159 149
132 157 149
128 155 149
149 179 173
139 161 148
156 185 184
130 159 162
113 131 118
132 157 149
139 176 185
108 132 134
155 182 173
152 181 173
114 132 117
139 164 161
140 164 161
135 161 162
151 178 161
78 96 98
126 154 149
114 135 134
121 154 162
151 183 184
123 155 162
156 163 178
107 132 135
134 161 162
145 179 185
132 157 149
107 131 135
133 160 162
119 135 117
144 177 174
118 138 134
103 129 135
105 131 135
146 180 185
124 156 162
130 159 162
124 156 162
132 160 162
124 156 162
152 181 173
110 126 97
107 95 126
124 156 162
139 161 148
105 130 135
152 183 184
137 160 148
122 152 149
79 91 71
88 102 98
81 98 98
104 127 118
143 164 148
71 92 98
136 157 134
131 147 147
94 125 135
82 98 98
100 128 135
144 167 161
129 158 162
143 178 185
150 180 173
127 154 149
120 136 117
142 178 185
105 127 118
126 154 149
129 156 149
153 184 184
144 167 161
141 175 174
131 154 134
129 158 162
148 176 162
125 156 162
135 161 162
148 179 173
92 124 135
116 133 117
152 181 173
83 94 71
109 133 134
143 178 185
132 160 162
67 90 99
111 130 118
125 156 162
67 90 92
121 136 117
131 157 149
115 133 117
132 160 162
155 185 184
128 158 162
129 153 134
142 178 185
143 178 185
132 158 149
0 0 0
80 97 98
120 145 118
127 155 149
128 158 162
141 163 148
112 134 134
142 163 148
152 183 184
95 101 70
127 157 162
111 134 134
78 96 98
93 125 128
131 160 162
118 153 162
109 132 134
137 163 161
147 178 170
139 176 185
88 101 98
127 157 162
109 129 118
148 181 184
148 181 184
109 132 134
98 127 135
0 0 0
136 160 149
104 93 126
95 125 135
137 160 149
139 164 161
130 159 162
126 154 149
157 186 184
104 130 135
147 181 185
123 174 174
139 161 148
74 94 98
66 90 99
86 100 98
0 0 0
126 157 162
135 139 155
122 154 158
124 156 162
127 154 149
96 126 135
129 158 162
101 128 135
116 133 118
147 176 162
131 154 134
109 133 134
132 160 162
120 136 117
76 95 98
111 130 118
133 158 149
117 137 134
110 133 134
136 159 149
141 177 185
122 155 162
107 128 118
144 179 185
108 132 134
95 125 135
116 130 97
122 154 162
149 179 173
134 161 162
140 174 174
67 90 99
142 178 185
139 176 185
137 160 148
129 158 162
122 154 162
136 162 162
121 151 149
116 133 117
162 187 173
144 176 174
115 148 149
128 158 162
151 182 184
142 160 134
146 180 185
132 160 162
112 138 148
145 179 185
131 172 185
125 156 162
119 138 134
108 132 135
133 161 162
117 137 134
120 136 117
129 158 162
120 151 143
126 157 162
130 159 162
99 127 135
151 182 184
96 122 118
136 162 161
69 91 98
118 138 134
106 131 135
159 185 173
155 185 184
141 157 117
116 149 149
113 135 134
135 162 162
141 160 134
130 159 162
141 175 174
134 161 162
146 178 174
112 134 134
150 177 161
146 175 162
111 134 134
155 181 161
127 154 149
151 183 184
140 165 161
112 131 118
116 130 97
130 159 162
125 153 149
128 158 162
106 127 118
136 162 161
133 158 149
131 159 162
143 176 174
114 135 134
148 173 181
105 131 135
126 157 162
113 128 97
102 125 118
135 155 146
116 151 162
137 160 148
127 157 162
77 95 98
131 159 162
121 154 162
106 131 135
130 159 162
136 156 179
107 131 135
109 121 100
124 155 162
151 183 184
141 177 185
134 161 162
131 157 149
133 161 162
116 136 134
136 160 149
114 132 117
122 149 135
143 173 162
100 128 135
152 183 184
77 95 98
149 182 184
153 184 184
138 161 149
142 166 161
83 99 98
97 126 135
107 132 135
129 156 149
110 133 134
124 153 149
127 157 162
70 91 98
142 160 134
129 158 162
109 129 118
121 151 149
136 157 134
0 0 0
150 182 184
143 176 174
149 181 184
111 130 118
135 162 162
138 163 161
156 181 161
80 97 98
135 159 148
137 160 148
114 132 118
165 188 173
154 184 184
154 182 173
113 132 117
130 159 162
96 102 70
144 176 174
99 124 118
138 163 161
136 154 117
131 172 185
147 180 185
137 170 162
141 166 160
153 181 173
128 155 149
126 154 149
108 132 134
117 152 162
130 159 156
70 91 98
106 131 135
122 155 162
122 155 162
132 157 149
155 178 148
124 133 155
115 136 134
140 174 174
0 0 0
139 158 134
69 91 98
149 165 133
93 124 135
121 136 117
147 176 162
152 179 162
88 102 98
69 86 71
125 139 117
148 176 162
82 98 98
131 159 162
72 93 98
139 159 134
124 156 162
117 149 149
129 158 162
75 89 71
127 154 149
158 187 184
74 94 98
105 130 135
138 163 161
121 151 149
115 132 117
130 159 162
134 171 174
111 130 118
144 179 185
170 190 161
127 154 149
132 154 134
118 134 117
143 164 148
100 128 135
107 131 135
148 181 184
130 159 162
109 121 129
79 96 98
154 178 148
133 158 149
147 180 185
138 163 161
104 130 135
123 155 162
112 134 134
115 129 97
148 181 184
118 138 134
105 97 126
96 122 118
144 179 185
82 98 98
136 174 185
107 132 135
119 153 162
129 134 155
145 174 162
95 125 135
110 133 134
148 181 184
128 158 162
129 159 162
109 133 134
153 182 173
113 135 134
158 185 173
150 182 184
120 153 162
120 153 162
138 161 148
121 139 134
120 153 162
127 155 149
152 181 173
140 177 185
124 156 162
157 184 173
94 121 118
136 162 162
140 159 134
146 159 164
148 181 184
112 134 134
130 156 149
100 97 127
106 131 135
136 162 162
110 133 134
104 127 118
139 164 161
132 155 134
115 132 117
131 169 174
148 176 162
68 91 98
143 174 162
116 133 117
95 122 118
119 138 134
151 183 184
135 162 162
106 131 135
95 125 135
130 159 162
157 184 173
146 177 174
131 159 162
151 183 184
143 176 174
129 156 149
143 178 185
154 184 184
141 177 185
111 130 118
131 159 162
155 180 161
130 175 173
123 152 149
64 83 72
131 159 162
127 155 149
134 161 162
131 159 162
81 93 71
139 164 161
148 179 173
113 132 118
113 135 134
131 159 162
105 130 135
124 153 149
153 182 173
121 151 149
102 129 135
144 165 148
100 128 135
146 180 185
121 151 149
99 127 135
142 175 174
152 183 184
104 126 118
82 93 71
135 161 162
103 126 118
145 177 174
154 180 162
131 159 162
125 156 162
84 99 98
126 157 162
109 129 118
135 178 173
119 153 162
109 133 134
135 159 149
128 155 149
126 156 162
127 100 134
115 133 117
111 134 134
110 133 134
129 156 149
109 133 134
127 146 144
75 94 98
106 131 135
149 179 173
155 185 184
129 158 162
159 185 173
108 129 118
137 175 185
122 155 162
123 147 118
114 135 134
132 160 162
123 152 149
164 188 173
133 158 149
153 184 184
128 134 155
138 176 185
74 94 98
112 134 134
145 179 185
130 159 162
117 152 162
141 172 162
154 182 173
102 129 135
154 179 171
94 121 118
139 164 161
111 134 134
132 157 149
133 158 149
83 99 98
126 154 149
66 84 72
129 158 162
120 151 149
137 162 161
73 93 98
129 155 149
103 129 135
139 176 185
143 163 148
127 155 149
137 160 148
98 123 118
135 159 149
111 131 118
101 128 135
102 125 118
129 158 162
149 179 173
65 89 99
104 130 135
137 160 148
130 159 158
120 133 97
148 181 184
159 183 161
130 159 162
65 89 99
121 151 149
114 132 117
142 166 161
78 96 98
75 94 98
119 147 134
145 180 185
113 135 134
102 129 135
81 98 98
131 170 174
104 146 158
105 127 118
96 122 118
112 131 118
147 181 185
134 159 149
110 133 134
136 162 161
139 161 148
86 100 98
111 134 134
135 159 149
83 98 98
131 159 162
129 158 162
114 135 134
124 153 149
148 173 181
116 137 134
131 157 141
112 131 118
135 159 149
136 162 162
146 178 174
123 137 117
107 131 135
66 89 99
149 181 184
123 152 149
81 98 98
142 176 174
115 148 149
96 126 135
144 176 174
93 100 70
139 161 148
127 154 149
110 133 134
109 129 118
133 160 162
113 135 134
106 131 135
82 98 98
134 158 149
106 131 135
140 174 174
114 135 134
148 179 173
134 159 149
134 158 149
101 128 135
109 126 98
137 175 185
81 97 98
159 186 167
111 130 118
138 164 161
83 98 98
104 126 118
129 158 162
79 96 98
121 140 134
117 152 162
125 154 149
137 163 161
133 160 162
144 179 185
102 125 118
128 150 117
113 135 134
103 126 118
130 159 162
141 162 148
137 163 161
131 159 162
108 132 134
80 97 98
109 132 134
137 175 185
100 127 135
135 162 162
95 122 118
147 176 162
111 134 134
142 163 148
148 176 162
145 179 185
130 159 162
126 156 162
100 124 118
164 188 173
108 132 134
157 186 184
137 175 185
105 127 118
0 0 0
155 180 161
151 160 167
124 156 162
139 176 185
94 125 135
148 178 174
106 124 98
128 158 162
132 160 162
81 97 98
124 153 149
145 165 148
114 135 134
126 136 97
122 152 149
134 159 149
139 159 134
119 153 162
119 153 162
141 175 174
127 157 162
158 187 184
117 134 117
111 133 134
141 162 148
126 157 162
148 177 162
122 137 117
92 134 117
75 94 98
117 134 117
77 95 98
106 131 135
119 135 117
131 160 162
110 133 134
150 182 184
115 132 118
127 155 149
110 133 134
94 117 98
140 173 183
132 170 174
142 178 185
106 127 118
91 99 70
127 153 160
137 162 161
108 132 134
120 154 162
132 157 149
131 157 149
127 154 149
122 150 160
0 0 0
102 129 135
164 186 161
125 156 162
95 125 135
122 154 162
122 154 162
85 95 71
131 159 162
119 153 162
125 156 162
116 133 117
133 160 162
132 160 162
142 160 134
128 155 149
112 134 134
138 161 148
152 179 161
96 126 135
143 174 162
120 148 135
128 158 162
151 183 184
118 152 162
115 132 118
127 154 149
105 130 135
71 92 98
122 152 149
131 159 162
125 156 162
155 185 184
134 161 162
161 182 148
130 159 162
137 163 161
96 126 135
83 99 98
149 182 184
128 158 162
145 179 185
137 160 148
157 184 173
123 155 162
125 150 135
130 159 162
130 159 162
151 183 184
112 131 118
154 182 173
133 155 134
136 159 148
138 158 134
149 179 173
125 156 162
106 131 135
146 178 174
142 163 148
124 153 149
152 179 162
123 152 149
138 163 161
133 158 149
124 153 149
128 155 149
141 163 148
100 124 118
129 158 162
82 98 98
144 177 174
119 132 97
113 131 117
146 177 174
124 155 162
107 131 135
109 132 134
135 161 162
108 129 118
129 158 162
152 179 162
134 158 149
143 173 162
119 150 149
135 161 162
99 127 135
108 129 118
132 157 149
106 131 135
114 135 134
90 98 71
128 155 149
122 137 117
108 132 135
84 99 98
131 154 134
129 158 162
134 158 149
123 152 149
140 164 161
121 136 117
124 156 162
135 162 162
142 163 148
121 154 162
125 153 149
133 161 162
143 166 161
152 183 184
62 82 72
106 131 135
107 131 135
142 176 169
148 178 173
124 156 162
127 155 149
83 99 98
123 152 149
103 130 135
130 159 162
131 159 162
133 158 149
124 142 132
122 155 162
135 162 162
118 135 117
106 131 135
120 139 134
130 159 162
122 155 157
105 131 135
111 133 134
125 156 162
151 178 162
131 157 149
151 181 173
147 178 174
126 157 162
143 176 174
65 89 99
134 174 185
139 164 161
148 176 161
136 159 148
113 132 117
113 135 134
121 154 162
138 173 174
145 180 185
126 157 162
152 183 184
126 154 149
135 174 185
126 157 162
159 180 148
116 133 118
130 156 149
118 134 117
133 160 162
113 135 134
120 135 117
126 154 149
115 136 134
115 148 149
142 161 134
139 161 148
126 156 162
125 153 149
0 0 0
109 129 118
147 180 185
80 97 98
136 162 162
130 156 149
117 137 134
149 179 173
118 135 117
79 96 98
124 138 117
133 161 162
122 155 162
128 133 155
108 129 118
153 184 184
147 180 185
114 135 134
104 130 135
114 135 134
71 92 98
121 154 162
107 131 135
130 159 162
151 180 173
130 156 149
116 152 157
127 154 149
134 161 162
84 99 98
138 163 161
132 157 149
131 159 162
74 94 98
138 181 173
109 133 134
152 183 184
130 156 149
119 153 162
125 139 117
97 126 135
154 184 184
130 159 162
103 130 135
127 157 162
136 162 161
126 154 149
147 176 162
131 159 162
132 157 149
148 178 173
124 153 149
119 135 117
132 158 149
138 176 185
151 182 184
124 155 162
84 99 98
126 154 149
153 184 184
133 161 162
69 91 98
124 153 149
125 153 149
117 137 134
146 180 185
99 127 135
98 123 118
135 169 162
121 154 162
82 93 71
147 178 173
135 159 149
157 186 184
155 183 173
115 132 117
146 180 185
122 149 134
74 94 98
132 157 149
88 102 97
114 147 149
100 128 135
126 157 162
114 132 118
145 177 174
153 181 173
129 158 162
119 146 147
150 182 184
133 161 162
157 186 184
79 97 98
137 163 161
134 173 185
138 158 134
135 162 162
137 171 183
104 126 118
67 90 99
134 161 162
146 178 174
67 90 99
147 180 185
156 186 184
134 161 162
136 162 161
0 0 0
148 177 161
134 158 148
130 156 149
116 133 117
125 153 149
127 157 162
110 133 134
115 133 117
69 91 98
96 126 135
129 156 149
82 98 98
134 173 185
114 135 134
140 172 162
122 133 97
102 125 118
125 153 149
130 159 162
116 137 134
154 178 148
140 174 174
123 153 149
86 100 98
148 181 184
99 127 135
123 152 149
118 150 149
74 94 98
129 158 162
106 131 135
130 156 149
137 163 161
140 175 174
134 158 149
117 134 117
138 158 134
132 160 162
130 156 149
154 182 173
134 161 162
93 100 70
147 180 185
108 132 135
158 182 161
153 184 184
149 180 173
131 159 162
148 181 184
142 178 185
113 144 135
116 137 134
109 133 134
138 161 148
141 163 148
112 131 118
79 97 98
137 160 148
117 152 162
84 99 98
106 131 135
130 159 162
72 93 98
146 178 174
115 133 117
126 157 162
154 182 173
93 121 118
109 132 134
106 131 135
121 151 143
96 126 135
128 158 162
135 159 149
136 154 117
140 162 148
139 174 174
143 178 185
109 133 134
122 172 174
141 155 179
108 132 134
114 132 117
160 188 184
146 163 133
136 162 161
116 133 117
126 157 162
104 130 135
129 155 149
146 175 162
107 128 118
136 159 148
129 159 162
128 158 162
109 133 134
124 156 162
133 161 162
116 151 162
114 135 134
93 124 135
117 137 134
108 132 134
131 159 162
117 134 118
0 0 0
130 156 149
150 180 173
135 156 134
104 127 118
94 122 108
128 158 162
151 183 184
115 136 134
100 124 118
113 136 126
138 163 161
138 173 174
149 179 174
151 183 184
162 186 173
147 178 173
150 180 173
114 135 134
142 178 185
105 130 135
143 176 174
134 161 162
147 176 162
130 159 162
141 165 161
0 0 0
104 130 135
123 155 162
113 135 134
121 154 162
109 133 134
151 180 173
67 90 99
132 160 162
133 158 149
122 137 117
144 179 185
146 177 174
125 153 149
133 158 149
121 154 162
156 183 173
123 155 162
142 175 174
83 98 98
138 173 174
137 163 161
100 124 118
122 152 149
137 160 149
104 130 135
115 136 134
150 182 184
119 153 162
149 182 184
136 159 149
100 128 135
118 152 162
90 98 71
134 159 149
127 157 162
115 136 134
126 156 162
126 154 149
134 159 149
110 133 134
145 165 148
75 94 98
99 127 135
113 135 134
102 129 135
132 155 134
134 158 149
146 178 174
112 131 118
97 126 135
122 154 162
112 134 134
112 134 134
156 185 184
65 89 99
121 154 162
115 136 134
130 153 134
136 160 148
144 176 174
143 178 185
144 179 185
119 150 149
133 158 148
81 98 98
132 157 149
124 155 162
81 98 98
119 150 149
151 183 184
100 124 118
108 132 134
131 157 149
136 157 134
132 155 134
137 163 161
124 153 149
137 163 161
119 153 162
0 0 0
142 166 161
150 182 184
137 160 148
151 180 173
133 161 162
125 156 162
119 153 162
131 159 162
149 182 184
80 97 98
120 153 162
140 162 148
109 129 118
124 156 162
101 128 135
157 186 184
140 159 134
81 97 98
116 152 162
156 185 184
125 156 162
151 183 184
135 159 149
160 181 148
117 137 134
128 158 162
143 176 174
140 165 161
155 185 184
124 155 162
115 151 162
143 164 148
133 160 162
94 125 135
149 181 184
136 162 162
130 159 162
156 181 161
114 135 134
124 156 162
121 151 149
0 0 0
96 122 118
123 153 149
139 164 161
130 159 162
149 179 173
100 124 118
136 160 149
152 183 184
134 173 181
124 156 162
70 91 98
150 180 173
108 132 134
93 124 135
133 161 162
105 130 135
162 186 173
109 129 118
112 134 134
134 161 162
150 180 173
109 132 134
106 128 110
155 183 173
108 132 134
128 158 162
128 158 162
120 153 162
98 123 118
98 127 135
141 178 179
144 179 185
132 160 162
121 154 162
155 181 161
108 125 98
151 180 173
112 134 134
113 147 149
160 186 173
126 151 134
140 162 148
115 136 134
143 176 174
136 162 161
129 158 162
138 158 134
163 188 173
149 177 162
147 178 174
106 131 135
112 131 118
150 182 184
127 152 134
121 151 149
107 128 118
74 94 98
134 158 148
103 129 135
105 131 135
144 177 174
107 132 135
131 157 149
113 135 134
65 84 72
153 184 184
89 102 97
113 132 118
116 133 117
150 180 173
124 155 162
141 162 148
120 135 117
136 157 134
115 136 134
119 135 117
0 0 0
134 161 162
100 128 135
144 176 174
138 163 161
117 152 162
130 159 162
139 164 161
104 130 135
103 129 135
129 158 162
150 182 184
94 125 135
123 138 117
113 132 117
102 119 115
128 155 149
77 95 98
99 127 135
112 134 134
102 129 135
130 159 162
121 154 162
148 181 184
151 178 161
133 160 162
130 159 162
109 129 118
121 151 149
129 156 149
133 161 162
139 164 161
130 159 162
147 178 173
112 134 134
108 132 134
129 158 162
120 151 149
107 131 135
141 160 134
110 133 134
130 153 134
138 176 185
119 150 149
153 179 161
132 160 162
128 155 149
149 181 184
109 132 134
121 154 162
128 158 162
133 161 162
88 102 98
133 152 117
133 155 134
131 159 162
139 161 148
126 154 149
132 160 162
129 158 162
87 101 98
140 177 185
128 158 162
144 174 162
100 124 118
112 145 160
116 133 118
126 156 162
152 183 184
127 157 162
106 131 135
128 152 134
0 0 0
109 133 134
67 90 99
150 182 184
119 147 135
108 132 134
150 180 173
122 154 162
141 175 174
92 120 118
147 180 185
156 163 167
113 135 134
129 155 149
138 161 148
107 131 135
126 154 149
106 131 135
137 175 185
135 162 162
105 127 118
131 159 162
109 126 98
137 163 161
108 132 134
140 177 185
132 160 162
120 132 97
79 97 98
112 134 134
133 155 134
134 159 149
113 135 134
107 132 135
157 181 161
111 130 118
124 156 162
136 162 162
118 152 162
110 133 134
159 187 184
98 127 135
126 157 162
134 161 162
126 157 162
157 184 173
138 176 185
122 155 162
138 161 148
133 160 162
131 157 149
130 156 149
118 153 162
106 131 135
142 163 148
153 182 173
118 150 149
143 178 185
111 133 134
158 187 184
105 130 135
84 95 71
135 159 148
130 159 162
134 161 162
147 178 173
154 182 173
123 128 156
108 132 134
125 153 149
153 183 184
80 97 98
145 179 185
148 174 169
153 184 184
116 136 134
141 177 185
129 158 162
132 160 162
110 133 134
140 173 183
130 156 149
143 161 134
144 176 174
131 156 149
111 131 118
146 177 174
119 153 162
160 186 173
155 183 173
69 91 98
131 157 149
111 134 134
0 0 0
129 158 162
151 178 161
102 129 135
146 168 161
122 155 162
142 173 162
87 101 98
71 92 98
128 155 149
153 179 161
86 101 98
138 160 148
132 160 162
120 136 117
106 131 135
134 161 162
127 148 125
158 185 173
153 184 184
110 133 134
118 138 134
120 153 162
106 131 135
159 187 184
103 129 135
84 99 98
110 133 134
114 135 134
124 156 162
0 0 0
97 116 129
148 181 184
150 178 162
122 155 162
103 129 135
160 185 173
152 183 184
112 134 134
140 164 161
121 154 162
136 160 149
131 160 162
127 157 162
124 156 162
82 98 98
82 98 98
85 100 98
125 156 162
120 151 149
94 125 135
158 186 184
153 182 173
125 156 162
118 137 134
131 157 149
121 154 162
0 0 0
132 158 149
158 184 173
106 131 135
148 176 162
84 99 98
104 126 118
124 156 162
88 102 98
129 156 149
149 179 173
128 155 149
0 0 0
139 159 134
146 178 173
128 155 149
92 124 135
127 157 162
143 176 174
80 97 98
125 156 162
146 180 185
109 133 134
0 0 0
67 90 99
130 156 149
69 91 98
108 132 134
138 173 174
87 101 98
124 156 162
106 131 135
152 183 184
118 149 149
127 154 149
109 132 134
145 177 174
136 162 161
148 181 184
104 130 135
118 134 117
61 87 86
121 142 147
103 129 135
147 180 185
129 158 162
130 136 155
134 158 149
129 158 162
113 131 118
142 177 182
100 128 135
120 151 149
109 133 134
0 0 0
142 163 148
118 138 134
106 131 135
140 156 117
94 101 70
119 153 162
103 129 135
85 100 98
117 137 134
120 151 149
120 153 162
137 160 149
118 148 160
132 160 162
154 184 184
136 172 174
123 152 149
108 129 118
108 132 134
135 161 162
126 157 162
127 157 162
147 173 149
96 126 135
135 161 162
125 151 135
108 128 118
149 167 148
117 152 162
75 94 98
150 180 173
119 153 162
120 150 149
67 90 99
111 134 134
117 134 117
145 175 162
139 161 148
99 127 135
125 153 149
145 179 185
109 133 134
118 150 149
126 156 162
105 130 135
130 159 162
130 159 162
114 135 134
133 161 162
146 165 148
106 127 118
116 137 134
136 160 148
75 94 98
127 157 162
81 92 71
123 155 162
112 131 118
134 159 148
126 157 162
113 131 117
134 158 149
113 135 134
142 175 174
107 128 118
113 135 134
149 179 174
97 126 135
129 155 149
67 90 98
94 121 118
131 157 149
97 112 116
129 153 134
110 133 134
120 149 160
121 151 149
111 127 97
139 164 161
132 155 134
129 155 149
126 156 162
139 164 161
141 173 162
135 172 168
139 176 185
68 91 98
146 163 133
119 153 162
147 180 185
157 184 173
138 164 161
121 139 134
127 157 162
133 161 162
138 173 174
136 162 161
127 155 149
136 162 161
127 157 162
132 160 162
129 153 134
126 152 160
125 154 149
112 129 131
126 154 149
89 102 97
140 162 148
143 176 174
127 157 162
109 133 134
103 129 135
142 159 179
153 184 184
102 129 135
120 154 162
88 102 98
107 132 135
111 130 118
136 160 148
144 179 185
149 179 173
154 180 161
102 126 118
133 160 162
142 163 148
108 132 134
140 175 174
118 152 162
111 130 118
112 134 134
82 98 98
130 159 162
134 158 149
130 156 149
105 130 135
114 135 134
136 162 161
117 134 117
118 152 162
154 182 173
132 157 149
132 158 149
137 160 148
128 155 149
132 157 149
131 157 149
134 161 162
110 130 118
126 157 162
136 162 161
112 147 150
71 92 98
127 154 149
123 155 162
130 156 149
104 130 135
106 131 135
138 176 185
0 0 0
128 158 162
123 155 162
82 98 98
150 178 162
134 159 149
107 132 135
116 133 118
140 177 185
144 162 134
122 154 162
114 135 134
105 127 118
121 151 149
125 156 162
151 180 173
96 126 135
110 133 134
126 154 149
138 173 174
87 101 98
157 184 173
140 165 161
95 125 135
139 156 117
106 131 135
128 155 149
115 133 118
76 89 71
123 155 162
118 153 162
131 159 162
160 183 161
132 160 162
160 188 184
99 127 135
94 124 135
110 133 134
123 155 162
97 126 135
134 161 162
134 151 157
146 180 185
125 156 162
158 182 161
128 155 149
125 156 162
109 133 134
134 161 162
133 160 162
140 176 185
142 157 179
149 179 174
132 160 162
130 156 149
97 126 135
139 176 185
110 133 134
134 156 134
131 154 134
147 180 185
110 133 134
77 95 98
157 184 173
138 161 148
140 174 174
132 160 162
137 160 149
146 180 179
117 134 117
145 179 185
147 180 185
102 129 135
115 136 134
106 131 135
128 155 149
144 174 162
120 154 162
99 124 118
138 171 162
130 156 149
103 126 118
122 155 162
104 127 118
129 156 149
71 92 98
143 178 185
143 176 174
148 181 184
106 125 132
114 148 149
106 128 118
124 155 162
101 129 130
73 93 98
157 182 161
138 163 161
147 178 174
93 100 70
105 130 135
124 156 162
127 157 162
118 150 149
111 134 134
150 180 173
75 94 98
128 157 162
130 159 162
146 180 185
129 155 149
80 97 98
101 128 135
150 180 173
115 136 134
157 184 173
101 128 135
112 134 134
148 181 184
133 161 162
102 125 118
154 182 173
117 152 162
132 160 162
131 159 162
124 153 149
127 152 134
112 134 134
134 161 162
140 164 161
122 144 132
106 131 135
153 179 161
133 160 162
139 171 162
109 145 150
134 158 149
137 173 174
104 130 135
134 158 149
148 176 162
141 177 185
124 153 149
144 176 174
89 98 71
134 159 149
126 157 162
138 163 161
108 129 118
140 174 174
135 159 149
128 155 149
109 132 134
141 162 148
146 180 185
142 175 174
107 132 135
143 166 161
102 129 135
131 157 149
120 154 162
87 101 98
127 157 162
126 157 162
91 123 135
133 160 162
156 183 173
82 98 98
117 134 117
108 132 134
148 158 179
115 132 117
124 153 149
123 155 162
134 161 162
134 161 162
123 155 162
135 162 162
108 125 129
112 131 118
128 155 149
139 164 161
126 154 149
131 159 162
128 158 162
128 158 162
118 138 134
128 158 162
100 128 135
118 150 149
109 132 134
118 138 134
126 157 162
153 183 184
126 154 149
147 166 148
133 160 162
94 125 135
127 154 149
121 136 117
124 153 149
137 163 161
153 181 173
131 159 162
144 179 185
132 160 162
111 134 134
144 177 174
135 162 162
139 162 148
123 152 149
115 132 117
127 157 162
103 129 135
156 181 161
132 160 162
83 98 98
136 162 162
116 130 97
135 156 134
81 97 98
146 180 185
131 139 96
119 135 117
141 175 174
125 153 149
139 162 148
137 163 161
152 183 184
130 153 134
149 179 173
109 132 134
115 151 157
156 186 184
129 158 162
101 125 118
102 129 135
158 182 161
106 131 135
125 156 162
149 182 184
140 162 148
120 151 149
104 126 118
154 184 184
125 153 149
121 151 149
126 154 149
126 157 162
105 127 118
149 177 162
124 155 162
143 166 161
100 128 135
107 129 110
116 151 162
120 136 117
107 131 135
105 130 135
105 130 135
130 159 162
152 183 184
93 124 135
111 130 118
118 153 162
102 129 135
150 182 184
131 160 162
105 130 135
155 185 184
135 156 134
140 177 185
88 102 97
124 150 134
109 148 163
81 92 71
116 137 134
115 136 134
139 176 185
79 96 98
149 182 184
119 153 162
74 94 98
134 161 162
134 161 162
123 155 162
132 160 162
125 157 157
101 128 135
106 131 135
141 160 134
108 132 134
111 134 134
94 125 135
144 167 161
134 158 149
79 97 98
110 133 134
70 92 98
137 160 149
81 98 98
128 155 149
137 160 148
128 158 162
137 160 149
143 178 185
141 163 148
104 130 135
132 160 162
132 160 162
117 134 117
117 134 117
113 135 134
0 0 0
101 128 135
99 127 135
135 162 162
108 132 134
132 160 162
129 158 162
105 127 118
153 181 173
137 160 148
136 163 160
105 131 130
109 133 134
107 132 135
101 128 135
159 185 173
69 91 98
108 132 134
73 93 98
153 184 184
83 94 71
143 176 174
122 137 117
123 152 149
84 99 98
136 159 149
135 162 162
149 182 184
147 176 162
0 0 0
137 163 161
147 180 185
149 177 162
147 178 173
112 134 134
101 128 135
132 157 149
132 160 162
87 115 132
116 151 162
129 158 162
134 161 162
101 128 135
103 129 135
130 159 162
118 137 134
123 155 162
74 94 98
149 182 184
121 154 162
137 175 185
120 136 117
127 154 149
103 129 135
106 131 135
86 100 98
134 161 162
110 133 134
148 181 184
108 128 118
157 181 161
155 181 161
94 125 135
102 129 135
130 156 149
127 157 162
141 177 185
129 158 162
105 131 135
150 180 174
145 177 174
146 180 185
153 181 173
130 156 149
118 131 97
107 131 135
131 157 149
84 99 98
162 184 161
135 162 162
87 101 98
133 158 149
112 134 134
122 155 162
131 151 117
142 175 174
112 131 118
148 179 173
131 159 162
101 128 135
132 160 162
136 162 162
78 96 98
117 152 162
122 155 162
102 128 135
127 157 162
156 178 148
126 157 162
104 130 135
110 130 118
127 157 162
84 99 98
125 156 162
141 177 185
106 127 118
107 131 135
108 132 134
124 155 162
145 177 174
142 178 185
128 152 134
159 185 173
104 130 135
103 129 135
113 135 134
113 135 134
108 129 118
83 99 98
88 118 119
134 159 149
130 159 162
131 159 162
130 159 162
112 134 134
129 158 162
141 165 161
124 156 162
148 181 184
96 125 128
130 159 162
106 128 118
129 156 149
140 174 174
163 185 161
80 97 98
135 159 149
112 134 134
144 179 185
152 181 170
150 182 184
140 176 185
129 159 162
151 178 161
78 96 98
120 154 162
129 158 162
134 161 162
109 133 134
123 155 162
115 148 149
152 181 173
137 163 161
142 163 148
83 98 98
147 178 174
95 118 98
112 131 118
109 133 134
127 154 149
103 129 135
100 128 135
69 91 98
110 146 150
105 130 135
95 122 118
132 170 174
135 159 148
130 153 134
158 185 173
132 154 134
131 159 162
139 159 134
134 161 162
113 132 118
150 180 173
134 156 134
114 136 134
124 153 149
120 151 149
100 128 135
155 181 161
88 121 129
117 152 162
149 179 174
141 177 185
127 157 162
118 135 117
107 131 135
128 155 149
157 184 173
144 174 162
110 133 134
126 156 162
134 158 149
139 174 174
67 92 88
116 133 117
144 179 185
140 177 185
122 130 156
115 151 162
150 182 184
143 174 162
111 134 134
65 17 86
132 160 162
110 130 118
96 126 135
111 131 118
150 182 184
81 98 98
147 180 185
147 181 185
152 183 184
81 97 98
106 131 135
149 179 174
132 155 134
137 163 161
104 126 118
141 165 161
79 96 98
122 154 162
117 149 149
114 135 134
127 157 162
134 159 149
128 158 162
118 152 162
133 158 149
154 164 179
134 161 162
112 134 134
127 154 149
153 182 173
109 132 134
114 135 134
107 128 118
143 169 172
108 132 134
130 171 185
123 155 162
129 158 158
134 161 162
148 181 184
134 158 149
163 183 148
79 91 71
138 164 161
125 156 162
107 128 118
101 118 129
134 158 149
104 130 135
113 132 117
127 157 162
128 145 144
108 132 134
140 172 162
149 181 184
150 177 161
155 183 173
128 158 162
144 179 185
138 176 185
124 133 155
140 176 185
127 157 162
118 131 97
139 161 148
109 132 134
85 100 98
130 171 185
79 96 98
125 156 162
137 160 149
100 124 118
136 177 161
75 94 98
153 182 173
119 153 162
99 124 118
136 162 162
107 131 135
133 161 162
111 133 134
143 161 134
103 129 135
126 157 162
127 157 162
142 178 185
110 133 134
131 157 149
101 128 135
136 162 161
152 181 173
102 129 135
113 128 97
121 154 162
126 154 149
122 152 149
123 155 162
141 177 185
102 129 135
130 159 162
134 158 149
85 95 71
132 157 149
152 181 173
135 159 149
150 175 148
115 132 117
105 127 118
133 161 162
148 181 184
137 157 134
149 177 162
68 90 98
127 155 149
115 151 162
73 93 98
137 157 134
124 156 162
110 130 118
103 129 135
130 156 149
148 181 184
94 125 135
135 162 162
136 160 148
142 177 185
125 153 149
125 153 149
126 158 155
108 132 134
144 177 174
158 186 184
154 180 161
157 186 184
95 125 135
127 157 162
134 161 162
148 181 184
144 177 174
122 137 117
125 156 162
70 92 98
98 127 135
138 160 148
110 130 118
128 158 162
152 181 173
120 153 162
156 183 173
151 163 179
106 127 118
136 162 162
153 181 173
132 160 162
89 102 97
155 183 173
137 163 161
146 178 174
146 177 174
151 180 173
121 154 162
147 180 185
128 158 162
134 156 134
142 176 174
117 134 117
125 154 141
128 155 149
145 167 161
110 133 134
142 175 174
106 128 118
108 132 134
111 134 134
144 164 148
126 157 162
141 173 162
129 158 162
101 128 135
112 131 118
108 132 134
140 165 161
154 184 184
150 182 184
128 158 162
125 156 162
151 180 173
158 187 184
106 131 135
104 130 135
159 187 184
127 157 162
100 128 135
109 133 134
124 156 162
144 179 185
103 130 128
126 154 149
148 181 184
136 159 149
136 160 149
110 127 97
113 135 134
146 178 174
132 157 149
130 159 162
102 129 135
153 182 173
116 152 162
151 181 173
150 182 184
81 98 98
114 135 134
143 178 185
108 132 134
121 154 162
71 92 98
115 151 162
114 132 118
135 174 185
122 154 162
115 133 118
112 131 118
132 157 149
132 160 162
161 186 173
132 157 149
145 180 179
148 177 162
107 128 118
143 176 174
148 179 173
155 181 161
101 128 135
135 162 162
122 155 162
131 159 162
130 156 149
155 183 173
138 163 161
132 160 162
106 131 135
151 180 173
155 185 184
135 174 185
101 128 135
135 159 148
125 156 162
116 136 134
114 147 149
111 134 134
120 153 162
127 157 162
129 158 162
144 179 185
116 133 117
151 182 184
126 154 149
147 180 185
133 158 149
123 155 162
107 132 135
83 98 98
146 180 185
142 175 174
111 133 134
147 178 174
142 177 185
136 162 161
117 134 117
113 132 118
138 161 148
133 161 162
114 145 151
145 180 185
131 154 134
106 128 118
134 161 162
135 159 148
0 0 0
125 156 162
132 160 162
130 169 174
159 185 173
117 137 134
114 135 134
153 181 173
110 133 134
112 131 118
144 176 174
123 137 117
96 127 126
124 156 162
128 155 145
127 152 134
143 176 174
132 160 162
119 153 162
74 94 98
134 158 149
148 181 184
108 129 118
149 179 174
129 158 162
125 156 162
102 126 118
123 155 162
143 178 185
84 99 98
129 158 162
151 183 179
128 158 162
154 180 161
107 128 118
148 181 184
153 182 173
104 130 135
126 157 162
129 158 162
153 184 184
123 155 162
139 176 185
104 130 135
114 135 134
110 133 134
132 160 162
129 158 162
100 128 135
152 181 173
113 131 118
127 155 149
73 93 98
76 95 98
130 159 162
142 178 185
116 152 162
130 159 162
132 154 134
85 100 98
99 124 118
148 181 184
73 93 98
144 179 185
117 152 162
152 177 148
111 131 118
119 153 162
135 159 149
136 162 161
135 159 149
136 162 162
136 159 149
73 93 98
109 133 134
124 153 149
120 153 162
108 132 134
138 161 148
106 131 135
150 177 161
137 175 185
147 180 185
115 151 162
146 163 133
150 182 184
133 160 162
113 135 134
128 155 149
141 177 185
109 129 118
123 155 162
104 130 135
161 184 161
158 184 173
117 152 162
152 181 173
106 131 135
132 157 149
137 160 148
151 183 184
126 157 162
149 177 162
126 156 162
103 129 135
125 156 162
123 152 149
115 136 134
137 158 134
113 150 163
111 130 118
85 100 98
143 178 185
142 163 148
100 128 135
107 128 118
106 131 135
104 124 132
123 152 149
130 159 162
145 180 185
127 152 134
110 130 118
141 177 185
129 159 162
149 181 184
111 134 134
121 139 134
104 126 118
102 129 135
134 161 162
151 178 161
151 183 184
148 179 174
127 157 162
89 122 135
119 153 162
156 179 148
143 176 174
160 188 184
145 168 161
101 128 135
108 132 134
102 129 135
128 155 149
110 130 118
140 174 174
115 136 134
143 178 185
154 184 184
105 127 118
148 181 184
135 156 134
133 160 162
69 91 98
130 159 162
146 165 148
142 159 179
126 157 162
138 158 134
135 162 162
147 180 185
121 151 149
123 155 162
128 158 162
109 133 134
129 158 162
163 187 173
130 156 149
106 128 118
102 129 135
131 157 149
154 184 184
126 155 141
97 126 135
156 186 184
137 157 134
119 153 162
112 134 134
157 182 161
94 124 135
108 132 134
114 135 134
70 92 98
137 175 185
124 155 162
111 134 134
152 183 184
141 177 185
159 187 184
110 130 118
143 176 174
140 154 157
79 96 98
117 152 162
110 126 97
132 157 149
66 90 99
137 158 134
135 162 162
150 182 184
125 153 149
151 180 173
137 163 161
111 130 118
124 153 149
111 130 118
135 159 149
115 136 134
119 153 162
112 134 134
131 154 134
109 133 134
138 175 185
143 164 148
102 125 118
156 186 184
108 129 118
134 161 162
120 153 162
132 157 149
106 131 135
124 156 162
130 153 134
150 180 173
121 136 117
139 174 174
128 158 162
83 98 98
153 181 173
122 152 149
144 179 185
153 181 173
128 158 162
131 157 149
139 174 174
104 130 135
76 95 98
120 132 97
133 158 149
114 135 134
142 176 174
131 156 149
117 149 149
133 155 134
88 97 71
87 101 98
102 125 118
0 0 0
113 132 117
126 154 149
146 180 185
135 162 162
104 130 135
142 173 162
107 131 135
140 165 161
107 128 118
86 100 98
106 128 118
116 136 134
118 152 162
79 96 98
154 184 184
148 181 184
139 161 148
118 152 162
145 180 185
117 124 142
142 178 185
124 138 117
107 131 135
119 135 117
132 160 162
129 158 162
110 130 118
0 0 0
131 159 162
126 157 162
109 129 118
130 159 162
114 135 134
121 139 134
86 100 98
126 154 149
65 89 99
80 97 98
131 156 149
123 155 162
133 158 149
148 179 173
117 152 162
142 175 174
112 131 118
145 177 174
136 162 161
149 179 173
109 132 134
132 160 162
137 157 134
110 133 134
135 156 134
134 161 162
129 159 162
120 139 134
122 154 162
140 174 174
72 93 98
127 154 149
141 177 185
107 128 118
158 187 184
95 125 135
137 158 134
135 159 149
86 96 71
150 180 173
72 93 98
101 128 135
153 177 148
112 134 134
138 161 149
133 160 162
134 173 185
126 154 149
102 125 118
113 135 134
139 164 161
121 154 162
149 179 173
138 161 148
127 155 149
125 156 162
135 159 148
103 126 118
136 159 149
147 181 185
137 163 161
149 181 184
135 162 162
144 179 185
66 90 99
101 128 135
132 160 162
148 176 162
130 159 162
116 152 162
129 158 162
116 145 135
108 132 134
131 159 162
126 157 162
112 134 134
134 161 162
120 136 117
150 173 150
120 139 134
125 156 162
96 122 118
141 163 148
128 158 162
107 125 98
104 130 135
78 96 98
144 179 185
121 139 134
129 158 162
120 153 162
129 158 162
127 157 162
114 132 118
144 174 162
82 98 98
147 180 185
153 177 148
105 130 135
139 164 161
118 149 149
120 136 117
107 128 118
113 150 163
127 157 162
149 182 184
131 156 149
128 158 162
157 184 173
111 130 118
126 154 149
110 133 134
117 149 149
116 133 117
126 154 149
124 153 149
149 182 184
83 98 98
134 161 162
104 130 135
130 154 134
147 178 173
80 97 98
143 164 148
114 150 163
104 130 135
136 162 161
152 181 173
155 185 184
120 153 162
150 180 173
148 179 173
156 183 173
130 172 181
152 183 184
129 158 162
128 158 162
160 183 161
107 131 135
156 183 173
129 158 162
129 158 162
129 158 162
127 157 162
105 127 118
72 93 98
124 156 162
111 130 118
105 130 135
144 179 185
124 156 162
106 131 135
153 182 173
145 179 185
155 183 173
110 130 118
143 174 162
156 179 148
104 130 135
107 132 135
133 161 162
123 155 162
138 176 185
104 130 135
128 154 160
116 137 134
118 152 162
154 180 161
114 136 134
124 153 149
143 161 134
93 124 135
124 153 149
159 185 173
139 161 148
134 156 134
136 162 162
125 156 162
151 181 173
100 128 135
151 183 184
130 159 162
94 92 127
95 119 132
128 158 162
103 126 118
123 133 156
149 181 184
83 98 98
132 158 149
133 161 162
152 181 173
106 131 135
111 149 163
144 179 185
104 130 135
134 158 148
110 130 118
112 131 118
161 181 148
133 158 149
109 132 134
130 156 149
123 155 162
121 154 162
148 179 173
125 153 149
136 160 148
131 160 162
87 96 71
126 151 134
103 126 118
134 156 134
153 181 173
126 157 162
76 95 98
146 178 174
103 126 118
145 177 174
137 162 161
135 162 162
154 184 184
142 176 174
135 159 148
111 131 118
106 127 118
98 119 98
106 131 135
84 99 98
129 158 162
110 130 118
121 154 162
128 157 162
143 178 185
125 156 162
161 189 184
130 159 162
134 158 149
143 178 185
142 161 134
97 111 116
160 186 173
150 182 184
87 101 98
142 178 185
147 155 168
156 183 173
142 173 162
126 154 149
126 157 162
104 130 135
140 177 185
131 157 149
131 157 149
127 155 149
91 99 70
132 160 162
146 178 174
153 182 173
155 180 161
141 177 185
122 155 162
126 157 162
141 162 148
131 154 134
161 186 173
136 159 149
147 178 174
113 135 134
135 157 134
104 125 142
125 154 149
131 157 149
145 177 174
159 187 184
112 131 118
149 182 184
108 125 98
135 162 162
124 153 149
110 133 134
155 183 173
115 136 134
140 164 161
124 156 162
97 126 135
131 157 149
143 178 185
154 182 173
148 181 184
111 134 134
108 132 134
103 129 135
132 157 149
129 158 162
123 152 149
125 151 134
138 176 185
157 184 173
150 182 184
125 151 134
112 131 118
149 165 133
115 133 117
136 162 162
120 153 162
115 136 134
130 156 149
135 159 149
106 131 135
131 160 162
87 101 98
133 161 162
89 102 97
130 153 134
122 154 162
107 131 135
153 181 173
127 154 149
148 176 162
142 175 174
130 159 162
125 156 162
114 157 148
138 160 148
108 132 134
0 0 0
129 158 162
99 127 135
99 127 135
127 157 162
119 150 149
146 181 180
136 162 161
100 128 135
127 152 134
107 128 118
72 93 98
154 182 173
101 128 135
157 186 184
129 158 162
96 126 135
124 156 162
144 179 185
140 172 162
127 155 149
90 123 135
116 151 162
104 130 135
99 123 118
86 100 98
103 129 135
131 157 149
158 184 173
93 124 135
108 132 134
145 177 174
126 157 162
67 90 99
107 131 135
135 159 149
122 132 156
150 177 162
110 133 134
105 130 135
140 174 174
105 130 135
140 174 174
130 150 157
119 153 162
128 158 162
141 177 185
76 95 98
125 153 149
150 180 173
155 183 173
119 153 162
133 158 149
110 133 134
130 159 162
127 157 162
152 183 184
120 154 162
112 134 134
121 154 162
110 133 134
101 125 118
133 160 162
138 161 148
149 182 184
120 145 118
144 179 185
132 157 149
83 98 98
126 157 162
144 179 185
148 178 174
152 179 161
137 162 161
120 151 149
125 156 162
115 136 134
133 158 149
135 162 162
151 164 179
124 155 162
133 159 141
148 179 173
149 182 184
149 177 162
146 178 174
73 93 98
151 183 184
107 132 135
131 160 162
120 153 162
126 157 162
133 173 185
146 178 174
131 157 149
128 158 162
146 180 185
141 177 185
110 133 134
142 178 185
132 160 162
127 157 162
145 179 185
125 156 162
145 180 185
112 134 134
121 151 149
122 155 162
145 177 174
145 179 185
130 156 149
96 122 118
106 131 135
111 134 134
147 181 185
143 176 174
119 135 117
131 159 162
114 147 149
123 155 162
137 163 161
143 164 148
126 151 134
149 181 184
118 152 162
114 132 117
139 161 148
146 178 174
139 176 185
133 134 155
100 128 135
106 124 98
158 187 184
127 157 162
131 157 149
123 155 162
124 153 149
121 154 162
71 92 98
121 137 117
126 154 149
124 156 162
107 131 135
120 150 149
140 177 185
128 155 149
123 155 162
134 161 162
127 157 162
137 173 174
157 186 184
136 175 185
127 155 149
123 155 162
112 131 118
121 136 117
117 152 162
93 124 135
83 99 98
148 181 184
126 157 162
148 179 174
119 153 162
133 155 134
103 126 118
128 158 162
133 155 134
114 136 134
137 163 161
99 127 135
126 157 162
130 159 162
113 135 134
105 127 118
123 155 162
127 157 162
107 128 118
108 132 134
123 152 149
146 177 174
139 164 161
65 71 90
128 155 149
141 175 174
158 185 173
141 162 148
122 154 162
122 154 162
125 147 158
127 155 149
0 0 0
113 131 118
138 161 148
136 172 174
151 180 173
143 178 185
123 152 149
96 125 135
144 179 185
129 156 149
126 157 162
147 178 174
120 154 162
115 145 135
147 181 185
69 91 98
148 178 174
152 181 173
150 180 173
155 180 161
151 183 184
101 128 135
112 134 134
116 136 134
119 153 162
139 164 161
145 179 185
130 159 162
148 179 173
133 160 162
132 170 174
130 156 149
126 156 162
117 152 162
151 182 184
135 169 162
98 123 118
104 130 135
123 155 162
94 125 135
155 181 161
103 129 135
105 130 135
125 154 149
109 132 134
159 183 161
150 180 173
138 173 174
151 181 173
113 135 134
147 176 162
142 175 174
138 161 149
143 176 174
116 136 134
140 162 148
148 181 184
157 186 184
151 180 173
123 149 134
129 158 162
96 125 135
133 160 162
104 130 135
139 159 134
147 175 167
135 161 162
140 162 148
159 185 173
132 157 149
128 155 149
134 156 134
154 184 184
106 131 135
127 157 162
123 155 162
116 136 134
145 165 148
133 158 149
134 161 162
102 129 135
121 154 162
118 138 134
67 90 98
129 156 149
107 131 135
156 181 161
139 174 174
150 180 174
125 154 149
106 128 118
144 179 185
124 156 162
126 157 162
91 123 135
154 182 173
146 175 162
127 157 162
134 161 162
132 160 162
125 154 149
0 0 0
131 154 134
159 187 184
78 96 98
70 91 98
147 180 185
126 154 149
103 126 118
105 127 118
152 183 184
100 124 118
102 125 118
143 178 185
136 157 134
104 126 118
102 128 135
136 162 161
117 134 117
150 182 184
164 186 161
73 93 98
142 173 162
155 180 161
152 181 173
155 185 184
138 161 148
142 178 185
142 178 185
0 0 0
132 160 162
140 159 134
115 136 134
125 154 149
114 132 117
111 134 134
124 138 117
132 157 149
135 162 162
115 148 149
157 184 173
156 185 184
123 155 162
155 178 148
122 152 149
113 135 134
113 131 117
111 133 134
119 150 143
130 172 181
108 132 134
102 125 118
97 123 118
126 157 162
120 154 162
136 172 169
130 159 162
140 165 161
148 179 174
131 160 162
128 157 162
126 156 162
125 153 149
140 177 185
132 157 149
157 182 161
126 157 162
97 126 135
137 163 161
132 160 162
131 159 162
156 183 173
118 153 162
138 176 185
137 163 161
111 134 134
122 144 147
131 159 162
138 176 185
145 177 174
76 95 98
122 154 162
139 177 180
136 159 148
104 130 135
109 103 126
108 132 134
132 157 149
130 159 162
111 134 134
119 138 134
115 133 118
82 98 98
108 128 118
93 124 135
141 177 185
101 128 135
124 153 149
149 181 184
120 154 162
106 131 135
136 162 162
119 153 162
124 153 149
131 160 162
134 159 149
111 133 134
125 153 149
147 178 174
73 93 98
127 154 149
128 158 162
108 132 134
120 130 156
125 153 149
114 135 134
151 180 173
137 175 185
146 180 185
95 125 135
127 157 162
124 155 162
116 136 134
119 153 162
132 158 149
124 156 162
154 182 173
95 121 118
145 179 185
144 177 174
107 131 135
146 177 174
131 159 162
156 179 148
67 90 99
104 127 118
124 153 149
88 101 98
143 164 148
85 100 98
123 155 162
150 182 184
114 135 134
113 131 118
141 165 161
148 176 162
151 180 173
132 157 149
147 180 185
132 160 162
127 157 162
157 186 184
131 157 149
156 185 184
149 179 173
129 156 149
113 131 118
142 178 185
142 176 174
120 153 162
135 156 134
100 128 135
113 150 163
153 182 173
137 160 148
137 160 148
137 158 134
106 127 118
113 135 134
99 127 135
142 178 185
146 180 185
141 160 134
112 131 118
143 176 174
130 156 149
126 154 149
124 155 162
72 93 98
81 98 98
88 97 71
146 175 162
137 163 161
115 136 134
136 159 149
119 138 134
130 159 162
126 154 149
142 178 185
165 188 173
138 161 148
122 149 135
128 157 162
152 181 173
142 166 161
148 181 184
142 178 185
151 178 162
126 157 162
100 128 135
111 130 118
111 134 134
120 139 134
119 138 134
144 176 174
142 175 174
104 130 135
125 156 162
113 135 134
140 151 155
147 180 185
118 150 149
132 160 162
115 136 134
121 154 162
146 180 185
123 150 134
145 177 174
149 182 184
101 128 135
0 0 0
99 124 118
119 138 134
129 153 134
119 153 162
125 139 117
127 157 162
123 155 162
109 129 118
133 160 162
104 127 118
134 161 162
110 133 134
129 155 149
142 163 148
127 157 162
159 185 173
110 127 97
150 182 184
106 131 135
87 101 98
125 156 162
105 123 98
120 153 162
124 153 149
108 132 135
133 158 149
112 134 134
154 182 173
141 173 162
139 164 161
140 164 161
148 181 184
133 158 149
126 157 162
100 124 118
98 127 135
72 92 98
92 124 135
155 183 173
126 157 162
132 170 174
111 134 134
152 181 173
126 154 149
128 155 149
126 157 162
66 90 99
129 155 149
108 132 134
153 181 173
105 127 118
128 158 162
135 162 162
147 176 162
148 179 174
105 131 135
106 131 135
109 129 118
115 133 118
144 164 148
98 127 135
128 155 149
81 98 98
125 156 162
149 181 184
151 180 173
122 154 162
158 182 161
129 156 149
148 173 181
88 101 98
128 158 162
111 134 134
126 154 149
85 100 98
65 89 99
119 150 149
138 176 185
106 131 135
130 156 149
103 129 135
153 184 184
122 152 149
133 154 146
80 92 71
136 159 149
129 158 162
155 182 173
131 159 162
130 159 162
141 165 161
157 184 173
144 179 185
130 156 149
127 157 162
144 176 174
150 182 184
123 155 162
114 135 134
150 180 173
148 181 184
72 92 98
138 158 134
126 154 149
104 130 135
142 163 148
130 159 162
129 156 149
74 94 98
126 154 149
110 133 134
135 162 162
148 179 173
131 159 162
112 134 134
123 152 149
0 0 0
130 156 149
112 131 118
141 177 185
141 160 134
144 175 156
138 161 148
109 133 134
141 165 161
139 158 134
132 155 134
121 151 149
115 133 117
152 181 173
130 156 149
108 132 134
145 179 185
122 155 162
103 126 118
122 154 162
131 159 162
114 135 134
122 155 162
124 156 162
114 129 97
145 177 174
89 97 71
149 179 173
147 178 173
123 155 162
122 152 149
128 158 162
130 156 149
139 158 134
113 132 118
151 181 173
136 162 161
138 163 161
141 163 148
120 154 162
123 155 162
147 178 174
148 174 149
124 156 162
146 180 185
121 151 149
138 171 162
106 131 135
0 0 0
129 153 134
116 101 126
140 172 162
138 158 134
78 96 98
129 158 162
130 156 149
111 134 134
132 157 149
101 128 135
145 162 134
129 159 162
123 152 149
145 179 185
132 160 162
95 122 118
130 159 162
157 181 161
105 132 128
151 183 184
80 97 98
141 165 161
121 151 149
118 134 117
158 184 173
151 183 184
140 177 185
138 173 174
156 183 173
151 183 184
147 180 185
110 133 134
129 156 149
130 156 149
111 130 118
144 164 148
126 157 162
145 179 185
154 182 173
124 155 162
122 155 162
131 154 134
118 150 149
114 132 117
121 151 149
144 167 161
81 98 98
148 179 173
156 186 184
147 181 185
114 135 134
152 183 184
68 85 71
140 164 161
159 185 173
137 175 185
142 165 161
92 99 70
113 135 134
119 153 162
143 163 148
131 154 134
70 86 71
108 129 118
124 153 149
123 155 162
113 135 134
142 163 148
96 125 135
132 157 149
126 154 149
73 93 98
148 181 184
149 182 184
112 134 134
158 187 184
136 174 185
99 127 135
142 166 161
113 131 117
149 181 184
149 179 174
126 154 149
101 128 135
149 182 184
137 163 161
128 155 149
119 135 117
105 130 135
131 160 162
131 159 162
146 178 174
80 97 98
115 103 126
120 154 162
122 155 162
124 156 162
129 155 149
98 127 135
126 154 149
135 162 162
130 159 162
145 177 174
125 154 149
100 121 98
140 177 185
142 178 185
105 127 118
150 182 184
116 134 117
86 95 71
127 170 185
138 158 134
160 184 161
115 151 162
122 154 162
132 158 149
80 97 98
128 152 134
143 178 185
152 181 173
127 157 162
146 177 174
129 158 162
107 128 118
120 153 162
120 153 162
139 159 134
121 151 149
116 136 134
123 150 134
132 160 162
154 184 184
148 179 173
142 178 185
162 182 148
135 162 162
123 155 162
130 156 149
130 156 149
116 136 134
138 175 185
125 156 162
87 101 98
109 132 134
144 177 174
95 122 118
142 178 185
114 135 134
121 151 149
143 176 174
99 127 135
137 175 185
118 135 117
145 177 174
128 155 149
111 131 118
114 136 134
131 160 162
130 156 149
117 134 117
116 133 117
150 180 174
114 150 163
152 181 173
133 158 149
151 182 184
125 154 143
154 184 184
114 135 134
111 134 134
133 158 149
118 137 134
145 179 185
141 177 185
131 159 162
85 95 71
125 153 149
152 181 173
119 153 162
106 128 118
130 156 149
157 184 173
135 159 149
135 159 149
102 129 135
144 179 185
150 182 184
132 160 162
132 160 162
103 126 118
145 179 185
150 180 173
106 131 135
119 153 162
118 134 117
146 178 174
101 125 118
73 93 98
152 183 184
151 183 184
104 130 135
106 131 135
150 180 173
106 131 135
148 181 184
138 176 185
158 180 148
167 185 148
81 97 98
68 91 98
108 132 134
133 158 149
105 130 135
122 154 162
129 158 162
97 123 118
148 176 161
131 156 149
125 153 149
115 148 149
139 176 185
151 183 184
149 181 184
134 161 162
129 158 162
125 156 162
132 157 149
154 182 173
149 177 161
113 135 134
140 162 148
144 179 181
89 97 71
129 156 149
149 179 174
145 162 134
153 183 184
152 183 184
115 136 134
135 162 162
130 159 162
139 158 134
142 179 180
107 132 135
111 134 134
131 154 134
82 98 98
98 127 135
133 161 162
145 179 185
135 159 149
94 124 135
105 130 135
146 177 174
117 137 134
119 135 117
136 162 162
131 159 162
133 160 162
127 154 149
154 180 161
122 137 117
155 183 173
134 161 162
159 185 173
143 178 185
159 185 173
79 92 71
129 156 149
140 176 185
130 156 149
69 86 71
102 129 135
116 152 162
109 133 134
143 158 117
100 128 135
145 179 185
84 99 98
145 175 162
156 186 184
155 181 161
101 125 118
129 155 149
139 158 179
129 153 134
136 157 134
134 161 162
134 156 134
105 130 135
128 158 162
109 132 134
129 153 134
137 160 148
107 131 135
106 131 135
145 180 185
152 183 184
149 177 162
127 152 134
111 134 134
99 127 135
130 159 162
123 155 162
125 156 162
153 184 184
119 150 149
127 157 162
128 155 149
131 159 162
131 160 162
0 0 0
115 133 117
144 164 148
141 177 185
152 183 184
136 160 148
114 136 134
75 94 98
156 186 184
119 153 162
151 180 173
106 131 135
129 158 162
121 154 162
143 176 174
145 168 161
156 183 173
123 155 162
130 156 149
142 178 185
135 159 149
132 157 149
129 156 149
150 180 173
138 163 161
126 156 162
121 151 149
154 182 173
153 184 184
150 182 184
118 152 162
100 128 135
126 154 149
122 154 162
109 132 134
141 177 182
128 155 149
122 155 162
108 132 134
130 159 162
125 156 162
131 157 149
147 178 174
151 182 184
134 159 148
103 126 118
108 132 134
114 135 134
146 175 162
124 156 162
141 177 185
113 135 134
155 180 161
130 156 149
124 153 149
126 151 134
109 129 118
101 128 135
111 127 97
132 160 162
153 176 180
132 157 149
155 180 161
129 158 162
95 125 135
141 175 174
112 131 118
67 90 99
138 161 148
131 160 162
132 155 134
66 89 99
125 128 155
139 161 148
150 180 173
98 127 135
82 98 98
123 155 162
105 127 118
100 128 135
126 157 162
104 130 135
152 179 162
111 130 118
142 163 148
108 132 134
134 161 162
123 152 149
133 158 149
138 163 161
129 158 162
155 184 168
113 135 134
94 121 118
141 177 185
151 183 184
137 158 134
111 130 118
130 159 162
123 152 149
152 183 184
137 163 161
151 180 173
136 172 174
133 161 162
130 156 149
107 128 118
148 181 184
104 130 135
150 182 184
152 181 173
132 160 162
93 124 135
124 153 149
126 157 162
84 99 98
108 132 134
110 130 118
133 173 185
127 157 162
128 158 162
118 134 117
141 177 185
153 179 162
144 176 174
92 124 135
0 0 0
129 158 162
142 163 148
0 0 0
125 153 149
150 180 173
108 132 134
87 101 98
126 156 162
149 181 184
129 176 173
149 174 149
154 171 146
145 179 185
113 135 134
135 159 149
146 171 170
146 180 185
141 162 148
119 153 162
103 129 135
120 151 149
127 157 162
139 161 148
140 174 174
150 182 184
94 125 135
131 156 149
118 153 162
131 160 162
149 182 184
116 152 162
100 128 135
113 132 117
154 182 173
154 184 184
146 175 162
130 156 149
78 96 98
128 158 162
141 177 185
93 124 135
151 180 173
136 160 148
108 132 134
128 155 149
134 159 149
158 185 173
129 158 162
136 175 185
127 157 162
154 184 184
129 158 162
125 154 149
79 96 98
143 178 185
149 182 184
107 132 135
129 158 162
122 152 149
147 180 185
110 133 134
119 138 134
125 153 149
133 160 162
124 156 162
128 158 162
156 181 161
145 159 179
137 175 185
147 181 185
156 186 184
144 179 185
152 181 173
106 128 118
134 161 162
107 131 135
149 182 184
138 163 161
88 101 98
87 101 98
128 155 149
128 158 162
117 134 117
107 131 135
131 157 149
121 151 149
112 134 134
124 153 149
128 155 149
130 159 162
133 160 162
124 156 162
135 174 185
109 132 134
126 154 149
96 126 135
146 163 134
133 161 162
148 179 173
104 130 135
165 191 184
138 163 161
121 136 117
124 156 162
125 156 162
152 178 161
154 185 184
77 96 98
135 159 149
106 131 135
146 180 185
111 134 134
141 162 148
135 159 149
152 183 184
150 180 173
106 131 135
140 177 185
149 179 173
105 130 135
143 179 185
103 129 135
125 151 134
113 135 134
107 131 135
156 183 173
111 134 134
103 129 135
117 149 149
124 150 135
88 102 98
135 159 149
111 134 134
129 158 162
124 155 162
119 153 162
131 159 162
147 181 185
132 160 162
152 181 173
142 173 162
129 156 149
116 151 162
105 131 135
127 157 162
116 137 134
138 164 161
149 179 173
124 155 162
101 128 135
124 153 149
127 157 162
125 153 149
138 173 174
109 133 134
100 128 135
143 178 185
151 180 173
107 131 135
156 181 161
127 157 162
105 131 135
138 161 148
152 181 173
147 178 174
0 0 0
128 158 162
96 126 135
106 131 135
105 127 118
156 179 148
131 159 162
148 177 162
92 124 135
144 179 185
137 175 185
140 177 185
132 157 149
134 159 149
107 132 135
103 130 135
111 131 118
106 131 135
128 158 162
126 154 149
67 85 72
115 133 117
108 132 134
158 184 173
151 180 173
150 180 173
126 151 134
111 134 134
130 159 162
109 129 118
136 172 174
135 174 185
77 90 71
138 161 149
149 179 173
122 154 162
86 101 98
123 155 162
144 179 185
106 131 135
132 160 162
123 152 149
132 157 149
141 177 185
130 159 162
98 123 118
140 162 148
129 156 149
128 158 162
108 128 118
106 127 118
98 126 135
74 94 98
128 155 149
149 181 184
132 160 162
143 178 185
127 157 162
143 163 148
131 160 162
136 170 162
121 139 134
135 162 162
123 155 162
119 153 162
143 178 185
158 186 184
136 175 185
126 151 134
129 156 149
148 181 184
145 179 185
125 157 155
115 133 118
147 178 173
106 128 118
106 131 135
102 129 135
140 177 185
148 179 173
104 130 135
145 177 174
136 160 148
155 183 173
121 154 162
127 157 162
111 134 134
111 134 134
131 159 162
102 129 135
145 177 174
128 158 162
79 91 71
120 136 117
134 156 134
70 91 98
148 176 162
145 177 174
156 181 161
146 180 185
108 129 118
76 90 71
66 84 72
131 154 134
144 179 185
165 188 173
145 177 174
104 130 135
99 124 118
145 180 185
155 183 173
141 177 185
101 128 135
133 160 162
104 126 118
153 183 184
136 162 162
131 157 149
147 173 148
150 182 184
149 182 184
137 157 134
105 131 135
121 151 149
119 150 149
134 161 162
105 127 118
94 125 135
132 160 162
139 176 185
133 158 149
137 163 161
81 98 98
132 160 162
156 183 173
135 174 185
151 183 184
127 157 162
112 134 134
144 174 162
109 129 118
124 138 117
107 131 135
149 181 184
115 136 134
123 137 117
148 179 173
108 132 134
115 148 149
130 172 185
125 156 162
115 136 134
137 161 142
97 126 135
84 99 98
126 157 162
111 130 118
164 186 161
132 157 149
137 160 149
164 185 161
114 148 149
121 133 97
127 154 149
0 0 0
130 159 162
115 136 134
148 176 175
151 182 184
151 181 173
124 156 162
133 161 162
137 163 161
136 162 161
159 185 173
125 156 162
152 178 161
128 155 149
136 160 148
87 101 98
98 127 135
129 156 149
127 157 162
129 159 162
115 142 158
151 183 184
138 175 185
124 155 162
130 159 162
148 181 184
79 97 98
101 128 135
153 184 184
146 178 174
133 161 162
143 176 174
161 184 161
126 156 162
129 156 149
152 183 184
134 161 162
127 157 162
121 154 162
98 123 118
164 188 173
126 154 149
136 162 162
120 153 162
129 153 134
154 185 184
127 157 162
151 180 173
132 157 149
147 180 185
133 158 149
124 155 162
142 175 174
123 155 162
135 159 148
151 182 184
146 180 185
101 128 135
96 126 135
137 175 185
154 182 173
137 163 161
88 97 71
114 132 118
127 155 149
131 160 162
107 131 135
154 184 184
145 179 185
131 159 162
127 157 162
105 130 135
133 158 149
87 101 98
99 127 135
135 162 162
115 151 162
68 90 98
107 128 118
134 156 134
106 131 135
119 150 149
145 175 162
137 160 148
133 158 149
126 156 162
116 151 162
150 180 173
130 156 149
139 164 161
125 153 149
126 157 162
134 161 162
144 179 185
128 158 162
128 155 149
125 156 162
106 131 135
134 161 162
131 157 149
116 137 134
137 163 161
125 153 149
123 155 162
145 180 185
103 126 118
153 182 173
153 165 116
144 179 185
129 158 162
95 125 135
111 134 134
150 180 173
110 130 118
158 184 173
125 156 162
114 135 134
117 152 162
157 182 161
126 154 149
113 135 134
151 181 173
143 176 174
128 158 162
100 128 135
82 98 98
117 152 162
139 174 174
99 127 135
142 163 148
153 184 184
132 160 162
103 122 98
125 153 149
122 152 149
152 183 184
123 152 149
104 130 135
133 160 162
131 172 185
138 175 185
148 174 181
95 125 135
111 134 134
150 176 171
132 155 134
123 155 162
145 177 174
141 160 134
110 133 134
144 176 174
140 174 174
133 161 162
140 162 148
147 178 174
143 178 185
129 158 162
124 153 149
124 151 160
151 183 184
143 161 134
114 136 134
136 157 134
162 187 173
141 175 174
141 177 185
151 180 173
122 155 162
151 178 161
152 181 173
114 132 117
132 160 162
131 159 162
130 159 162
129 158 162
70 91 98
137 163 161
107 132 135
151 181 173
107 131 135
133 158 149
110 130 118
102 129 135
140 165 161
128 152 134
143 176 174
69 91 98
142 166 161
149 181 184
104 130 135
105 130 135
144 179 185
144 179 185
125 156 162
134 161 162
138 175 185
145 179 185
159 187 184
120 153 162
66 90 99
100 124 118
120 154 162
144 176 174
111 133 134
132 157 149
139 164 161
125 156 162
107 131 135
151 183 180
154 182 173
117 137 134
134 158 149
79 96 98
109 133 134
113 135 134
106 131 135
131 160 162
132 157 149
144 176 174
133 158 149
153 184 184
142 171 172
106 131 135
136 162 161
112 127 97
113 135 134
130 159 162
126 156 162
127 155 149
127 152 134
86 100 98
84 99 98
105 130 135
117 134 117
117 134 117
106 131 135
151 180 173
138 163 161
120 153 162
146 177 174
102 129 135
120 153 162
151 180 173
118 153 156
143 176 174
151 178 161
129 156 149
150 182 184
134 158 149
138 163 161
148 179 173
112 131 118
119 154 157
148 179 173
124 153 149
134 158 149
142 173 162
86 100 98
102 129 135
78 91 71
124 156 162
114 135 134
141 162 148
137 160 149
102 129 135
135 159 149
129 156 149
136 160 148
138 158 134
87 101 98
0 0 0
126 157 162
132 160 162
136 160 148
105 130 135
132 160 162
138 173 174
122 154 135
138 161 148
157 184 173
81 97 98
126 156 162
147 178 173
143 178 185
143 178 185
134 161 162
151 182 184
143 178 185
104 130 135
144 179 185
113 135 134
141 165 161
133 173 185
140 162 148
107 132 135
135 161 162
111 134 134
139 162 148
106 131 135
102 129 135
141 175 174
140 174 174
144 179 185
112 134 134
136 162 161
137 137 155
133 160 162
140 174 174
143 176 174
132 160 162
140 177 185
138 163 161
147 178 174
112 134 134
118 153 162
111 134 134
102 129 135
147 178 173
132 160 162
133 160 162
126 156 162
142 178 185
144 174 162
160 188 184
104 130 135
142 178 185
140 159 134
154 182 173
154 180 161
150 182 184
158 184 173
137 163 161
115 133 118
100 124 118
124 153 149
149 182 184
125 156 162
97 126 135
115 151 162
131 154 134
88 102 98
153 182 173
108 132 134
103 130 135
132 160 162
124 156 162
128 158 162
144 177 174
112 134 134
145 179 185
141 163 148
132 157 149
108 128 118
119 150 149
119 150 149
150 182 184
123 155 162
138 161 148
136 160 148
93 124 135
158 184 173
124 134 155
152 181 173
114 135 134
152 181 173
131 160 162
118 137 134
140 164 161
126 157 162
149 179 173
142 165 161
158 186 184
152 181 173
150 182 184
129 158 162
79 97 98
109 133 134
81 97 98
136 162 162
118 152 162
128 158 162
0 0 0
139 174 174
74 94 98
129 158 162
155 185 184
149 179 174
124 150 134
155 183 173
145 177 174
123 155 162
158 184 173
140 177 185
128 155 149
161 184 161
127 157 162
137 163 161
111 134 134
123 152 149
124 156 162
152 183 184
128 158 162
148 181 184
144 176 174
124 155 162
131 157 149
123 155 162
144 179 185
120 153 162
135 162 162
100 122 132
133 161 162
99 127 135
141 177 185
132 160 162
139 158 134
132 160 162
132 157 149
110 133 134
146 178 174
138 173 174
120 154 162
118 150 149
143 176 174
144 176 174
101 128 135
147 178 174
125 153 149
155 180 161
75 94 98
106 127 118
87 101 98
141 175 174
141 163 148
111 134 134
129 155 149
145 177 174
87 101 98
105 130 135
144 179 185
140 162 148
108 132 134
97 123 118
114 150 163
129 156 149
113 135 134
124 150 134
138 176 185
113 135 134
122 152 149
137 160 148
122 152 149
132 157 149
153 184 184
86 95 71
136 160 148
154 182 173
125 156 162
148 174 149
129 158 162
134 161 162
128 158 162
138 158 134
148 179 173
145 179 185
146 175 162
122 155 162
130 159 162
120 153 162
127 157 162
109 133 134
137 160 149
110 133 134
112 134 134
142 161 134
83 94 71
148 181 184
147 178 174
112 134 134
132 157 149
114 135 134
127 155 149
133 158 149
147 180 185
137 163 161
107 131 135
141 165 161
134 161 162
140 162 148
87 101 98
134 161 162
142 178 185
122 155 162
148 179 173
146 180 185
120 139 134
82 98 98
113 132 118
117 137 134
130 159 162
126 157 162
147 178 174
130 159 162
130 159 162
152 176 148
129 156 149
132 160 162
133 160 162
135 159 148
108 132 134
132 160 162
128 158 162
115 135 133
133 158 149
78 96 98
135 162 162
108 129 118
135 162 162
0 0 0
112 134 134
154 184 184
107 144 150
126 157 162
134 161 162
113 135 134
138 163 161
114 132 117
117 152 162
157 182 161
98 123 118
146 180 185
114 135 134
131 177 173
146 180 185
136 160 148
106 127 118
126 157 162
137 170 162
152 181 173
106 127 118
132 160 162
139 164 161
116 136 134
138 160 148
112 144 135
138 158 134
106 128 118
129 158 162
125 154 149
145 179 185
146 177 174
138 161 148
147 181 185
139 176 185
134 161 162
155 185 184
137 163 161
127 157 162
101 128 135
117 137 134
145 179 185
138 171 162
124 155 162
85 100 98
137 163 161
103 129 135
74 94 98
112 134 134
112 134 134
126 156 162
124 155 162
149 182 184
123 152 149
144 179 180
102 125 118
141 177 185
145 175 162
131 159 162
127 157 162
93 120 118
147 178 173
133 158 149
103 129 135
145 177 174
148 181 184
135 159 149
160 183 161
152 183 184
118 135 117
142 163 148
147 176 162
153 179 161
77 95 98
104 130 135
128 155 149
132 158 149
139 164 161
76 95 98
112 134 134
122 154 162
150 180 173
114 135 134
138 176 185
124 155 162
113 135 134
137 160 148
117 134 117
140 177 185
121 154 162
146 180 185
130 156 149
141 177 185
159 178 133
99 127 135
132 160 162
99 127 135
141 177 185
129 156 149
137 160 148
131 162 173
129 158 162
149 181 184
131 159 162
137 157 134
100 128 135
107 132 135
146 177 174
144 174 162
132 160 162
113 131 117
133 158 149
123 152 149
0 0 0
138 138 155
127 157 162
125 156 162
135 172 174
139 176 185
156 185 184
103 129 135
145 179 185
153 181 173
131 157 149
129 168 174
98 127 135
144 179 185
141 163 148
125 156 162
128 158 162
79 97 98
99 127 135
136 160 149
149 177 162
106 131 135
127 157 162
74 93 98
136 159 149
126 157 162
139 164 161
133 173 182
155 182 173
86 96 71
131 157 149
139 164 161
140 174 174
155 178 148
113 135 134
97 126 135
130 159 162
134 161 162
133 173 185
101 128 135
79 96 98
149 182 184
144 164 148
132 157 149
128 171 185
78 96 98
116 152 162
156 186 184
142 163 148
146 180 185
144 176 174
116 137 134
132 158 149
135 162 162
143 178 185
131 159 162
108 128 118
132 160 162
108 132 134
131 157 149
125 156 162
102 129 135
130 159 162
101 128 135
139 164 161
109 129 118
114 150 163
124 153 149
150 180 173
96 126 135
149 175 148
131 159 162
110 133 134
99 120 98
136 160 148
131 159 162
145 177 174
148 181 184
138 161 148
119 138 134
88 102 98
126 157 162
115 136 134
129 158 162
136 157 134
111 130 118
102 129 135
149 181 184
120 153 162
143 176 174
135 161 162
127 157 162
99 127 135
139 176 185
79 96 98
99 127 135
133 158 149
76 89 71
0 0 0
151 180 173
129 158 162
148 181 184
0 0 0
108 132 134
135 156 134
114 135 134
129 153 134
143 178 185
126 157 162
111 131 118
127 157 162
147 178 174
108 129 118
106 127 118
116 133 117
109 132 134
128 158 162
152 179 161
110 133 134
134 171 174
113 135 134
123 155 162
148 176 162
146 180 185
151 180 173
131 159 162
133 160 162
114 150 163
132 160 162
116 133 117
136 162 161
146 180 185
145 179 185
68 90 98
91 123 135
125 156 162
97 126 135
130 159 162
116 151 162
65 89 99
150 182 184
132 160 162
138 163 161
116 136 134
154 182 173
101 128 135
150 180 174
156 181 161
125 156 162
117 152 162
98 123 118
110 130 118
103 129 135
102 129 135
136 159 148
123 155 162
116 137 134
147 180 185
74 94 98
115 133 117
155 185 184
123 155 162
134 161 162
128 158 162
151 181 173
127 157 162
106 131 135
126 156 162
136 160 149
160 186 173
111 134 134
78 96 98
77 95 98
132 160 162
134 155 134
122 149 135
153 184 184
122 152 149
152 181 173
138 158 134
113 150 163
110 133 134
131 157 149
147 180 185
153 184 184
146 177 174
150 180 173
137 173 174
143 178 185
135 162 162
105 130 135
133 158 149
145 179 185
101 128 135
108 132 134
104 126 118
111 130 118
128 158 162
134 161 162
147 180 185
129 158 162
123 155 162
153 184 184
129 156 149
148 174 148
154 184 184
151 180 173
64 83 72
101 128 135
132 160 162
104 130 135
128 158 162
130 159 162
120 151 149
142 176 174
94 125 135
128 158 162
109 132 134
74 94 98
148 177 162
148 179 173
103 129 135
145 167 161
112 131 118
118 135 117
117 137 134
126 154 149
135 170 183
132 160 162
112 131 118
107 131 135
84 99 98
120 154 162
121 154 162
110 130 118
137 162 161
127 157 162
138 164 161
142 178 185
116 151 162
116 149 149
147 164 133
127 155 149
130 156 149
102 128 135
129 158 162
144 164 148
102 97 126
0 0 0
131 160 162
131 157 149
141 177 185
129 158 162
133 161 162
135 174 185
119 150 149
134 159 149
149 181 184
136 160 149
98 126 135
147 180 185
87 101 98
109 148 163
137 175 185
140 172 162
96 126 135
132 157 149
120 154 162
107 128 118
138 161 148
150 182 184
126 154 149
125 153 149
132 160 162
103 126 118
131 173 181
114 132 117
123 155 162
142 163 148
152 183 184
104 130 135
109 132 134
151 180 173
127 157 162
108 132 134
125 156 162
134 161 162
143 178 185
136 162 161
130 159 162
128 158 162
118 152 162
115 136 134
152 183 184
134 156 134
108 132 134
123 138 117
123 152 149
117 134 117
123 155 162
113 132 118
126 154 149
135 159 148
117 134 117
151 182 184
153 184 184
121 136 117
145 167 160
144 179 185
143 178 185
130 156 149
150 182 184
140 159 134
109 129 118
132 157 149
131 151 117
124 156 162
115 133 117
99 124 118
122 154 162
105 130 135
145 177 174
147 180 185
100 128 135
86 101 98
107 131 135
107 128 118
154 184 184
125 153 149
0 0 0
133 161 162
152 181 173
109 132 134
140 165 161
152 183 184
137 173 174
0 0 0
142 161 134
158 186 184
118 152 162
151 180 173
136 159 148
105 127 118
113 135 134
99 124 118
110 130 118
101 128 135
130 169 174
135 174 185
154 180 161
109 129 118
148 181 184
142 173 162
124 156 162
147 178 173
120 139 134
135 174 185
147 181 185
135 159 149
128 158 162
135 159 149
95 122 118
123 155 162
131 160 162
148 179 173
145 179 185
148 181 184
129 156 149
123 152 149
151 183 184
79 97 98
161 186 173
142 171 149
157 186 184
154 182 173
131 159 162
124 153 149
140 177 185
128 170 185
90 119 118
66 90 99
142 178 185
123 155 162
132 160 162
159 187 184
142 178 185
131 157 149
124 156 162
104 130 135
132 172 185
133 160 162
154 177 148
150 178 161
150 178 162
134 161 162
131 160 162
121 131 156
145 179 185
109 129 118
132 158 149
108 129 118
147 180 185
138 163 161
149 181 184
131 159 162
138 171 162
148 181 184
137 163 161
121 154 162
129 156 149
112 134 134
159 185 173
126 157 162
119 153 162
150 180 173
148 181 184
150 180 173
70 91 98
132 157 149
127 157 162
97 126 135
143 178 185
161 181 153
133 161 162
158 184 173
112 146 149
127 157 162
127 155 149
117 149 149
125 154 149
145 179 185
123 155 162
132 157 149
142 178 185
134 158 149
110 148 163
130 156 149
108 132 134
124 156 162
133 155 134
139 161 148
142 178 185
156 185 184
139 161 148
104 130 135
109 132 134
130 159 162
143 166 161
131 159 162
127 157 162
122 152 149
65 89 99
94 125 135
138 173 174
153 184 184
146 180 185
115 136 134
146 180 185
127 154 149
141 177 185
162 182 148
124 153 149
126 156 162
126 154 149
79 96 98
79 97 98
134 161 162
113 150 163
141 175 174
116 149 149
156 183 173
123 155 162
136 162 162
128 155 149
149 177 162
138 161 148
135 159 149
140 174 174
133 158 149
160 185 173
107 128 118
141 175 174
150 182 184
121 154 162
153 184 184
128 155 149
153 181 173
77 95 98
120 150 149
131 159 162
73 93 98
147 181 185
122 143 147
118 152 162
114 135 134
107 132 135
140 172 162
96 126 135
112 134 134
134 174 185
129 158 162
111 133 134
145 177 174
154 182 173
130 153 134
115 151 162
140 177 185
156 179 148
131 159 162
130 159 162
131 159 162
134 161 162
145 177 174
153 181 173
132 157 149
130 159 162
156 185 184
110 133 134
135 174 185
123 155 162
111 134 134
136 159 148
140 162 148
129 158 162
121 151 149
138 163 161
118 153 162
71 92 98
145 179 185
119 150 149
124 156 162
123 155 162
104 127 118
142 175 174
145 179 185
132 160 162
118 149 149
137 175 185
87 101 98
144 179 185
139 176 185
111 127 97
134 158 149
111 134 134
115 133 117
140 174 174
99 127 135
127 155 149
154 182 173
132 160 162
121 136 117
136 162 161
144 179 185
84 99 98
108 132 134
117 137 134
124 155 162
139 176 185
135 156 134
145 162 134
142 177 185
149 179 173
149 182 184
158 182 161
127 157 162
126 157 162
141 177 185
133 160 162
127 157 162
137 157 134
130 159 162
125 154 149
149 179 173
125 156 162
129 155 149
144 164 148
66 90 99
143 176 174
129 134 155
146 178 173
116 136 134
146 178 174
137 163 161
146 180 185
126 156 162
126 157 162
150 182 184
129 156 149
136 175 185
99 127 135
137 160 148
128 158 162
149 179 174
132 157 149
160 188 184
147 176 162
147 180 185
147 180 185
96 126 135
115 151 162
154 184 184
144 176 174
141 165 161
109 129 118
152 183 184
136 159 149
155 181 161
148 181 184
139 176 185
153 184 184
136 162 161
100 128 135
123 155 162
122 155 162
114 135 134
123 155 162
80 97 98
150 180 173
109 97 126
116 152 162
145 179 185
127 155 149
153 184 184
150 180 173
110 133 134
109 133 134
103 129 135
124 156 162
101 128 135
147 180 185
146 180 185
150 180 173
124 155 162
74 94 98
161 188 184
125 153 149
97 126 135
113 135 134
119 135 117
151 181 173
119 153 162
120 150 149
138 161 148
134 161 162
120 153 162
128 158 162
141 165 161
127 157 162
162 187 173
142 177 185
133 161 162
97 126 135
141 177 185
153 184 184
125 156 162
148 181 184
114 132 118
126 157 162
106 131 135
134 161 162
120 151 149
111 146 150
145 180 185
126 154 149
101 128 135
141 177 185
121 154 162
148 178 173
116 151 162
146 165 148
139 176 185
137 175 185
150 182 184
143 178 185
129 153 134
136 162 161
129 155 149
146 177 174
144 176 174
98 127 135
103 130 135
124 150 135
151 182 184
143 164 148
152 183 184
131 159 162
139 164 161
126 154 149
127 152 134
117 131 97
153 184 184
138 173 174
127 155 149
128 158 162
149 182 184
142 178 185
143 176 174
131 159 162
106 131 135
128 158 162
132 160 162
132 160 162
107 131 135
122 154 162
149 179 173
101 128 135
156 185 184
98 123 118
148 181 184
108 129 118
126 154 149
134 161 162
146 175 162
143 174 162
127 157 162
152 183 184
98 126 135
110 133 134
145 177 174
140 174 174
108 132 134
121 151 149
127 157 162
127 155 149
128 155 149
130 156 149
119 150 149
126 154 149
131 160 162
130 159 162
143 178 185
134 158 149
155 183 173
109 132 134
125 156 162
130 159 162
144 179 185
122 155 162
103 129 135
135 159 149
145 179 185
129 156 149
154 182 173
132 160 162
102 129 135
125 139 117
121 154 162
100 128 135
148 179 174
110 149 163
120 151 149
97 126 135
130 156 149
130 156 149
128 166 162
114 135 134
136 162 161
115 136 134
121 151 149
156 180 174
146 178 173
134 173 185
111 134 134
113 150 163
120 151 149
131 157 149
142 178 185
149 182 184
136 162 161
157 184 173
135 159 149
99 127 135
120 148 135
123 155 162
112 146 150
136 175 185
158 187 184
150 182 184
129 158 162
129 156 149
143 176 174
127 154 149
127 157 162
106 131 135
128 158 162
133 171 174
95 125 135
157 186 184
141 175 174
138 163 161
151 180 173
140 162 148
145 177 174
101 128 135
132 157 149
112 149 163
137 160 149
102 129 135
147 178 174
128 155 149
143 174 162
146 173 149
151 180 173
127 157 162
135 159 148
107 132 135
145 177 174
144 179 185
148 181 184
144 179 185
86 100 98
133 155 134
147 180 185
140 159 134
133 160 162
140 175 174
137 160 148
112 131 118
153 183 184
146 180 185
116 136 134
133 158 149
115 133 117
133 158 149
125 156 162
95 121 118
160 181 148
111 134 134
128 155 149
109 132 134
152 181 173
104 126 118
113 135 134
106 131 135
132 160 162
123 150 134
86 100 98
79 96 98
79 91 71
145 177 174
142 178 185
74 94 98
86 100 98
128 155 149
137 160 148
155 185 184
147 180 185
142 175 174
133 160 162
127 157 162
161 188 184
113 135 134
142 178 185
110 130 118
70 91 98
129 153 150
125 154 149
143 178 185
128 158 162
125 156 162
111 133 134
122 155 162
146 180 185
149 181 184
162 187 173
144 176 174
66 90 99
128 158 162
121 154 162
76 95 98
120 139 134
131 154 134
119 153 162
151 181 173
139 165 160
130 159 162
132 160 162
108 132 134
113 135 134
136 162 162
140 162 148
99 127 135
108 129 118
133 161 162
125 156 162
131 172 185
150 182 184
139 164 161
152 181 173
106 131 135
139 164 161
131 157 149
114 135 134
128 155 149
131 159 162
141 163 148
110 127 97
148 179 174
134 161 162
149 177 162
127 157 162
126 157 162
147 181 185
0 0 0
109 133 134
109 132 134
143 178 185
146 165 148
131 157 149
124 153 149
135 159 149
143 167 161
121 154 162
134 171 174
142 175 174
129 158 162
116 133 118
142 178 185
139 162 148
160 185 173
139 174 174
149 179 173
126 157 162
132 160 162
128 155 149
130 159 162
128 158 162
131 160 162
151 183 184
105 127 118
137 175 185
145 179 185
148 181 184
148 181 184
127 157 162
81 97 98
97 126 135
155 183 173
148 181 184
147 178 173
150 182 184
122 154 162
127 157 162
74 94 98
149 179 173
149 179 173
124 156 162
126 151 134
141 177 185
129 158 162
146 177 174
148 181 184
140 172 162
135 154 117
134 161 162
95 122 118
115 136 134
126 154 149
133 161 162
141 175 174
131 159 162
124 155 162
134 158 149
121 151 149
129 159 156
119 153 162
133 158 149
112 131 118
160 183 161
138 161 148
125 151 134
137 173 174
125 153 149
72 88 71
111 134 134
141 177 185
152 181 173
110 133 134
146 165 148
134 174 185
111 130 118
125 156 162
124 156 162
149 177 162
78 96 98
121 154 162
126 157 162
111 133 134
119 153 162
139 161 148
131 157 149
112 134 134
129 158 162
106 131 135
110 148 163
159 187 184
135 161 162
127 157 162
114 132 118
139 164 161
132 154 134
134 158 149
128 158 162
136 162 161
136 166 172
105 131 135
125 156 162
122 154 162
76 95 98
74 94 98
107 132 135
149 181 184
143 176 174
142 178 185
139 176 185
105 130 135
133 161 162
135 162 162
104 130 135
135 169 162
114 135 134
103 129 135
133 158 149
125 156 162
126 157 162
134 158 149
127 157 162
96 122 118
131 159 162
125 156 162
76 95 98
113 131 118
147 178 174
109 132 134
73 93 98
150 180 173
112 131 118
100 128 135
133 160 162
148 181 184
157 179 148
135 162 162
100 128 135
108 132 134
132 173 185
114 132 117
145 179 185
133 158 149
109 132 134
150 180 173
156 186 184
150 182 184
133 158 149
65 89 99
101 128 135
124 156 162
126 157 162
132 160 162
135 157 134
132 157 149
125 156 162
136 160 148
129 156 149
131 157 149
141 177 185
108 132 134
105 130 135
125 156 162
112 134 134
152 183 184
119 138 134
117 152 157
115 129 97
128 158 162
136 159 149
150 175 149
102 129 135
130 159 162
115 136 134
153 182 173
122 155 162
148 176 162
131 159 162
132 160 162
129 158 162
106 127 118
137 160 148
130 156 149
107 132 135
160 183 161
111 134 134
139 161 148
134 161 162
118 153 162
151 183 184
67 85 72
124 156 162
133 158 149
139 161 148
155 182 173
107 132 135
150 180 173
127 155 149
127 152 134
148 181 184
134 161 162
116 151 162
127 154 149
104 130 135
147 180 185
109 133 134
117 147 160
121 151 149
133 161 162
134 158 149
129 158 162
105 130 135
134 171 174
120 151 149
67 90 99
120 154 162
127 154 149
76 90 71
150 182 184
107 131 135
93 124 135
129 156 149
109 133 134
117 137 134
140 162 148
137 175 185
144 176 174
127 152 134
121 154 162
104 124 132
131 159 162
131 154 134
132 160 162
136 160 149
148 179 173
128 158 162
135 172 174
153 181 173
145 180 185
146 180 185
144 162 134
133 161 162
129 158 162
102 129 135
94 124 135
156 181 161
144 174 162
137 163 161
93 124 135
141 165 161
126 154 149
107 131 135
143 176 174
145 179 185
116 133 117
124 153 149
145 177 174
143 176 174
139 176 185
154 185 184
134 161 162
122 154 162
117 152 162
80 97 98
135 159 149
153 179 161
127 157 162
137 157 134
131 154 134
149 182 184
145 177 174
95 125 135
134 159 149
139 176 185
129 158 162
134 158 149
132 160 162
148 179 174
105 130 135
149 179 173
140 175 174
97 123 118
137 163 161
137 160 149
142 178 185
136 175 185
160 185 173
118 152 162
124 156 162
114 135 134
129 158 162
141 177 185
136 162 161
125 154 149
147 181 185
143 178 185
139 164 161
129 158 162
111 134 134
113 135 134
124 156 162
148 181 184
143 178 185
147 180 185
144 138 141
152 183 184
135 162 162
154 175 134
128 155 149
128 155 149
105 130 135
114 151 162
132 160 162
106 131 135
145 179 185
135 159 149
146 175 162
144 179 185
103 129 135
141 165 161
103 129 135
151 180 173
0 0 0
124 153 149
157 186 184
131 160 162
117 152 162
142 177 185
130 156 149
126 154 149
141 175 174
134 161 162
124 155 162
149 181 184
113 135 134
125 156 162
118 152 162
86 96 71
141 177 185
117 152 162
130 156 149
135 174 185
100 128 135
0 0 0
80 97 98
130 159 162
130 156 149
120 150 149
135 162 162
110 133 134
101 125 118
104 126 118
135 162 162
114 135 134
128 158 162
116 152 162
135 159 149
99 127 135
118 150 149
101 128 135
107 131 135
149 182 184
134 161 162
130 135 155
152 179 161
142 178 185
120 154 162
130 156 149
121 151 149
125 154 149
145 179 185
160 185 173
113 135 134
135 159 149
128 157 162
107 128 118
143 166 161
114 148 149
97 122 118
136 162 161
114 132 118
137 158 134
69 91 98
136 160 148
136 170 158
149 182 184
134 161 162
121 154 162
77 95 98
150 178 161
133 158 149
65 89 99
146 180 185
100 128 135
117 152 162
101 128 135
112 149 163
135 159 149
143 164 148
152 179 161
134 161 162
109 133 134
99 127 135
110 130 118
104 130 135
104 130 135
147 180 185
123 155 162
118 153 162
135 161 162
98 123 118
146 178 174
117 137 134
152 178 161
135 159 149
126 157 162
106 127 118
129 158 162
123 152 149
129 171 185
125 156 162
120 153 162
127 157 162
137 160 148
140 177 185
120 136 117
88 101 98
143 178 185
147 180 185
150 182 184
125 156 162
150 182 184
137 160 148
127 157 162
85 100 98
125 154 149
125 154 149
100 128 135
100 124 118
160 186 173
145 179 185
121 151 149
128 158 162
142 178 185
105 131 135
144 161 134
136 159 148
143 178 185
99 127 135
144 179 185
137 163 161
150 180 173
140 162 148
120 151 149
127 170 185
123 155 162
108 132 134
122 155 162
110 133 134
104 130 135
156 183 173
132 160 162
128 153 134
136 162 161
129 158 162
156 181 161
114 136 134
140 176 185
154 184 184
104 130 135
134 155 134
138 163 161
129 155 149
124 156 162
132 157 149
136 172 174
150 180 173
133 156 159
105 130 135
119 153 162
150 182 184
111 134 134
155 180 162
123 155 162
139 161 148
122 155 162
113 135 134
145 177 174
128 158 162
141 177 185
128 158 162
97 126 135
112 134 134
127 157 162
149 181 184
146 178 174
124 156 162
148 181 184
115 136 134
114 136 134
135 172 174
143 161 134
122 152 149
131 172 185
130 153 134
144 156 179
108 132 134
132 160 162
117 137 134
139 176 185
114 150 163
121 151 149
120 153 162
113 135 134
132 160 162
98 123 118
137 160 148
153 181 173
79 91 71
148 181 184
126 157 162
139 161 148
150 180 173
124 153 149
133 158 149
149 179 173
155 183 173
145 177 174
103 129 135
124 153 149
116 151 162
143 174 162
140 174 174
99 127 135
137 173 174
125 156 162
142 178 185
103 129 135
102 129 135
129 158 162
139 176 185
124 143 147
121 154 162
96 126 135
133 161 162
150 182 184
128 158 162
144 179 185
109 133 134
115 136 134
83 99 98
68 90 98
151 183 184
103 129 135
148 179 174
133 161 155
128 158 162
121 154 162
113 150 163
120 153 162
151 180 173
109 133 134
99 127 135
140 177 185
158 184 173
139 161 148
135 159 149
129 156 149
136 174 185
134 161 162
130 156 149
84 99 98
103 129 135
109 133 134
146 177 174
122 152 149
141 165 161
109 133 134
127 154 149
147 178 173
132 160 162
125 156 162
84 94 71
124 156 162
103 126 118
142 178 185
100 128 135
150 177 162
135 159 149
126 139 117
0 0 0
158 186 184
104 130 135
137 163 161
118 153 162
147 180 185
116 136 134
126 154 149
115 133 117
151 182 184
127 157 162
108 132 134
80 97 98
146 178 174
146 180 185
100 124 118
141 172 162
139 174 174
120 139 134
107 131 135
122 154 162
143 176 174
139 171 162
135 162 162
139 176 185
148 181 184
130 159 162
128 158 162
129 158 162
126 157 162
125 156 162
133 161 162
147 180 185
105 130 135
121 151 149
139 164 161
150 180 173
123 155 162
134 158 149
121 151 149
150 180 173
148 181 184
86 100 98
154 180 161
134 161 162
145 180 185
151 180 173
123 152 149
101 128 135
140 162 148
120 151 149
101 125 118
125 156 162
146 180 185
136 160 148
97 126 135
148 176 162
132 158 149
121 154 162
100 124 118
118 131 97
136 162 161
135 159 148
112 134 134
133 158 149
112 131 118
150 177 162
142 178 185
141 177 185
146 180 185
128 158 162
134 158 149
141 177 185
125 156 162
133 158 149
95 121 118
123 155 162
98 127 135
146 180 185
83 99 98
113 128 97
99 127 135
152 181 173
120 139 134
147 181 185
101 125 118
113 132 118
151 183 184
148 179 174
72 93 98
132 160 162
133 158 149
145 174 162
107 132 135
96 126 135
113 135 134
144 169 170
129 155 149
139 161 148
86 96 71
100 124 118
132 157 149
127 157 162
143 176 174
136 174 185
124 153 149
134 158 149
143 166 161
101 128 135
116 134 117
131 159 162
127 157 162
113 135 134
109 133 134
130 159 162
133 158 149
107 131 135
130 159 162
146 177 174
108 128 118
145 179 185
100 128 135
143 164 148
152 183 184
148 181 184
143 178 185
143 176 174
124 155 162
108 129 118
107 128 118
139 176 185
143 179 185
73 93 98
138 161 149
149 177 161
141 165 161
127 157 162
142 175 174
129 155 149
105 130 135
111 130 118
66 89 99
145 179 185
109 129 118
164 186 161
131 172 185
105 127 118
153 181 173
110 133 134
142 166 161
141 177 185
126 157 162
145 177 174
118 153 162
127 155 149
138 163 161
147 181 185
124 155 162
134 158 149
144 179 185
119 153 162
145 177 174
132 160 162
133 160 162
126 157 162
118 152 162
148 179 173
107 131 135
120 151 149
96 125 135
114 135 134
94 125 135
131 159 162
140 174 174
96 126 135
143 161 134
103 129 135
130 159 162
148 176 162
158 184 173
134 161 162
147 180 185
145 179 185
148 177 161
129 156 149
151 180 173
73 93 98
127 157 162
133 155 134
124 150 134
123 152 149
118 152 162
123 155 162
137 173 174
135 162 162
145 177 174
155 185 184
130 156 149
107 132 135
120 154 162
121 151 149
122 155 162
135 174 185
134 161 162
110 130 118
155 180 161
127 154 149
124 156 162
141 173 162
109 133 134
135 159 148
150 180 173
106 131 135
120 153 162
146 180 185
113 135 134
151 180 173
143 178 185
129 158 162
106 131 135
141 175 174
110 133 134
147 180 185
155 182 173
92 124 135
117 152 162
99 127 135
129 158 162
133 161 162
116 151 162
81 98 98
74 89 71
149 179 174
113 135 134
117 156 134
96 122 118
128 157 162
139 161 148
97 123 118
114 151 162
127 157 162
156 185 184
138 176 185
129 158 162
141 165 161
142 161 134
119 150 149
128 158 162
75 94 98
157 181 161
104 130 135
110 133 134
137 160 149
121 128 142
132 160 162
160 186 173
99 127 135
151 183 184
108 129 118
86 100 98
129 156 149
143 161 134
155 183 173
131 159 162
138 173 174
105 130 135
104 130 135
153 182 173
133 161 162
130 153 134
124 153 149
102 129 135
113 135 134
135 174 185
143 164 148
142 161 134
135 156 134
123 155 162
116 151 162
92 99 70
132 152 117
145 175 162
106 127 118
126 154 149
101 128 135
79 96 98
113 137 127
138 164 161
134 158 148
75 94 98
106 124 98
133 160 162
154 184 184
116 149 149
146 178 173
75 94 98
146 177 173
70 87 71
109 133 134
96 126 135
124 156 162
127 157 162
146 178 174
122 155 162
134 161 162
130 156 149
134 161 162
127 152 134
108 132 134
106 131 135
111 130 118
132 157 149
152 178 161
154 180 161
131 157 149
113 150 163
144 174 162
108 128 118
151 182 184
109 132 134
156 181 161
152 181 173
152 181 173
114 135 134
144 176 174
149 181 184
118 152 162
136 160 149
149 179 174
137 163 161
99 127 135
117 149 149
133 153 117
120 151 149
105 130 135
122 155 162
132 160 162
152 183 184
148 179 173
107 131 135
125 156 162
100 128 135
117 152 162
123 155 162
105 130 135
132 160 162
138 163 161
147 178 174
158 184 173
147 181 185
140 176 185
106 131 135
110 133 134
145 177 173
144 179 185
115 133 117
148 181 184
132 172 185
130 159 162
130 159 162
156 183 173
110 148 163
117 149 149
148 181 184
153 184 184
141 162 148
155 183 173
105 130 135
137 175 185
118 154 157
96 126 135
157 181 161
115 136 134
138 156 117
111 134 134
78 96 98
135 161 162
94 125 135
128 155 149
125 156 162
127 157 162
125 151 134
147 180 185
129 155 149
81 98 98
138 164 161
80 97 98
138 161 148
127 155 149
145 179 185
131 159 162
156 181 161
149 182 184
141 177 185
112 134 134
127 152 134
161 184 161
108 132 134
126 157 162
155 183 173
129 158 162
128 155 149
115 151 162
109 133 134
130 169 174
149 182 184
118 153 162
144 177 174
126 157 162
95 125 135
134 158 149
127 155 149
148 178 173
86 100 98
127 157 162
0 0 0
130 156 149
149 181 184
108 132 134
150 182 184
129 158 162
121 136 117
150 182 184
109 132 134
97 122 118
140 177 185
131 159 162
118 137 134
127 157 162
141 175 174
129 159 162
152 181 173
113 128 97
141 175 174
132 160 162
149 181 184
115 136 134
73 93 98
103 129 135
93 124 135
134 173 185
86 95 71
145 177 174
118 153 162
90 98 70
87 101 98
132 157 149
142 178 185
149 181 184
106 131 135
98 127 135
132 160 162
127 157 162
118 152 162
134 159 149
133 158 149
66 90 99
151 180 173
153 183 184
98 127 135
112 134 134
143 176 174
146 180 185
135 169 162
108 132 134
111 131 118
116 151 162
143 178 185
140 162 148
122 152 149
140 175 174
147 178 174
106 131 135
102 125 118
142 178 185
143 173 162
72 93 98
136 160 148
106 131 135
135 162 162
157 184 173
119 153 162
144 179 185
143 164 148
107 132 135
143 178 185
110 133 134
135 159 149
110 130 118
137 160 148
154 180 161
127 157 162
135 156 134
123 152 149
142 178 185
137 168 149
107 132 135
129 156 149
122 149 134
105 127 118
128 158 162
110 126 97
153 184 184
121 151 149
132 157 149
151 183 184
98 127 135
120 153 162
160 188 184
122 155 162
102 125 118
134 161 162
144 176 174
128 158 162
103 129 135
134 159 149
149 179 174
160 183 161
117 152 162
158 184 173
0 0 0
99 127 135
146 180 185
128 157 162
123 155 162
135 161 162
145 180 185
138 173 174
118 153 162
150 180 173
75 94 98
145 177 174
121 151 149
154 184 184
102 128 135
99 127 135
134 161 162
147 176 162
128 155 149
108 132 134
148 181 184
113 150 163
103 130 135
139 176 185
152 178 161
157 186 184
126 154 149
149 177 161
146 180 185
90 98 71
119 150 149
130 159 162
115 133 118
131 159 162
147 181 185
119 153 162
124 156 162
146 175 166
137 160 148
142 177 185
112 134 134
146 180 185
117 134 117
150 182 184
150 180 173
99 127 135
103 126 118
78 91 71
109 129 118
125 151 134
125 153 149
134 161 162
131 157 149
157 182 161
111 134 134
125 156 162
132 170 174
142 175 174
149 182 184
154 184 184
159 185 173
106 131 135
95 125 135
124 156 162
114 132 118
101 128 135
109 132 134
128 158 162
119 150 149
140 175 174
114 135 134
135 169 162
137 160 148
150 182 184
139 176 185
102 129 135
114 132 118
127 157 162
98 127 135
131 159 162
149 181 184
148 181 184
119 138 134
152 183 184
116 137 134
117 152 162
93 100 70
145 179 185
127 154 149
131 159 162
120 151 149
155 183 173
126 151 134
149 179 173
110 133 134
118 150 149
109 132 134
155 185 184
119 147 135
133 171 174
100 148 134
126 151 134
135 162 162
121 151 149
121 151 149
130 159 162
142 177 185
134 161 162
103 126 118
138 176 185
140 176 185
134 158 149
145 179 185
122 137 117
100 128 135
143 178 185
128 158 162
144 179 185
155 183 173
138 174 168
128 158 162
125 156 162
141 177 185
127 154 149
155 185 184
117 149 149
130 156 149
150 180 173
141 158 179
154 180 161
130 159 162
153 184 184
118 152 162
131 159 162
140 165 161
109 133 134
131 159 162
152 181 173
112 134 134
151 178 162
150 182 184
118 135 117
129 158 162
115 151 162
131 157 149
125 166 174
130 156 149
119 138 134
138 175 185
88 101 98
128 157 162
141 177 185
130 159 162
149 179 173
97 126 135
129 156 149
123 155 162
107 131 135
106 131 135
142 178 185
97 126 135
127 155 149
135 174 185
124 156 162
123 155 162
128 158 162
152 183 184
144 179 185
129 156 149
142 178 185
150 182 184
138 173 174
151 180 173
117 152 162
104 126 118
108 132 134
104 127 118
131 157 149
108 129 118
118 138 134
127 157 162
149 179 173
147 174 149
137 175 185
147 176 162
111 130 118
102 129 135
145 179 185
98 123 118
134 158 149
133 158 149
106 131 135
99 127 135
108 128 118
145 179 185
111 134 134
125 154 149
137 163 161
126 157 162
102 129 135
135 161 162
133 161 162
161 186 173
69 91 98
88 101 98
126 154 149
141 177 180
138 158 134
153 179 161
149 181 184
141 177 185
116 149 149
135 159 149
98 127 135
107 132 135
150 182 184
159 185 173
126 157 162
0 0 0
78 96 98
129 156 149
134 161 162
153 182 173
132 160 162
123 152 149
123 155 162
133 151 180
126 157 162
101 125 118
107 131 135
103 129 135
102 129 135
126 157 162
76 95 98
139 174 174
159 180 148
150 173 134
126 154 149
145 177 174
93 118 132
131 159 162
118 134 117
101 125 118
130 156 149
139 176 185
93 124 131
146 177 174
139 158 134
125 153 149
158 182 161
127 157 162
92 124 135
133 161 162
126 151 134
135 162 162
143 161 134
139 164 161
139 176 185
144 179 185
123 155 162
122 155 162
102 129 135
98 127 135
137 175 179
136 162 162
129 158 162
115 136 134
133 160 162
139 164 161
109 126 98
156 186 184
130 178 173
146 180 185
119 153 162
99 127 135
102 129 135
131 160 162
146 178 174
118 150 149
127 157 162
138 166 170
116 151 162
112 131 118
129 159 162
77 95 98
126 157 162
142 166 160
123 155 162
74 93 98
152 181 173
135 174 185
144 164 148
114 135 134
148 167 148
103 129 135
145 179 185
125 156 162
144 171 149
75 89 71
108 132 134
128 158 162
124 155 162
149 179 173
94 124 135
124 156 162
132 160 162
86 101 98
142 178 185
121 151 149
77 95 98
100 128 135
144 179 185
139 176 185
152 179 161
139 154 179
142 178 185
129 153 134
145 180 185
149 179 173
130 159 162
157 177 133
121 154 162
135 174 185
127 157 162
121 154 162
141 162 148
93 124 135
157 184 173
123 155 162
131 157 149
138 175 185
112 134 134
139 174 174
151 183 184
137 163 161
119 153 157
137 163 161
110 126 97
99 127 135
136 159 148
121 154 162
117 152 162
103 129 135
138 163 161
127 152 134
117 137 134
127 157 162
152 181 173
145 175 162
143 176 174
144 179 185
119 150 149
110 148 163
134 159 149
152 181 173
146 178 174
88 97 71
69 91 98
127 154 149
149 181 184
154 184 184
100 128 135
146 178 174
108 132 134
152 183 184
74 94 98
137 175 185
143 176 174
136 176 180
102 125 118
108 128 118
132 173 185
84 99 98
154 180 161
134 161 162
132 173 185
149 182 184
150 182 184
122 154 162
85 95 71
147 180 185
123 155 162
129 158 162
120 154 162
121 154 162
143 178 185
102 129 135
125 144 147
126 156 162
111 134 134
144 179 185
121 151 149
148 181 184
127 157 162
127 157 162
123 152 149
130 159 162
67 90 98
144 164 148
111 134 134
103 129 135
124 156 162
109 132 134
147 166 148
116 133 118
145 179 185
135 156 134
121 154 162
126 157 162
147 181 185
141 177 185
105 130 135
150 180 173
153 184 184
142 178 185
138 173 174
102 128 135
67 90 99
126 156 162
133 173 185
151 182 184
130 159 162
134 158 149
105 130 135
128 158 162
129 148 131
107 132 135
148 181 184
129 158 162
133 158 149
149 179 173
133 158 149
119 153 162
126 154 149
111 134 134
104 130 135
84 99 98
128 158 162
134 161 162
139 176 185
125 156 162
129 158 162
142 178 185
110 133 134
107 128 118
149 182 184
125 156 162
109 145 150
85 100 98
152 181 173
133 158 149
150 180 174
150 182 184
126 154 149
131 159 162
150 180 173
137 157 134
129 158 162
129 155 149
143 178 185
124 156 162
71 87 71
153 184 184
131 160 162
134 161 162
133 161 162
142 178 185
130 159 162
145 179 185
142 163 148
135 162 162
139 161 148
118 152 162
111 130 118
140 164 161
147 178 174
114 129 97
125 156 162
143 161 134
142 165 161
120 136 117
97 126 135
142 178 185
140 174 174
132 160 162
157 186 184
107 128 118
111 130 118
140 159 134
152 176 148
96 126 135
154 184 184
99 127 135
140 170 149
96 126 135
108 132 134
157 184 173
113 131 118
70 92 98
153 184 184
126 157 162
130 159 162
144 174 162
136 170 162
81 97 98
131 159 162
130 159 162
141 162 148
118 153 162
132 160 162
130 156 149
103 129 135
147 181 185
112 131 118
148 181 184
149 182 184
156 181 161
138 161 148
151 181 173
117 137 134
131 160 162
118 152 162
145 179 185
146 180 185
147 176 162
133 173 185
76 94 98
102 129 135
111 134 134
136 162 162
135 161 162
122 155 162
94 125 135
127 151 134
114 151 162
153 181 173
82 98 98
126 154 149
147 181 185
120 154 162
133 173 185
107 132 135
128 152 134
122 137 117
154 180 161
109 132 134
115 136 134
130 156 149
153 184 184
104 130 135
105 127 118
129 158 162
130 156 149
143 178 185
112 134 134
146 177 173
119 150 149
147 180 185
136 159 149
112 134 134
135 159 148
147 180 185
141 177 185
131 157 149
144 164 148
124 153 149
145 177 174
122 154 162
113 132 118
142 163 148
143 176 174
156 185 184
142 178 185
120 154 162
132 160 162
152 178 161
146 180 185
146 180 185
129 158 162
145 175 181
156 181 161
148 176 162
67 90 99
132 157 149
133 173 185
148 181 184
141 177 185
80 97 98
123 155 162
139 161 148
149 182 184
141 177 185
137 173 174
149 182 184
135 156 134
131 157 149
122 149 135
141 175 174
127 154 149
136 162 162
108 128 118
113 135 134
151 183 184
145 174 162
143 178 185
112 134 134
135 159 149
107 131 135
136 160 148
143 176 174
143 176 174
150 180 174
126 157 162
123 152 149
94 124 135
141 177 185
86 100 98
137 160 148
127 157 162
142 175 174
143 176 174
141 177 185
132 170 174
128 158 162
134 161 162
127 154 149
138 176 185
76 90 71
135 156 134
118 138 134
132 160 162
142 177 185
153 184 184
152 183 184
147 181 185
88 102 98
131 159 162
126 154 149
141 177 185
128 155 149
97 126 135
158 182 161
137 175 185
135 171 174
88 101 98
131 160 162
145 177 174
130 159 162
92 124 135
104 130 135
0 0 0
149 181 184
156 183 173
149 182 184
150 182 184
113 135 134
119 153 162
147 178 174
148 178 174
120 154 162
131 159 162
118 152 162
150 180 173
148 181 184
136 175 185
125 156 162
149 177 162
0 0 0
126 154 149
104 130 135
84 99 98
105 131 135
125 156 162
148 181 184
111 134 134
140 177 185
132 160 162
96 126 135
142 175 174
153 184 184
140 165 161
129 158 162
106 128 118
125 153 149
127 157 162
136 162 162
149 182 184
151 183 184
105 131 135
110 133 134
128 158 162
132 160 162
108 132 134
106 128 118
101 128 135
147 181 185
98 127 135
140 174 174
120 148 135
108 132 134
118 137 134
105 151 149
134 173 185
136 159 149
105 127 118
125 156 162
133 161 162
146 175 162
99 127 135
128 157 162
119 138 134
151 183 184
125 153 149
102 129 135
136 162 162
140 176 185
126 157 162
106 131 135
104 126 118
138 171 162
132 160 162
121 154 162
143 176 174
137 175 185
142 165 161
112 131 118
108 128 118
139 159 134
126 154 149
119 135 117
102 125 118
133 161 162
123 155 157
148 181 184
119 139 134
138 176 185
151 183 184
111 134 134
110 133 134
95 122 118
128 158 162
138 161 148
142 178 185
125 151 135
120 153 162
133 161 162
105 130 135
120 154 162
125 153 149
143 178 185
109 132 134
124 156 162
115 136 134
131 159 162
122 155 162
126 154 149
138 161 148
109 133 134
149 179 173
149 182 184
129 171 185
129 158 162
146 165 148
157 184 173
145 175 162
115 133 117
150 182 184
137 160 148
130 159 162
92 124 135
144 177 174
112 131 118
115 136 134
157 182 161
153 184 184
140 174 174
135 159 149
113 132 118
130 159 162
121 154 162
119 138 134
111 130 118
146 180 185
139 161 148
130 159 162
150 182 184
143 178 185
105 130 135
111 130 118
70 92 98
150 180 173
133 161 162
152 183 184
108 132 134
102 129 135
133 160 162
109 133 134
123 155 162
109 129 118
117 152 162
108 129 118
120 136 117
104 127 118
146 175 162
131 157 149
116 136 134
148 179 173
132 158 141
69 91 98
122 152 149
98 127 135
125 153 149
128 158 162
117 137 134
148 181 184
131 160 162
110 130 118
121 151 149
151 180 173
126 154 149
141 175 174
151 183 184
105 127 118
109 129 118
163 185 161
125 156 162
134 161 162
131 159 162
112 131 118
114 135 134
121 151 149
93 124 135
142 175 174
144 179 185
124 153 149
104 130 135
147 178 173
130 153 134
131 157 149
146 178 174
119 153 162
152 179 161
121 151 149
132 160 162
136 175 185
133 160 162
124 155 162
137 175 185
89 98 71
146 178 174
139 174 174
136 160 149
79 96 98
161 186 173
128 158 162
106 124 98
133 160 162
135 159 148
150 175 148
103 126 118
125 153 149
153 182 173
141 165 161
144 179 185
129 155 149
77 95 98
129 155 149
134 161 162
142 175 174
139 161 148
147 178 174
131 170 174
132 160 162
129 158 162
129 156 149
124 153 149
129 158 162
125 154 149
98 119 98
137 175 185
82 98 98
133 161 162
124 156 162
122 154 162
129 158 162
133 161 162
145 179 185
141 165 161
103 126 118
151 180 173
148 181 184
145 179 185
147 178 173
132 160 162
98 126 135
111 131 118
141 165 161
125 156 162
125 156 162
117 137 134
147 180 185
148 181 184
144 176 174
135 161 162
140 165 161
76 90 71
151 180 173
107 132 135
103 126 118
133 160 162
145 177 174
93 117 98
134 156 134
124 155 162
147 181 185
131 159 162
141 177 185
70 92 98
128 152 134
149 177 162
130 156 149
158 184 173
156 183 173
146 180 185
127 157 162
109 129 118
97 122 118
138 161 148
146 178 174
126 157 162
127 157 162
146 180 185
148 181 184
150 180 173
129 156 149
135 171 174
112 134 134
139 176 185
133 161 162
150 182 184
144 162 133
114 135 134
129 155 149
127 170 185
144 176 174
124 153 149
152 183 184
132 157 149
131 160 162
113 135 134
86 101 98
105 130 135
147 176 162
141 177 185
131 160 162
133 158 149
121 151 149
139 164 161
143 176 174
147 178 174
165 189 173
128 157 162
155 181 161
66 90 99
116 136 134
144 179 185
134 158 148
124 156 162
112 150 163
132 160 162
156 178 148
118 152 162
152 183 184
149 179 173
156 185 184
147 178 174
129 158 162
114 132 118
155 183 173
96 122 118
99 124 118
140 177 185
113 128 97
117 152 162
128 155 149
149 181 184
142 176 174
142 178 185
151 182 184
135 159 149
122 155 162
146 180 185
128 158 162
137 163 161
125 154 143
111 130 118
110 133 134
132 160 162
109 133 134
81 98 98
116 152 162
147 181 185
102 129 135
130 159 162
119 135 117
109 132 134
141 172 162
126 156 162
130 156 149
146 180 185
132 160 162
135 159 149
157 181 161
131 157 149
128 158 162
160 186 173
136 159 149
123 152 149
146 180 185
154 182 173
105 131 135
151 182 184
127 157 162
117 149 149
104 130 135
105 130 135
126 154 149
108 132 134
124 153 149
103 129 135
127 157 162
129 158 162
104 130 135
156 186 184
126 154 149
138 158 134
93 124 135
141 162 148
138 176 185
127 154 149
149 159 179
144 176 174
96 126 135
112 131 118
135 174 185
111 130 118
110 133 134
115 136 134
147 180 185
135 172 174
150 182 184
149 179 173
106 131 135
127 157 162
131 157 149
120 154 162
146 175 162
105 130 135
138 176 185
126 156 162
133 161 162
121 154 162
142 163 148
108 132 134
147 178 174
125 150 134
121 154 162
133 160 162
144 179 185
120 153 162
135 159 149
114 150 163
83 98 98
137 163 161
104 130 135
125 156 162
129 158 162
129 153 134
131 159 162
112 131 118
113 150 163
80 97 98
142 160 134
145 177 174
102 129 135
134 161 162
0 0 0
101 128 135
125 156 162
126 156 162
143 176 174
123 155 162
140 165 161
128 155 149
116 133 118
109 148 163
130 159 162
135 174 185
145 179 185
129 158 162
133 161 162
154 182 173
132 173 185
139 176 185
144 176 174
118 134 117
148 181 184
115 151 162
68 90 98
127 157 162
140 177 185
141 175 174
157 182 161
127 154 149
126 157 162
101 125 118
106 128 118
125 156 162
145 177 174
153 181 173
114 132 118
133 160 162
134 161 162
132 160 162
124 156 162
133 173 185
128 155 149
141 163 148
71 92 98
113 150 163
144 177 174
126 157 162
151 180 173
154 184 184
141 177 185
84 99 98
134 161 162
119 150 149
115 133 117
112 131 117
72 92 98
138 173 174
106 131 135
116 136 134
154 184 184
128 158 162
155 183 173
123 152 149
77 95 98
104 130 135
138 160 148
115 132 118
106 131 135
142 175 174
119 153 162
117 137 134
141 177 185
125 154 149
119 150 149
129 156 149
146 177 174
86 100 98
131 159 162
124 155 162
128 155 149
158 182 161
121 154 162
149 182 184
128 155 149
128 158 162
106 93 126
137 175 185
132 160 162
118 150 149
137 157 134
141 163 148
81 98 98
149 178 182
140 162 148
143 179 185
149 179 173
150 182 184
143 178 185
132 157 149
129 158 162
120 153 162
142 178 185
145 180 185
128 158 162
84 99 98
145 177 174
78 91 71
112 134 134
133 160 162
118 152 162
138 161 149
108 129 118
79 96 98
121 140 134
137 170 162
112 131 118
135 159 149
102 129 135
69 91 98
154 185 184
120 154 162
130 159 162
139 162 148
113 150 163
119 138 134
128 152 134
98 123 118
153 184 184
125 156 162
101 125 118
152 183 184
126 157 162
68 90 98
149 182 184
0 0 0
115 133 117
105 130 135
136 150 144
131 159 162
113 135 134
124 153 149
149 179 173
98 127 135
125 156 162
78 96 98
106 124 98
147 180 185
125 156 162
113 135 134
111 134 134
134 158 149
118 150 149
152 181 173
106 131 135
129 155 149
108 132 134
100 124 118
123 155 162
154 182 173
82 98 98
145 180 185
67 90 99
130 156 149
130 159 162
94 124 135
146 175 162
67 90 99
76 95 98
104 130 135
130 159 162
90 123 135
134 161 162
133 160 162
117 152 162
111 134 134
125 156 162
154 180 161
116 133 117
133 170 174
134 158 149
146 175 162
141 163 148
83 94 71
119 153 162
135 162 162
142 178 185
145 179 185
130 159 162
142 151 168
131 157 149
120 153 162
126 156 162
149 177 162
101 121 98
119 153 162
84 99 98
68 91 98
144 162 134
145 177 174
79 97 98
106 131 135
146 180 185
67 90 98
160 185 173
146 178 167
102 129 135
143 178 185
134 158 148
140 172 162
0 0 0
117 146 135
130 159 162
120 154 162
132 157 149
121 154 162
158 187 184
157 184 173
134 171 174
113 150 163
150 182 184
120 153 162
127 157 162
154 184 184
101 91 127
147 180 185
136 159 149
126 156 162
141 177 185
103 129 135
133 158 149
126 157 162
135 159 149
115 124 156
127 155 149
113 131 118
153 179 161
130 159 162
104 130 135
120 151 149
111 137 145
127 157 162
108 132 134
112 131 117
99 124 118
88 101 98
117 149 149
132 173 185
103 129 135
124 156 162
132 160 162
138 175 185
123 155 162
160 185 173
138 173 174
109 129 118
132 155 134
139 174 174
130 159 162
117 137 134
125 156 155
151 178 161
125 156 162
117 137 134
144 179 185
145 177 174
148 179 173
121 148 135
76 95 98
157 186 184
122 155 162
104 126 118
105 130 135
150 182 184
154 182 173
98 116 112
145 179 185
132 160 162
107 131 135
119 153 162
74 94 98
102 129 135
115 136 134
98 126 135
140 177 185
99 127 135
130 159 162
126 156 162
134 161 162
132 157 149
146 180 185
141 175 174
112 134 134
130 156 149
118 153 162
128 155 149
126 154 149
100 124 118
148 181 184
140 174 174
126 157 162
114 132 117
139 164 161
129 158 162
124 153 149
129 158 162
108 132 134
146 178 174
107 132 135
151 178 161
126 156 162
147 178 174
132 157 149
127 157 162
97 126 135
138 171 162
126 157 162
111 134 134
121 154 162
148 179 174
148 177 162
126 154 149
106 131 135
137 163 161
125 156 162
104 130 135
126 154 149
150 180 173
125 156 162
99 127 135
0 0 0
131 156 149
111 134 134
150 180 173
131 157 149
114 132 117
141 165 161
146 180 185
152 181 173
103 129 135
123 152 149
120 150 149
117 152 162
82 98 98
144 176 174
159 183 161
151 180 173
121 154 162
152 183 184
154 182 173
151 182 184
112 134 134
133 152 117
140 177 185
103 129 135
121 151 149
101 125 118
105 130 135
107 128 118
143 178 185
100 124 118
130 159 162
155 185 184
109 129 118
154 184 184
127 154 149
107 128 118
151 180 173
132 172 185
107 132 135
156 181 161
115 136 134
129 156 149
136 175 185
72 93 98
150 182 184
130 156 149
122 149 134
74 89 71
126 157 162
139 176 185
153 184 184
125 156 162
125 154 149
110 130 118
138 176 185
127 157 162
103 126 118
148 181 184
149 177 162
129 156 149
102 126 118
116 148 149
121 154 162
153 179 161
109 133 134
109 133 134
106 131 135
105 127 118
158 182 161
144 179 185
146 180 185
135 159 149
120 150 149
151 180 173
162 185 161
133 158 149
75 94 98
145 172 149
105 130 135
126 154 149
123 152 149
139 176 185
112 149 163
152 183 184
133 161 162
135 175 180
84 99 98
153 182 173
132 160 162
133 161 162
130 156 149
154 177 148
107 132 135
131 157 149
139 176 185
100 128 135
135 162 162
151 178 162
146 178 174
147 180 185
105 127 118
113 150 163
125 156 162
130 159 162
110 130 118
130 156 149
102 129 135
137 160 149
138 163 161
112 134 134
152 181 173
144 176 174
141 177 185
148 181 184
144 179 185
99 127 135
138 161 148
114 151 162
164 188 173
134 161 162
152 183 184
93 124 135
108 129 118
139 164 161
100 128 135
120 154 162
125 156 162
132 160 162
131 159 162
121 151 149
110 133 134
107 128 118
131 160 162
124 156 162
152 183 184
116 151 162
132 160 162
111 130 118
148 181 184
99 124 118
126 157 162
122 155 162
104 130 135
151 166 133
103 129 135
126 154 149
88 118 119
146 180 185
73 93 98
146 180 185
142 178 185
136 160 148
117 137 134
156 185 184
139 161 148
137 175 185
146 177 173
137 175 185
124 155 162
109 133 134
107 128 118
128 158 162
122 155 162
147 180 185
144 176 174
118 153 162
94 125 135
131 159 162
74 94 98
161 186 173
150 180 174
151 180 173
148 181 184
136 174 185
103 126 118
111 134 134
115 151 162
120 153 162
160 188 184
105 130 135
131 159 162
127 157 162
147 178 174
127 157 162
69 91 98
144 177 174
141 177 185
83 99 98
117 137 134
131 157 149
101 128 135
122 152 149
126 154 149
105 130 135
155 185 184
135 162 162
131 159 162
142 178 185
153 184 184
143 178 185
106 124 98
121 154 162
127 152 134
114 135 134
108 129 118
128 158 162
132 160 162
142 165 161
114 150 163
127 155 149
150 180 173
97 123 118
97 120 132
84 99 98
152 183 184
128 158 162
111 130 118
69 91 98
142 166 161
142 178 185
139 174 174
148 181 184
109 133 134
108 132 134
154 182 173
144 179 185
105 127 118
158 185 173
132 157 149
131 156 149
153 184 184
124 155 162
119 135 117
142 178 185
144 179 185
126 157 162
87 101 98
121 154 162
128 158 162
107 131 135
113 135 134
138 175 185
88 97 71
142 178 185
142 178 185
129 156 149
128 158 162
100 124 118
85 95 71
145 179 185
135 162 162
146 180 185
129 152 151
137 163 161
160 188 184
103 129 135
129 158 162
145 177 174
129 158 162
138 173 174
130 159 162
139 161 148
133 160 162
118 138 134
114 147 149
136 162 161
149 182 184
134 171 174
154 185 184
134 158 149
134 161 162
78 96 98
103 129 135
132 160 162
0 0 0
133 160 162
122 154 162
127 157 162
141 177 185
117 149 149
103 129 135
150 182 184
137 160 148
152 181 173
119 153 162
154 182 173
127 157 162
127 157 162
112 131 118
127 157 162
130 159 162
147 178 174
145 179 185
129 158 162
146 177 174
126 154 149
110 133 134
77 95 98
139 176 185
134 161 162
127 157 162
129 156 149
116 151 162
102 129 135
111 130 118
142 178 185
126 157 162
154 182 173
105 131 135
138 173 174
138 161 148
136 147 156
126 154 149
127 157 162
136 159 149
140 176 185
133 160 162
125 156 162
152 183 184
113 135 134
127 157 162
145 179 185
105 130 135
122 155 162
137 160 148
148 181 184
126 157 162
113 135 134
108 129 118
133 155 134
135 174 185
145 179 185
101 125 118
118 153 162
148 179 173
143 178 185
154 182 173
122 155 162
140 177 185
132 173 185
101 125 118
80 97 98
150 178 162
146 177 174
114 135 134
112 131 118
136 175 185
139 164 161
111 134 134
150 178 162
134 161 162
122 155 162
133 158 149
103 129 135
121 151 149
153 184 184
101 128 135
102 129 135
81 97 98
141 172 162
154 180 161
138 173 174
138 176 185
109 133 134
134 156 134
124 155 162
117 152 162
108 132 134
105 130 135
149 179 173
113 135 134
150 180 173
110 133 134
121 154 162
147 180 185
111 134 134
152 183 184
137 173 174
146 180 185
141 165 161
97 126 135
107 131 135
119 153 162
132 160 162
152 183 184
137 175 185
126 154 149
156 183 173
138 176 185
75 94 98
130 153 134
135 162 162
121 154 162
135 159 148
133 161 162
129 158 162
138 176 185
146 180 185
124 156 162
134 159 149
0 0 0
135 161 162
153 182 173
107 131 135
124 155 162
100 128 135
130 169 174
122 154 162
150 178 161
143 176 174
118 152 162
128 158 162
147 180 185
132 157 149
132 157 149
137 160 148
129 153 134
112 134 134
134 161 162
131 154 134
125 153 149
108 132 134
147 180 185
123 155 162
129 158 162
126 154 149
149 182 184
154 184 184
110 130 118
136 162 162
162 185 161
109 133 134
126 156 162
130 156 149
124 156 162
100 127 135
147 180 185
98 127 135
92 124 135
141 175 174
148 176 162
124 155 162
134 158 149
131 157 149
125 153 149
126 157 162
114 132 118
144 179 185
133 161 162
155 181 161
133 160 162
101 125 118
106 131 135
122 152 149
153 184 184
123 155 162
132 154 134
147 180 185
121 154 162
132 160 162
120 153 162
137 175 185
110 130 118
80 97 98
152 181 173
150 180 173
102 129 135
137 160 148
142 165 161
142 178 185
151 180 173
146 180 185
125 156 162
120 153 162
157 186 184
150 180 174
125 151 134
152 181 173
107 131 135
143 178 185
129 158 162
116 152 162
141 175 174
147 180 185
111 134 134
63 83 72
134 161 162
129 156 149
77 95 98
76 95 98
151 183 184
99 127 135
147 176 162
139 176 185
147 180 185
146 178 173
133 158 149
144 171 149
97 126 135
143 178 185
137 163 161
119 153 162
128 155 149
154 184 184
110 133 134
123 152 149
109 132 134
138 163 161
148 179 174
105 127 118
147 176 161
127 155 149
109 132 134
104 126 118
149 182 184
145 180 185
139 176 185
151 181 173
132 160 162
121 151 149
97 126 135
153 182 173
152 183 184
134 158 149
152 183 184
137 173 174
111 134 134
121 154 162
118 153 162
122 154 162
94 125 135
144 179 185
139 164 161
146 180 185
131 159 162
108 132 134
148 181 184
132 170 174
153 184 184
146 180 185
138 161 148
141 162 148
123 152 149
163 185 161
137 160 148
133 161 162
129 158 162
141 163 148
116 152 162
136 162 162
104 130 135
126 157 162
143 178 185
122 155 162
133 158 149
144 176 174
136 172 174
127 157 162
109 133 134
130 159 162
80 92 71
168 186 148
100 128 135
103 129 135
147 178 173
122 155 162
131 160 162
113 131 118
153 184 184
127 157 162
119 153 162
138 173 174
129 147 147
126 157 162
92 116 98
146 178 174
117 134 117
157 186 184
104 130 135
76 95 98
83 99 98
128 136 155
95 125 135
133 160 162
76 95 98
131 160 162
138 173 174
132 158 149
152 183 184
135 172 174
152 183 184
145 165 148
126 157 162
125 156 162
96 118 98
121 151 149
155 180 161
129 158 162
154 184 184
147 180 185
139 171 162
78 96 98
128 152 134
104 130 135
127 157 162
121 151 142
139 176 185
135 174 185
132 160 162
148 179 174
146 180 185
136 172 174
123 138 117
123 152 149
146 165 148
137 160 148
146 178 174
138 161 148
129 158 162
122 154 162
136 160 149
129 155 149
128 158 162
72 93 98
154 182 173
151 180 173
150 180 173
103 129 135
139 159 134
132 158 149
145 179 185
121 154 162
161 182 148
116 136 134
103 126 118
0 0 0
135 157 134
135 171 174
149 182 184
124 156 162
129 158 162
104 130 135
81 97 98
132 170 174
121 151 149
144 169 134
134 156 134
134 161 162
138 173 174
124 153 149
100 128 135
129 158 162
131 157 149
141 177 185
143 178 185
127 157 162
135 159 148
110 133 134
98 127 135
142 178 185
108 132 134
126 154 149
121 151 149
124 156 162
151 183 184
150 180 173
124 156 162
104 130 135
139 174 174
94 125 135
123 155 162
120 153 162
157 186 184
107 132 135
143 178 185
128 155 149
115 136 134
136 175 185
109 132 134
129 158 162
131 159 162
123 153 149
70 91 98
113 132 117
148 179 174
137 175 185
130 171 185
129 158 162
85 100 98
107 131 135
125 156 162
104 127 118
140 177 185
121 151 149
122 155 155
143 178 185
146 180 185
94 125 135
138 158 134
0 0 0
139 176 185
126 157 162
147 178 173
138 163 161
142 178 185
147 178 173
103 126 118
130 159 162
109 133 134
154 182 173
124 155 162
102 129 135
77 90 71
123 155 162
143 176 174
123 155 162
126 157 162
123 152 149
102 129 135
100 121 98
125 156 162
98 127 135
107 131 135
144 179 185
98 127 135
146 178 173
122 152 149
111 131 118
141 177 185
119 135 117
153 181 173
130 156 149
118 152 162
126 154 149
149 180 173
146 178 174
104 130 135
149 182 184
132 160 162
116 133 117
145 177 174
69 91 98
111 130 118
148 176 162
143 178 185
106 131 135
136 174 185
132 160 162
78 96 98
133 161 162
128 157 162
110 148 163
130 159 162
125 156 162
146 180 185
149 182 184
130 156 149
124 155 162
137 163 161
140 159 134
105 127 118
104 130 135
108 132 134
94 121 118
112 134 134
124 155 162
148 179 173
107 132 135
144 179 185
107 132 135
128 158 162
129 159 162
137 163 161
128 155 149
141 177 185
144 179 185
108 128 118
142 175 174
134 158 149
111 133 134
153 184 184
100 128 135
105 130 135
151 183 184
100 127 135
141 176 170
149 181 184
126 157 162
129 153 134
133 161 162
141 177 185
146 180 185
128 158 162
142 178 185
147 181 185
129 158 162
133 161 162
144 177 174
146 180 185
141 177 185
130 159 162
68 90 98
123 152 149
128 158 162
131 154 134
120 153 162
153 181 173
146 180 185
124 156 162
147 180 185
149 181 184
153 184 184
148 179 174
123 155 162
131 159 162
133 160 162
141 177 185
133 160 162
94 124 135
141 177 185
128 158 162
67 90 98
158 187 184
156 183 173
99 124 118
76 95 98
154 184 184
100 124 118
132 160 162
120 154 162
142 177 185
142 175 174
140 177 185
109 133 134
107 132 135
129 158 162
148 179 173
87 101 98
131 159 162
77 95 98
128 155 149
151 183 184
156 185 184
133 170 174
121 154 162
125 156 162
147 176 162
135 172 174
154 184 184
142 165 161
133 158 149
102 129 135
152 183 184
110 142 135
118 152 162
144 179 185
115 151 162
106 127 118
123 155 162
77 95 98
116 136 134
120 154 162
147 178 173
154 182 173
133 161 162
152 179 161
128 155 149
152 181 173
106 131 135
124 153 149
142 177 185
121 148 135
150 182 184
142 178 185
151 183 184
129 158 162
128 155 149
109 148 163
135 162 162
127 157 162
117 137 134
128 158 162
143 176 174
154 184 184
126 157 162
148 176 162
131 160 162
103 126 118
93 124 135
120 136 117
134 159 149
129 156 149
157 184 173
120 139 134
101 128 135
123 155 162
146 175 162
114 150 163
131 159 162
155 185 184
134 161 162
100 120 98
119 150 149
134 161 162
78 96 98
96 126 135
113 135 134
129 158 162
114 136 134
76 95 98
156 181 161
148 179 174
129 158 162
104 130 135
143 176 174
140 162 148
151 180 173
113 135 134
124 153 149
122 152 149
110 133 134
133 160 162
144 179 185
99 123 118
105 130 135
130 156 149
96 126 135
145 179 185
84 99 98
75 94 98
103 130 135
133 158 149
105 130 135
145 162 134
143 178 185
81 97 98
135 174 185
107 131 135
134 158 149
124 156 162
104 130 135
136 162 161
141 177 185
144 179 185
123 155 162
135 174 185
116 151 162
123 152 149
148 181 184
149 181 184
155 183 173
140 177 185
149 182 184
139 164 161
146 180 185
112 131 118
144 176 174
111 134 134
137 160 148
119 154 157
105 130 135
103 129 135
66 84 72
145 177 174
146 175 162
137 160 149
129 156 149
145 177 174
115 136 134
140 177 185
159 187 184
129 159 162
154 182 173
141 177 185
151 180 173
127 155 149
109 133 134
121 151 149
141 165 161
140 177 185
123 155 162
122 152 149
122 155 162
123 134 97
140 164 161
124 153 149
81 93 71
129 158 162
149 182 184
124 155 162
132 160 162
138 176 185
126 154 149
123 155 162
116 137 134
142 165 161
128 158 162
141 160 134
151 178 161
140 177 185
118 134 117
133 161 162
105 127 118
146 180 185
114 135 134
120 154 162
139 169 149
136 160 148
121 154 162
145 177 174
131 157 149
133 160 162
147 180 185
145 179 185
123 155 162
82 93 71
129 177 173
123 146 158
152 179 161
143 176 174
146 180 185
106 131 135
143 173 162
150 182 184
125 156 162
132 170 174
107 131 135
138 176 185
127 157 162
123 155 162
111 130 118
104 130 135
99 127 135
152 181 173
138 164 161
123 155 162
138 161 148
128 158 162
126 157 162
147 178 173
151 180 173
135 171 174
131 159 162
131 160 162
67 90 99
146 178 174
144 177 174
135 159 148
138 176 185
128 157 162
133 160 162
153 182 173
106 131 135
133 173 185
105 130 135
123 155 162
108 132 134
142 175 174
127 157 162
87 101 98
105 130 135
99 127 135
88 97 71
135 174 185
137 175 180
135 174 185
145 177 174
154 182 173
114 135 134
137 175 185
140 159 134
145 179 185
149 182 184
136 172 174
113 150 163
155 183 173
117 152 162
76 95 98
129 158 162
147 181 185
137 175 185
109 132 134
103 129 135
108 132 134
150 177 161
128 158 162
118 150 149
129 155 149
107 128 118
152 179 161
156 181 161
128 158 162
125 156 162
117 149 149
132 158 149
102 126 118
148 179 173
116 136 134
119 153 162
154 184 184
134 156 134
129 156 149
153 184 184
132 157 149
107 132 135
128 155 149
110 133 134
144 179 185
98 127 135
107 131 135
134 161 162
144 174 162
141 177 185
126 157 162
124 156 162
139 174 174
146 180 185
123 155 162
143 164 148
130 156 149
136 174 185
99 127 135
128 155 149
139 173 174
125 156 162
135 161 162
158 184 173
126 157 162
139 161 148
145 179 185
115 136 134
132 160 162
151 183 184
141 177 185
155 185 184
125 156 162
128 158 162
133 160 162
118 152 162
71 92 98
152 181 173
138 163 161
132 160 162
151 183 184
144 179 185
116 151 162
149 181 184
98 127 135
147 178 173
101 128 135
121 154 162
107 131 135
101 125 118
149 181 184
112 134 134
121 151 149
131 157 149
145 177 174
147 180 185
134 158 149
121 151 149
98 127 135
101 128 135
99 127 135
126 156 162
143 178 185
135 162 162
130 159 162
150 182 184
125 156 162
110 133 134
135 159 149
141 177 185
148 181 184
84 99 98
141 173 183
122 155 162
141 175 174
153 184 184
84 99 98
127 157 162
117 137 134
145 177 174
146 180 185
106 128 118
128 158 162
137 163 161
127 154 149
136 175 185
144 177 174
107 131 135
146 180 185
112 134 134
133 161 162
133 173 185
144 179 185
161 186 173
141 160 134
129 156 149
157 184 173
153 184 184
139 158 134
132 160 162
135 159 149
127 157 162
138 161 148
146 178 174
114 148 149
97 126 135
84 99 98
143 178 185
130 159 162
114 132 117
144 179 185
120 154 162
0 0 0
156 181 161
133 161 162
101 128 135
108 128 118
86 100 98
131 159 162
133 161 162
141 177 185
138 163 161
131 132 155
103 129 135
103 129 135
136 175 185
142 178 185
126 151 134
140 174 174
136 162 162
120 136 117
124 153 149
109 133 134
128 158 162
112 131 118
105 130 135
143 178 185
137 163 161
99 127 135
148 176 175
157 184 173
127 157 162
135 159 149
106 131 135
0 0 0
117 152 162
96 126 135
110 133 134
156 181 161
143 176 174
160 184 161
148 181 184
148 179 174
138 176 185
122 154 162
134 161 162
104 130 135
149 181 184
86 101 98
144 177 174
139 176 185
126 154 149
152 179 162
144 179 185
122 155 162
127 157 162
155 185 184
147 181 185
114 135 134
121 154 162
129 158 162
118 153 162
108 128 118
145 179 185
137 175 180
135 159 149
133 158 149
143 167 157
142 178 185
124 150 135
131 157 149
137 163 161
142 178 185
127 157 162
103 129 135
145 179 185
140 159 134
140 159 134
158 184 173
113 135 134
135 162 162
148 179 173
129 158 162
130 156 149
134 161 162
126 154 149
140 164 161
120 154 162
122 154 162
132 160 162
148 179 174
108 132 134
149 182 184
122 152 149
135 161 162
122 152 149
126 157 162
145 165 148
128 158 162
121 151 149
154 184 184
131 160 162
136 175 185
149 181 184
103 129 135
95 122 118
144 179 185
148 181 184
145 179 185
142 178 185
143 176 174
127 155 149
125 154 149
146 178 174
152 181 173
111 134 134
132 157 149
73 93 98
132 160 162
138 158 134
152 183 184
124 156 162
150 182 184
127 157 162
158 184 173
149 182 184
69 91 98
107 128 118
118 135 117
120 151 149
151 181 173
99 127 135
134 156 134
138 161 148
152 181 173
73 93 98
132 160 162
156 185 184
111 134 134
131 160 162
138 163 161
144 176 174
153 184 184
110 133 134
135 159 149
121 154 162
152 183 184
149 182 184
136 162 161
143 176 174
123 155 162
152 183 184
147 178 173
119 153 162
116 152 162
130 156 149
120 153 162
134 161 162
136 160 149
117 137 134
105 130 135
121 149 135
105 131 135
128 158 162
93 120 118
149 159 179
123 152 149
82 98 98
117 149 149
125 156 162
127 154 149
125 156 162
153 181 173
127 157 162
130 156 149
136 175 185
147 181 185
128 158 162
98 127 135
114 144 135
141 136 141
122 154 162
146 180 185
145 175 162
104 126 118
145 175 162
81 98 98
136 175 185
151 180 173
104 130 135
119 153 162
145 177 174
135 162 162
125 154 149
141 177 185
144 174 162
131 157 149
139 161 148
105 130 135
124 150 134
86 100 98
145 177 174
132 173 185
93 124 135
148 178 174
122 154 162
150 180 173
132 157 149
100 128 135
140 177 185
121 154 162
126 156 162
152 183 184
94 124 135
142 178 185
149 179 173
149 179 173
138 175 185
123 152 149
125 153 149
123 152 149
124 153 149
136 160 148
132 157 149
156 183 173
125 156 162
124 153 149
133 161 162
68 91 98
123 152 149
144 179 185
144 179 185
126 157 162
134 158 149
121 154 162
138 164 161
147 180 185
117 137 134
136 157 134
141 177 185
151 183 184
108 132 134
128 155 149
115 136 134
138 176 185
133 160 162
130 159 162
110 133 134
102 129 135
155 183 173
125 156 162
112 134 134
135 161 162
126 157 162
93 124 135
105 130 135
128 158 162
132 154 134
137 163 161
130 133 155
129 155 149
155 181 161
150 180 173
125 156 162
146 180 185
143 176 174
130 156 149
135 162 162
124 153 149
102 129 135
132 157 149
126 156 162
156 181 161
83 98 98
130 156 149
131 157 149
132 157 149
141 175 174
121 148 135
142 178 185
139 176 185
118 137 134
93 121 118
113 132 118
151 183 184
128 158 162
157 181 161
141 162 148
126 154 149
99 124 118
142 175 174
94 124 135
124 155 162
103 129 135
144 177 174
149 179 173
146 178 174
141 177 185
145 179 185
139 173 174
134 156 134
139 164 161
83 99 98
125 156 162
128 158 162
149 179 173
126 157 162
138 176 185
131 159 162
149 179 173
127 155 149
133 161 162
108 132 134
131 169 174
137 175 185
104 130 135
96 122 118
130 156 149
113 135 134
140 177 185
155 155 161
127 155 149
134 158 149
122 154 162
128 155 149
127 154 149
109 133 134
124 155 162
129 158 162
121 154 162
138 176 185
153 181 173
146 157 179
107 128 118
122 154 162
135 161 162
103 129 135
148 181 184
128 158 162
123 155 162
136 154 117
143 176 174
151 182 184
140 172 162
155 185 184
92 124 135
152 181 173
147 180 185
105 127 118
126 157 162
129 158 162
104 130 135
124 153 149
136 174 185
122 154 162
107 128 118
140 177 185
139 152 174
104 130 135
119 153 162
156 181 161
146 180 185
134 174 185
133 173 185
119 153 162
151 178 161
105 130 135
134 161 162
107 132 135
149 181 184
152 183 184
134 159 149
141 177 185
110 133 134
160 185 173
111 149 163
150 182 184
98 127 135
138 163 161
106 129 108
128 158 162
109 132 134
149 181 184
116 149 149
148 179 173
160 186 173
154 182 173
139 176 185
119 153 162
110 133 134
127 157 162
93 124 135
149 182 184
130 156 149
127 157 162
115 148 149
126 157 162
117 137 134
154 182 173
142 178 185
131 154 134
133 160 162
116 151 162
147 180 185
124 153 149
155 185 184
132 173 185
147 176 162
147 180 185
129 158 162
139 176 185
142 175 174
143 178 185
106 131 135
124 156 162
108 132 134
157 184 173
109 132 134
153 184 184
75 94 98
118 134 117
86 100 98
155 185 184
154 182 173
94 124 135
80 97 98
112 131 118
142 178 185
103 126 118
120 153 162
146 180 185
139 176 185
134 161 162
149 181 184
102 129 135
140 176 185
121 154 162
157 184 173
118 152 162
113 135 134
109 129 118
128 155 149
136 162 161
134 161 162
127 157 162
128 158 162
109 133 134
131 157 149
109 132 134
87 101 98
132 160 162
140 172 162
105 130 135
129 158 162
143 178 185
122 154 162
117 137 134
117 134 117
108 132 134
126 156 162
121 154 162
114 132 117
127 154 149
135 172 174
139 176 185
116 152 162
125 154 149
149 181 184
128 158 162
137 160 148
132 157 149
118 153 162
140 174 174
125 153 149
115 132 118
124 153 149
120 154 162
70 91 98
132 157 149
148 181 184
150 180 173
135 174 185
137 160 148
99 127 135
143 178 185
128 158 162
137 175 185
100 128 135
91 99 70
106 131 135
150 182 184
121 154 162
146 180 185
139 164 161
136 162 161
102 129 135
115 133 117
105 130 135
111 133 134
120 151 149
134 161 162
135 159 149
145 179 185
142 175 174
117 137 134
136 175 185
99 127 135
129 158 162
129 158 162
150 182 184
149 179 173
138 176 185
136 172 174
121 154 162
154 184 184
124 153 149
140 177 185
121 154 162
84 99 98
131 157 149
141 175 174
112 134 134
125 156 162
116 137 134
143 178 185
128 158 162
146 177 174
121 151 149
134 159 149
124 153 149
99 124 118
85 100 98
141 177 185
136 160 148
154 178 148
150 180 173
138 173 174
105 130 135
94 125 135
150 180 173
119 153 162
121 151 149
122 154 162
131 160 162
140 176 185
135 171 174
119 153 162
141 175 174
126 157 162
138 173 174
134 156 134
138 176 185
149 181 184
150 180 173
142 178 185
111 133 134
131 169 174
141 175 174
132 172 185
144 174 162
131 157 149
91 123 135
116 152 162
125 156 162
135 162 162
138 176 185
150 180 173
128 158 162
128 158 162
125 153 149
139 174 174
134 173 185
120 153 159
133 161 162
128 158 162
157 182 161
124 153 149
141 177 185
132 160 162
136 160 149
133 155 134
0 0 0
73 93 98
134 159 149
153 184 184
144 164 148
147 178 174
127 154 149
142 178 185
134 161 162
156 185 184
143 178 185
142 177 185
138 163 161
146 178 174
137 160 149
139 176 185
124 155 162
134 161 162
138 161 148
129 158 162
130 159 162
140 177 185
69 91 98
120 153 162
145 179 185
70 91 98
112 134 134
132 172 185
130 159 162
126 157 162
145 180 185
69 91 98
146 175 162
139 164 161
119 153 162
136 170 162
146 180 185
116 151 162
148 179 173
95 125 135
142 178 185
122 155 162
129 158 162
123 152 149
123 155 162
129 159 162
125 156 162
100 128 135
132 160 162
82 98 98
143 176 174
142 178 185
125 156 162
111 146 150
148 179 174
147 178 173
135 174 185
132 160 162
144 179 185
150 180 173
119 153 162
120 154 162
123 155 162
94 121 118
123 155 162
107 131 135
121 154 162
160 184 161
124 156 162
120 153 162
144 176 174
145 179 185
146 177 174
131 159 162
126 156 162
129 156 149
134 158 148
139 164 161
122 155 162
120 154 162
110 133 134
130 159 162
127 155 149
132 157 149
148 181 184
147 180 185
142 175 174
127 157 162
118 152 162
144 177 174
0 0 0
140 174 174
136 172 174
111 131 118
126 157 162
154 162 179
146 180 185
151 182 184
127 157 162
142 175 174
144 179 185
119 138 134
128 158 162
93 124 135
151 180 173
126 154 149
117 137 134
148 176 162
137 160 149
138 163 161
126 154 149
114 151 162
151 182 184
146 180 185
114 150 163
129 158 162
83 99 98
151 181 173
82 98 98
150 182 184
159 183 161
102 125 118
116 152 162
141 177 185
143 178 185
129 158 162
115 151 162
128 158 162
144 179 185
107 132 135
105 130 135
147 176 162
117 137 134
144 179 185
67 90 99
123 152 149
82 93 71
113 128 97
131 157 149
129 156 149
130 159 162
141 177 185
151 180 173
119 153 162
136 162 162
142 175 174
133 160 162
149 182 184
137 158 134
103 129 135
73 88 71
109 126 97
138 171 162
126 157 162
110 133 134
150 180 173
103 129 135
151 181 173
127 155 149
131 159 162
156 181 161
152 181 173
125 156 162
131 157 149
143 176 174
79 91 71
104 126 118
102 125 118
105 130 135
134 171 174
124 156 162
147 180 185
151 166 133
124 153 149
147 180 185
157 182 161
127 157 162
131 154 134
110 133 134
144 179 185
98 127 135
110 133 134
127 157 162
113 150 163
134 158 148
102 129 135
126 156 162
120 151 149
126 157 162
148 179 174
122 154 162
94 125 135
74 94 98
108 132 134
119 153 162
124 156 162
152 179 161
136 162 162
131 159 162
129 156 149
137 160 148
154 184 184
114 150 163
127 157 162
124 155 162
111 134 134
123 155 162
141 177 185
132 158 149
133 158 149
134 161 162
94 125 135
124 156 162
142 178 185
116 137 134
156 185 184
130 159 162
131 154 134
113 131 118
134 158 149
126 154 149
101 128 135
145 179 185
105 130 135
102 129 135
125 154 149
74 93 98
129 156 149
74 94 98
129 156 149
126 157 162
141 177 185
149 181 184
140 176 185
120 153 162
125 156 162
79 96 98
141 165 161
152 183 184
159 160 154
130 159 162
99 127 135
121 151 149
132 154 134
128 158 162
97 126 135
142 178 185
141 177 185
146 180 185
122 154 162
95 125 135
132 160 162
125 153 149
126 157 162
102 129 135
150 180 173
133 158 149
147 181 185
123 155 162
152 183 184
131 157 149
136 162 161
147 181 185
134 161 162
134 161 162
103 129 135
128 158 162
125 156 162
150 180 173
123 155 162
151 178 161
126 157 162
121 154 162
125 156 162
130 156 149
138 161 148
148 181 184
159 185 173
121 154 162
127 157 162
124 155 162
140 159 134
138 176 185
146 177 174
129 158 162
117 134 117
140 177 185
121 154 162
122 152 149
84 99 98
152 183 184
128 155 149
140 174 174
118 150 149
145 179 185
121 154 162
137 157 134
125 156 162
128 158 162
134 158 149
103 129 135
95 125 135
113 135 134
149 179 173
107 128 118
122 154 162
126 157 162
129 158 162
155 180 161
122 137 117
151 183 184
111 134 134
122 152 149
158 187 184
116 151 162
130 159 162
124 153 149
150 177 162
124 156 162
104 127 118
110 133 134
112 134 134
101 128 135
113 131 117
129 158 162
95 125 135
126 151 134
100 124 118
137 175 185
150 182 184
142 178 185
123 155 162
131 159 162
117 149 149
117 152 162
74 94 98
115 151 162
119 150 149
127 157 162
81 97 98
108 129 118
149 179 173
130 159 162
147 178 174
108 132 134
136 160 148
147 178 174
150 180 173
146 180 185
122 155 162
151 180 173
151 181 173
126 157 162
134 161 162
140 165 161
114 150 162
128 158 162
127 154 149
129 159 162
113 147 150
135 159 149
125 151 134
120 151 149
138 175 185
130 159 162
123 152 149
120 151 149
147 178 174
121 136 117
131 160 162
150 178 161
132 155 134
110 130 118
124 153 149
75 94 98
126 157 162
139 176 185
131 159 162
128 158 162
149 182 184
148 181 184
140 176 185
85 100 98
144 179 185
141 173 162
125 150 134
129 158 162
145 165 148
145 179 185
122 155 162
120 151 149
141 175 174
142 178 185
129 158 162
135 161 162
151 181 173
125 153 149
132 160 162
135 172 174
157 186 184
141 177 185
152 183 184
97 126 135
149 182 184
129 169 174
141 173 162
132 160 162
123 152 149
157 186 184
164 186 161
131 159 162
0 0 0
139 164 161
126 154 149
150 182 184
146 180 185
97 126 135
136 162 161
131 157 149
105 130 135
153 182 173
146 180 185
124 156 162
97 123 118
96 126 135
122 155 162
118 150 149
124 156 162
123 155 162
145 179 185
92 120 118
135 159 149
149 181 184
125 153 149
99 127 135
149 179 173
124 156 162
151 183 184
145 179 185
126 154 149
94 125 135
139 161 148
124 155 162
123 155 162
131 159 162
153 181 173
151 180 173
145 177 174
107 132 135
153 182 173
104 130 135
142 178 185
135 159 148
148 181 184
106 131 135
165 184 148
125 156 162
136 162 162
116 151 162
123 152 149
139 176 185
104 130 135
150 182 184
125 156 162
123 155 162
128 158 162
140 162 148
122 154 162
129 153 134
133 160 162
134 161 162
124 155 162
157 184 173
81 97 98
144 176 174
142 166 161
140 177 185
145 179 185
147 178 174
137 173 174
111 138 148
134 158 149
127 157 162
107 128 118
152 183 184
126 157 162
139 173 183
111 134 134
103 129 135
128 158 162
156 181 161
122 152 149
134 174 185
148 179 174
122 152 149
141 175 174
94 124 135
108 132 134
127 152 134
104 130 135
121 151 149
143 176 174
151 183 184
145 177 174
113 135 134
145 179 185
134 161 162
121 154 162
127 155 149
121 151 149
149 182 184
123 155 162
141 175 174
134 161 162
142 163 148
104 126 118
124 155 162
137 175 185
117 152 162
123 155 162
135 159 149
132 157 149
129 159 162
132 160 162
126 157 162
120 154 162
122 155 162
146 180 185
120 151 149
102 129 135
141 177 185
129 159 162
101 128 135
116 151 162
138 171 162
127 157 162
126 156 162
125 154 149
142 178 185
125 156 162
109 129 118
145 179 185
121 154 162
140 165 161
104 130 135
140 162 148
145 179 185
86 100 98
98 123 118
147 180 185
129 158 162
150 180 173
142 173 162
124 153 149
148 179 173
67 90 99
129 158 162
119 138 134
117 152 162
152 181 173
103 129 135
128 155 149
154 156 173
153 184 184
146 173 149
128 155 149
141 167 170
143 173 162
146 177 174
127 155 149
130 171 185
141 177 185
111 134 134
151 183 184
139 161 148
128 158 162
131 154 134
137 173 174
106 131 135
94 124 135
130 156 149
123 153 149
150 182 184
133 161 162
149 182 184
120 153 162
120 135 117
93 120 118
143 176 174
126 157 162
116 136 134
111 133 134
148 179 174
129 158 162
109 133 134
153 184 184
128 158 162
146 177 174
152 181 173
112 146 150
132 160 162
128 158 162
141 162 148
113 132 118
106 131 135
132 173 185
127 157 162
123 155 162
104 130 135
138 176 185
148 176 162
149 182 184
105 130 135
112 149 163
138 164 161
151 180 173
135 174 185
101 128 135
116 149 149
154 180 161
150 182 184
128 158 162
109 129 118
119 153 162
147 178 174
85 95 71
128 157 162
135 162 162
135 159 148
77 90 71
134 161 162
100 128 135
151 181 173
117 134 117
136 170 157
132 157 149
144 176 174
131 159 162
146 178 174
121 154 162
126 140 117
141 172 162
146 175 162
95 125 135
0 0 0
125 156 162
95 125 135
139 161 148
143 178 185
110 133 134
148 179 174
138 171 162
156 185 184
132 160 162
124 156 162
143 174 162
129 155 149
124 153 149
133 155 134
139 174 174
98 126 135
151 182 184
121 151 149
127 157 162
124 155 162
155 182 173
137 163 161
119 135 117
140 177 185
140 164 161
120 132 97
130 159 162
140 174 174
150 182 184
117 152 162
155 185 184
115 136 134
137 163 161
143 176 174
121 154 162
150 182 184
125 153 149
106 128 118
125 156 162
103 118 129
139 176 185
82 98 98
79 96 98
95 109 116
127 157 162
103 129 135
146 177 174
128 158 162
130 159 162
77 95 98
149 177 162
127 157 162
81 98 98
137 175 185
121 154 162
117 152 162
157 184 173
134 173 185
139 176 185
119 153 162
146 180 185
127 152 134
127 157 162
109 129 118
118 138 134
151 180 173
143 176 174
153 184 184
157 184 173
100 128 135
119 153 162
131 159 162
128 158 162
133 160 162
132 157 149
142 160 134
133 173 185
133 173 185
124 156 162
149 181 184
114 135 134
128 155 149
130 156 149
141 165 161
137 160 148
152 183 184
160 181 148
144 177 174
150 177 162
105 127 118
128 158 162
153 179 161
122 154 162
128 155 149
139 176 185
153 184 184
152 181 173
126 157 162
123 155 162
148 181 184
110 133 134
118 152 162
135 174 185
132 160 162
119 150 149
144 165 148
136 167 181
120 154 159
131 160 162
149 179 174
120 154 162
118 153 162
142 178 185
109 133 134
131 160 162
133 158 149
144 174 162
146 178 173
130 156 149
134 174 185
134 158 149
132 160 162
129 158 162
110 133 134
125 156 162
106 131 135
109 133 134
138 176 185
127 157 162
147 176 162
120 154 162
135 159 149
119 153 162
124 156 162
145 177 174
142 178 185
118 152 162
129 156 149
126 154 149
142 175 174
139 171 162
110 133 134
133 158 149
128 158 162
150 182 184
147 173 149
129 159 162
130 159 162
109 132 134
143 166 161
120 153 162
97 126 135
120 154 162
94 125 135
114 150 163
132 157 149
70 92 98
106 128 118
122 155 162
124 156 162
104 130 135
145 177 174
125 156 162
129 158 162
131 157 149
129 158 162
121 154 162
154 182 173
130 159 162
148 179 174
129 156 149
101 128 135
138 176 185
113 135 134
107 131 135
116 149 149
148 181 184
134 159 149
142 175 174
101 128 135
141 177 185
150 180 173
150 182 184
106 131 135
123 152 149
117 134 117
143 178 185
144 164 148
110 126 97
135 162 162
115 151 162
124 156 162
122 152 149
142 163 148
129 158 162
131 157 149
125 150 134
127 157 162
105 127 118
149 181 184
124 153 149
142 173 162
117 137 134
112 134 134
140 177 185
133 158 149
133 173 185
140 177 185
141 177 185
142 178 185
119 150 149
92 120 118
121 154 162
117 149 149
127 157 162
98 127 135
148 181 184
67 90 99
136 162 162
90 98 71
152 183 184
82 98 98
150 180 173
146 177 174
141 177 185
152 181 173
97 126 135
138 173 174
117 152 162
98 127 135
134 161 162
120 154 162
98 127 135
143 178 185
140 177 185
129 155 149
144 177 174
153 184 184
114 135 134
150 178 161
137 157 134
125 153 149
127 157 162
104 130 135
101 128 135
120 151 149
138 163 161
156 183 173
131 154 134
145 174 162
143 178 185
140 174 174
99 127 135
98 123 118
141 165 161
137 160 148
121 154 162
0 0 0
132 160 162
114 151 162
105 130 135
108 132 134
129 158 162
148 181 184
131 159 162
123 155 162
146 180 185
95 125 135
153 184 184
143 164 148
126 156 162
110 130 118
123 138 117
129 158 162
149 182 184
100 128 135
107 131 135
102 126 118
133 161 162
129 158 162
138 173 174
96 126 135
132 157 149
135 172 174
131 154 134
115 151 162
140 177 185
147 178 174
101 128 135
147 178 174
140 172 162
112 131 118
143 176 174
122 152 149
139 176 185
121 151 149
137 163 161
131 157 149
86 100 98
127 152 134
105 131 135
95 125 135
132 158 149
94 124 135
148 176 161
137 158 134
130 159 162
130 156 149
110 133 134
135 156 134
144 179 185
117 137 134
152 183 184
143 178 185
128 157 162
134 173 185
107 128 118
127 155 149
147 178 174
112 134 134
104 126 118
130 159 162
140 177 185
103 129 135
76 95 98
85 100 98
127 157 162
153 181 173
121 154 162
112 131 118
100 128 135
123 155 162
127 157 162
131 159 162
122 155 162
136 175 180
103 129 135
144 164 148
95 125 135
111 135 126
117 137 134
110 130 118
120 154 162
140 174 174
135 161 162
135 162 162
144 167 161
141 175 174
125 156 162
69 91 98
144 179 185
130 156 149
143 174 162
145 177 174
118 150 149
150 182 184
124 153 149
73 93 98
157 184 173
128 158 162
113 135 134
152 181 173
104 130 135
128 158 162
124 153 149
132 173 185
115 151 162
135 172 174
112 131 118
121 154 162
135 174 185
141 177 185
124 156 162
144 177 174
118 150 149
146 180 185
125 153 149
109 133 134
140 177 185
75 94 98
127 154 149
131 160 162
151 178 161
155 185 184
101 128 135
125 156 162
127 157 162
149 179 173
139 176 185
133 158 149
151 180 173
144 174 162
125 153 149
137 160 149
152 181 173
136 173 170
119 138 134
128 158 162
138 173 174
155 185 184
132 155 134
127 157 162
133 160 162
126 151 134
127 157 162
124 155 162
132 160 162
66 90 99
128 158 162
146 175 162
98 127 135
137 173 174
140 170 149
121 151 149
149 177 162
156 183 173
143 178 185
117 149 149
121 124 156
112 134 134
111 134 134
72 88 71
150 182 184
0 0 0
139 174 174
146 180 185
101 128 135
149 179 173
134 161 162
95 125 135
119 138 134
156 183 173
155 183 173
122 128 156
132 157 149
118 152 162
137 163 161
152 181 173
130 159 162
141 163 148
148 181 184
138 158 134
99 127 135
101 128 135
143 178 185
87 101 98
108 132 134
129 158 162
145 179 185
127 157 162
123 149 134
130 159 162
108 129 118
133 158 149
131 157 149
110 133 134
130 159 162
145 180 185
151 178 161
143 178 185
138 171 162
131 157 149
108 132 134
150 182 184
130 156 149
104 130 135
114 135 134
110 133 134
140 174 174
148 179 174
129 158 162
136 175 185
142 178 185
143 176 174
126 154 149
133 158 149
111 134 134
91 123 135
147 176 162
104 130 135
148 178 174
95 125 126
102 129 135
127 155 149
133 161 162
146 180 185
152 183 184
151 182 184
144 177 174
143 176 174
126 154 149
140 174 174
151 183 184
103 129 135
97 123 118
104 127 118
92 123 135
135 161 162
96 126 135
113 135 134
94 124 135
156 183 173
139 176 185
139 176 185
144 179 185
104 123 98
147 180 185
143 178 185
133 173 185
150 182 184
134 174 185
146 175 162
160 184 161
130 159 162
124 153 149
121 154 162
143 178 185
150 182 184
143 178 185
126 154 149
117 149 149
157 184 173
143 178 185
121 151 149
131 159 162
123 138 117
90 115 98
120 151 149
146 173 149
146 180 185
128 155 149
146 177 174
124 155 162
149 182 184
141 177 185
114 135 134
104 130 135
152 183 184
134 158 149
117 137 134
127 157 162
148 181 184
153 184 184
103 129 135
113 132 117
138 173 174
105 131 135
142 177 185
116 133 117
122 155 162
150 182 184
139 164 161
97 126 135
136 159 149
112 134 134
145 179 185
116 151 162
123 155 162
155 185 184
94 121 118
94 125 135
129 156 149
127 155 149
117 149 149
152 183 184
99 127 135
136 174 185
150 180 173
141 177 185
103 126 118
150 177 162
129 155 149
147 178 174
154 184 184
123 149 134
156 183 173
151 178 162
132 160 162
111 134 134
152 183 184
147 178 174
141 175 174
125 154 149
132 170 174
127 157 162
139 176 185
122 154 162
131 159 162
130 159 162
142 178 185
143 178 185
143 178 185
132 160 162
107 131 135
77 96 98
105 127 118
148 179 174
109 133 134
72 93 98
130 159 162
80 97 98
120 154 162
142 178 185
95 125 135
128 158 162
137 175 185
99 127 135
149 179 173
99 127 135
114 136 134
112 134 134
114 135 134
124 156 162
141 177 185
152 183 184
126 157 162
135 162 162
158 187 184
145 179 185
140 177 185
146 180 185
105 130 135
143 164 148
155 185 184
136 160 149
153 184 184
152 179 161
83 99 98
108 132 134
135 174 185
106 131 135
131 159 162
122 154 162
151 180 173
130 156 149
128 152 134
144 176 174
148 181 184
124 156 162
143 178 185
104 130 135
132 157 149
147 164 133
96 122 118
142 178 185
128 158 162
125 156 162
104 130 135
147 178 174
127 157 162
100 128 135
138 163 161
154 184 184
126 151 134
112 150 163
128 158 162
130 159 162
132 160 162
104 130 135
123 155 162
101 128 135
136 160 149
96 120 132
99 124 118
135 162 162
135 174 185
106 131 135
152 181 173
152 183 184
136 172 174
131 154 134
145 177 174
121 154 162
102 129 135
128 155 149
121 136 117
118 153 162
131 157 149
138 163 161
153 184 184
108 132 134
143 176 174
151 181 173
124 156 162
93 124 135
134 161 162
135 159 148
142 163 148
104 130 135
152 183 184
128 158 162
121 154 162
114 147 149
143 176 174
129 155 149
153 181 173
117 137 134
150 180 173
104 130 135
110 130 118
131 159 162
124 153 149
129 158 162
120 139 134
106 131 135
154 182 173
141 177 185
124 156 162
141 177 185
118 153 162
129 158 162
115 136 134
113 150 163
147 180 185
141 177 185
119 150 149
129 156 149
128 158 162
144 176 174
134 173 185
123 155 162
113 147 149
120 151 149
112 147 149
136 160 148
147 178 174
128 158 162
129 150 117
139 161 148
131 160 162
147 181 185
82 98 98
126 154 149
101 128 135
150 180 173
144 179 185
147 180 185
137 157 134
117 152 162
105 130 135
130 159 162
148 181 184
139 164 161
153 184 184
146 180 185
124 153 149
139 174 174
122 152 149
114 148 149
158 185 173
134 161 162
132 160 162
154 182 173
125 156 162
120 151 149
136 159 149
131 160 162
126 154 149
140 176 185
126 157 162
117 137 134
157 186 184
126 156 162
122 154 162
152 181 173
128 158 162
130 159 162
137 157 134
142 178 185
117 134 117
149 179 174
104 126 118
143 178 185
153 182 173
124 155 162
150 182 184
131 156 149
130 172 185
157 182 161
157 160 173
146 180 185
117 152 162
100 128 135
128 158 162
130 156 149
95 125 135
106 128 118
142 178 185
96 125 135
110 130 118
151 183 184
105 130 135
152 183 184
120 154 162
151 180 173
124 153 149
116 152 162
102 126 118
129 156 149
98 126 135
67 90 99
156 183 173
141 175 174
78 96 98
77 95 98
129 158 162
151 183 184
146 177 174
102 125 118
144 176 174
132 157 149
131 156 149
137 167 170
137 173 174
108 132 134
110 130 118
153 179 161
149 182 184
75 94 98
126 154 149
147 180 185
141 177 185
144 177 174
114 145 135
105 131 135
134 158 149
127 157 162
126 157 162
128 155 149
133 160 162
134 158 149
121 133 97
127 155 149
141 178 180
115 151 162
100 128 135
139 176 185
121 137 117
130 159 162
154 180 161
125 156 162
74 93 98
119 153 162
148 181 184
153 184 184
138 173 174
130 159 162
149 179 173
150 180 173
135 174 180
141 177 185
161 188 184
145 180 185
154 184 184
139 176 185
125 156 162
146 177 174
130 159 162
125 153 149
140 176 185
111 133 134
139 176 185
146 175 162
116 151 162
99 115 129
103 126 118
120 154 162
119 153 162
120 153 162
152 183 184
115 151 162
127 154 149
146 178 174
130 159 162
120 153 162
138 161 148
135 159 149
132 160 162
156 185 184
108 132 134
149 177 162
110 133 134
107 132 135
129 158 162
128 171 185
142 178 185
119 138 134
129 158 162
126 157 162
105 127 118
146 175 162
138 176 185
150 182 184
145 179 185
120 151 149
110 133 134
118 152 162
124 156 162
103 129 135
99 127 135
146 180 185
154 182 173
145 179 185
108 129 118
150 182 184
134 161 162
127 155 149
145 179 185
123 152 149
123 149 134
101 125 118
145 177 174
146 180 185
141 165 161
147 178 173
146 175 162
141 175 174
65 89 99
107 128 118
126 154 149
128 158 162
127 157 162
144 177 174
133 161 162
131 157 149
131 159 162
133 160 162
155 180 161
156 185 184
122 152 149
145 180 185
146 180 185
133 161 162
148 179 173
129 158 162
140 177 185
124 153 149
150 180 173
102 129 135
98 127 135
151 183 184
148 177 162
136 159 149
146 177 174
99 124 118
132 157 149
129 153 134
123 152 149
123 155 162
124 155 162
126 154 149
151 180 173
114 132 118
109 126 98
150 182 184
126 154 149
122 155 162
82 98 98
103 129 135
94 121 118
123 155 162
154 180 161
154 182 173
149 182 184
114 135 134
137 170 162
134 159 149
148 181 184
129 158 162
145 179 185
132 160 162
124 153 149
124 156 162
136 162 162
156 181 161
99 120 98
121 151 149
142 175 174
102 129 135
150 180 173
145 177 174
137 173 174
108 132 134
146 180 185
149 181 184
92 124 135
103 129 135
102 129 135
152 183 184
134 171 174
127 157 162
120 154 162
143 174 162
94 125 135
145 179 185
124 155 162
129 159 162
128 158 162
123 155 162
144 177 174
126 157 162
131 157 149
128 155 149
148 179 174
152 176 148
106 131 135
146 180 185
124 155 162
107 132 135
145 179 185
123 153 149
99 127 135
102 129 135
77 90 71
138 175 185
155 183 173
130 159 162
157 184 173
136 162 161
144 179 185
147 181 185
142 177 185
89 122 135
133 161 162
109 133 134
119 153 162
101 128 135
102 129 135
118 152 162
96 122 118
125 156 162
136 174 185
82 98 98
152 183 184
141 177 185
108 128 118
144 179 185
127 155 149
147 176 161
115 133 118
148 181 184
155 159 184
127 154 149
103 129 135
94 121 118
129 159 162
139 159 134
132 160 162
124 153 149
90 123 135
73 93 98
108 132 134
102 129 135
143 176 174
146 180 185
141 163 148
128 158 162
117 143 158
124 153 149
111 133 134
126 156 162
137 175 185
148 181 184
134 159 149
128 155 149
140 177 185
125 156 162
161 184 161
99 127 135
125 156 162
126 151 134
123 155 162
144 176 174
133 160 162
135 174 185
108 132 134
105 127 118
153 184 184
131 157 149
133 170 174
131 159 162
124 156 162
142 173 162
142 173 162
150 182 184
135 159 149
117 137 134
127 155 149
113 135 134
125 153 149
156 185 184
150 182 184
114 135 134
138 176 185
90 123 135
106 131 135
93 124 135
145 179 185
142 178 185
130 159 162
96 125 135
152 183 184
131 159 162
147 178 174
127 157 162
136 159 149
132 160 162
140 177 185
141 177 185
129 159 162
122 152 149
148 177 161
91 123 135
121 151 149
134 158 148
131 159 162
96 126 135
138 158 134
154 182 173
141 177 185
79 96 98
0 0 0
132 160 162
130 156 149
137 160 148
70 92 98
106 131 135
119 153 162
100 128 135
125 156 162
144 179 185
143 176 174
105 131 135
141 175 174
160 185 173
135 174 185
132 160 162
77 95 98
110 133 134
141 175 174
126 157 162
120 151 149
123 152 149
118 137 134
127 157 162
134 161 162
148 181 184
113 150 163
138 176 185
147 178 173
127 155 149
71 92 98
151 182 184
133 161 162
130 159 162
130 159 162
115 136 134
144 176 174
130 159 162
106 131 135
145 179 185
145 180 185
128 158 162
135 162 162
133 158 149
102 129 135
123 155 162
134 171 174
131 157 149
108 132 134
156 185 184
132 157 149
137 175 185
145 175 162
131 157 149
92 120 118
120 151 142
116 152 162
129 158 162
133 161 162
117 152 162
132 160 162
134 161 162
130 159 162
141 177 185
103 126 118
142 178 185
65 89 99
116 152 162
100 127 135
125 154 149
148 181 184
156 185 184
129 156 149
66 90 99
120 154 162
119 153 162
141 162 148
116 137 134
141 165 161
106 131 135
132 157 149
134 174 185
138 176 185
153 181 173
132 160 162
151 180 173
137 163 161
150 175 148
105 130 135
129 155 149
146 180 185
121 154 162
151 183 184
145 179 185
102 129 135
120 154 162
149 156 184
99 127 135
152 179 161
126 157 162
128 152 134
123 153 149
113 135 134
101 128 135
71 92 98
107 132 135
119 135 117
110 133 134
120 151 149
97 126 135
115 136 134
103 126 118
124 156 162
140 174 174
123 152 149
157 186 184
145 179 185
138 173 174
151 181 173
136 175 185
136 172 174
121 154 162
123 155 162
107 132 135
120 153 162
96 126 135
106 128 118
102 125 118
128 158 162
127 157 162
111 149 163
121 154 162
126 157 162
157 184 173
123 155 162
101 125 118
113 150 163
147 180 185
132 160 162
117 152 162
141 175 174
77 95 98
153 159 184
133 161 162
126 154 149
120 154 162
158 184 173
149 181 184
121 154 162
138 173 174
143 178 185
155 183 173
141 177 185
153 179 161
150 182 184
135 162 162
140 177 185
120 154 162
149 182 184
151 161 179
146 177 174
140 162 148
158 184 173
152 183 184
150 180 174
141 177 185
132 157 149
123 155 162
126 157 162
153 184 184
121 136 117
132 157 149
116 137 134
130 159 162
131 157 149
126 157 162
143 176 174
150 180 173
141 165 161
133 158 149
137 171 183
127 157 162
131 172 185
125 156 162
102 129 135
158 182 161
148 181 184
145 180 185
116 137 134
144 179 185
117 134 117
138 175 185
111 130 118
131 159 162
155 183 173
126 157 162
131 160 162
133 160 162
107 128 118
126 156 162
123 155 162
130 159 162
101 125 118
108 132 134
140 165 161
142 175 174
135 172 174
129 156 149
110 133 134
128 168 174
133 160 162
133 171 174
120 154 162
114 147 149
117 137 134
130 172 185
147 180 185
147 180 185
144 176 174
121 151 149
122 155 162
132 160 162
128 158 162
110 133 134
130 154 134
129 156 149
130 159 162
139 176 185
132 157 149
106 131 135
127 154 149
151 181 173
135 174 185
146 180 185
139 174 174
122 152 149
113 135 134
127 157 162
83 94 71
106 124 98
139 164 161
149 179 173
129 158 162
137 175 185
130 156 149
116 136 134
133 160 162
98 127 135
124 153 149
121 154 162
154 185 184
97 126 135
142 173 162
142 176 174
145 177 174
115 151 162
129 155 149
142 178 185
129 158 162
127 155 149
120 153 162
129 158 162
160 186 173
148 181 184
128 152 134
71 92 98
114 135 134
130 159 162
151 180 173
104 130 135
109 129 118
134 159 149
154 184 184
135 162 162
116 136 134
112 134 134
99 127 135
146 180 185
100 128 135
153 181 173
112 146 150
156 185 184
92 124 135
120 153 162
142 178 185
123 155 162
82 93 71
122 155 162
129 158 162
144 179 185
133 158 149
130 159 162
125 156 162
145 179 185
156 183 173
105 130 135
112 134 134
113 135 134
130 159 162
